;1001
;Printer name: Creality Ender 3 V2
;TIME:1571
;Print time: 26m:11s
;Extruder 1 material used: 991mm
;Extruder 1 material name: 
;Extruder 1 filament diameter: 1.75mm
;Extruder 1 nozzle diameter: 0.4mm
;Extruder 1 offset x: 0mm
;Extruder 1 offset y: 0mm
;Extruder 1 offset z: 0mm
;Extruder 1 max temp: 200
;Bed temp: 70
;Layer count: 11
;Width: 220mm
;Depth: 220mm
;Height: 250mm
;Center x: 110mm
;Center y: 110mm
;Center z: 0mm
;Count of bodies: 1
;Fusion version: 2.0.19440
G21
;--------------------------------
;Selected Profile: PLA Bowden Tube
;--------------------------------
;Selected Printer: Creality, Ender 3 V2
;--------------------------------
T0
M140 S70
M104 S200 T0
M105
M190 S70
M105
M109 S200 T0
G0 F7200
G90
M83
;Reset multiplier
M220 S100
M221 S100
G28
G1 Z10 F236
G92 E0
G0 X10 Y10 Z10 F7200
G92 E0
;--------------------------------
;Part 1
;LAYER_COUNT:11
;LAYER:1
M107
;rapid-leaky
G0 X20 Y20.5 Z0.2 F7200
;bead-prime
G1 X120 F720 E8.315
G1 F2700 E-7
;rapid-dry
G0 X125.236 Y82.985 F7200
G1 F2700 E7
;bead-skirt/brim
G1 X130.669 F960 E0.181
G1 X131.688 Y83.167 E0.034
G1 X132.527 Y83.562 E0.031
G1 X133.282 Y84.091 E0.031
G1 X134.157 Y85.134 E0.045
G1 X134.347 Y85.653 E0.018
G1 X134.866 Y85.843 E0.019
G1 X136.036 Y86.824 E0.051
G1 X136.723 Y88.008 E0.045
G1 X137.005 Y89.069 E0.037
G1 X137.017 Y94.921 E0.194
G1 X133.812 Y98.126 E0.151
G1 Y122.034 E0.795
G1 X137.014 Y125.236 E0.151
G1 Y130.659 E0.18
G1 X136.838 Y131.679 E0.035
G1 X136.438 Y132.527 E0.031
G1 X135.909 Y133.282 E0.03
G1 X134.866 Y134.157 E0.046
G1 X134.347 Y134.347 E0.018
G1 X134.157 Y134.866 E0.018
G1 X133.176 Y136.036 E0.051
G1 X131.841 Y136.81 E0.052
G1 X130.659 Y137.014 E0.039
G1 X125.076 E0.186
G1 X121.874 Y133.812 E0.151
G1 X120.54 E0.044
G1 X118.138 Y136.214 E0.113
G1 X102.041 E0.535
G1 X99.64 Y133.812 E0.113
G1 X97.965 E0.056
G1 X94.76 Y137.017 E0.151
G1 X89.068 Y137.005 E0.189
G1 X88.008 Y136.722 E0.037
G1 X86.824 Y136.036 E0.045
G1 X85.843 Y134.866 E0.051
G1 X85.653 Y134.347 E0.018
G1 X85.293 Y134.216 E0.013
G1 X84.396 Y133.588 E0.037
G1 X83.634 Y132.679 E0.039
G1 X83.167 Y131.688 E0.036
G1 X82.985 Y130.669 E0.035
G1 Y125.236 E0.181
G1 X86.187 Y122.034 E0.15
G1 Y97.966 E0.801
G1 X82.985 Y94.763 E0.15
G1 Y89.331 E0.181
G1 X83.167 Y88.312 E0.034
G1 X83.562 Y87.473 E0.031
G1 X84.091 Y86.718 E0.031
G1 X85.134 Y85.843 E0.045
G1 X85.653 Y85.653 E0.019
G1 X85.843 Y85.134 E0.018
G1 X86.824 Y83.964 E0.051
G1 X88.009 Y83.277 E0.045
G1 X89.069 Y82.995 E0.037
G1 X94.921 Y82.981 E0.194
G1 X98.126 Y86.188 E0.151
G1 X122.034 E0.795
G1 X125.236 Y82.985 E0.151
;rapid-leaky
G0 X125.401 Y83.385 F7200
;bead-skirt/brim
G1 X130.633 F960 E0.174
G1 X131.566 Y83.551 E0.032
G1 X132.325 Y83.91 E0.027
G1 X133.01 Y84.388 E0.028
G1 X133.806 Y85.337 E0.041
G1 X134.035 Y85.965 E0.023
G1 X134.663 Y86.194 E0.022
G1 X135.725 Y87.086 E0.046
G1 X136.35 Y88.163 E0.041
G1 X136.605 Y89.122 E0.033
G1 X136.617 Y94.755 E0.188
G1 X133.412 Y97.96 E0.151
G1 Y122.2 E0.806
G1 X136.614 Y125.402 E0.15
G1 Y130.625 E0.174
G1 X136.453 Y131.557 E0.032
G1 X136.09 Y132.325 E0.028
G1 X135.611 Y133.01 E0.028
G1 X134.663 Y133.806 E0.041
G1 X134.035 Y134.035 E0.022
G1 X133.806 Y134.663 E0.022
G1 X132.915 Y135.725 E0.046
G1 X131.703 Y136.428 E0.047
G1 X130.625 Y136.614 E0.036
G1 X125.242 E0.179
G1 X122.04 Y133.412 E0.151
G1 X120.374 E0.055
G1 X117.972 Y135.814 E0.113
G1 X102.206 E0.525
G1 X99.805 Y133.412 E0.113
G1 X97.799 E0.066
G1 X94.594 Y136.617 E0.151
G1 X89.121 Y136.605 E0.182
G1 X88.163 Y136.35 E0.033
G1 X87.086 Y135.725 E0.042
G1 X86.194 Y134.663 E0.046
G1 X85.965 Y134.035 E0.022
G1 X85.48 Y133.858 E0.017
G1 X84.669 Y133.29 E0.033
G1 X83.974 Y132.462 E0.036
G1 X83.551 Y131.566 E0.033
G1 X83.385 Y130.633 E0.031
G1 Y125.402 E0.174
G1 X86.587 Y122.2 E0.151
G1 Y97.8 E0.812
G1 X83.385 Y94.597 E0.15
G1 Y89.367 E0.174
G1 X83.551 Y88.434 E0.032
G1 X83.91 Y87.675 E0.028
G1 X84.388 Y86.99 E0.027
G1 X85.337 Y86.194 E0.042
G1 X85.965 Y85.965 E0.022
G1 X86.194 Y85.337 E0.022
G1 X87.086 Y84.275 E0.046
G1 X88.163 Y83.65 E0.042
G1 X89.122 Y83.395 E0.033
G1 X94.755 Y83.382 E0.187
G1 X97.961 Y86.588 E0.151
G1 X122.199 E0.806
G1 X125.401 Y83.385 E0.151
;rapid-leaky
G0 X125.567 Y83.785 F7200
;bead-skirt/brim
G1 X130.598 F960 E0.167
G1 X131.443 Y83.936 E0.028
G1 X132.124 Y84.257 E0.025
G1 X132.737 Y84.686 E0.025
G1 X133.454 Y85.541 E0.038
G1 X133.724 Y86.276 E0.026
G1 X134.459 Y86.546 E0.026
G1 X135.414 Y87.347 E0.041
G1 X135.977 Y88.317 E0.037
G1 X136.205 Y89.174 E0.03
G1 X136.217 Y94.59 E0.18
G1 X133.012 Y97.795 E0.151
G1 Y122.365 E0.817
G1 X136.214 Y125.567 E0.151
G1 Y130.59 E0.167
G1 X136.068 Y131.436 E0.028
G1 X135.743 Y132.124 E0.025
G1 X135.314 Y132.737 E0.025
G1 X134.459 Y133.454 E0.037
G1 X133.724 Y133.724 E0.027
G1 X133.454 Y134.459 E0.026
G1 X132.653 Y135.414 E0.041
G1 X131.564 Y136.046 E0.042
G1 X130.59 Y136.214 E0.033
G1 X125.407 E0.172
G1 X122.205 Y133.012 E0.151
G1 X120.209 E0.066
G1 X117.807 Y135.414 E0.113
G1 X102.372 E0.514
G1 X99.971 Y133.012 E0.113
G1 X97.634 E0.077
G1 X94.429 Y136.217 E0.151
G1 X89.174 Y136.205 E0.175
G1 X88.317 Y135.977 E0.029
G1 X87.347 Y135.414 E0.038
G1 X86.546 Y134.459 E0.041
G1 X86.276 Y133.724 E0.026
G1 X85.666 Y133.5 E0.022
G1 X84.942 Y132.993 E0.029
G1 X84.313 Y132.244 E0.033
G1 X83.936 Y131.443 E0.029
G1 X83.785 Y130.598 E0.029
G1 Y125.567 E0.167
G1 X86.987 Y122.365 E0.151
G1 Y97.634 E0.822
G1 X83.785 Y94.431 E0.151
G1 Y89.402 E0.167
G1 X83.936 Y88.557 E0.029
G1 X84.257 Y87.876 E0.025
G1 X84.686 Y87.263 E0.025
G1 X85.541 Y86.546 E0.037
G1 X86.276 Y86.276 E0.026
G1 X86.546 Y85.541 E0.026
G1 X87.347 Y84.586 E0.041
G1 X88.318 Y84.023 E0.038
G1 X89.174 Y83.795 E0.029
G1 X94.59 Y83.782 E0.18
G1 X97.795 Y86.988 E0.151
G1 X122.365 E0.817
G1 X125.567 Y83.785 E0.151
;rapid-leaky
G0 X125.733 Y84.185 F7200
;bead-skirt/brim
G1 X130.563 F960 E0.16
G1 X131.321 Y84.32 E0.026
G1 X131.922 Y84.604 E0.022
G1 X132.465 Y84.983 E0.022
G1 X133.103 Y85.744 E0.033
G1 X133.412 Y86.588 E0.03
G1 X134.256 Y86.897 E0.03
G1 X135.104 Y87.608 E0.037
G1 X135.604 Y88.472 E0.033
G1 X135.805 Y89.227 E0.026
G1 X135.816 Y94.425 E0.173
G1 X132.612 Y97.629 E0.151
G1 Y122.531 E0.828
G1 X135.814 Y125.733 E0.15
G1 Y130.556 E0.161
G1 X135.683 Y131.314 E0.025
G1 X135.396 Y131.923 E0.023
G1 X135.017 Y132.465 E0.022
G1 X134.256 Y133.103 E0.033
G1 X133.412 Y133.412 E0.03
G1 X133.103 Y134.256 E0.03
G1 X132.392 Y135.103 E0.036
G1 X131.425 Y135.664 E0.038
G1 X130.556 Y135.814 E0.029
G1 X125.573 E0.166
G1 X122.371 Y132.612 E0.15
G1 X120.043 E0.078
G1 X117.641 Y135.014 E0.113
G1 X102.538 E0.502
G1 X100.137 Y132.612 E0.113
G1 X97.468 E0.089
G1 X94.264 Y135.816 E0.15
G1 X89.227 Y135.805 E0.168
G1 X88.472 Y135.604 E0.026
G1 X87.608 Y135.103 E0.033
G1 X86.897 Y134.256 E0.037
G1 X86.588 Y133.412 E0.03
G1 X85.853 Y133.143 E0.026
G1 X85.214 Y132.695 E0.026
G1 X84.653 Y132.027 E0.029
G1 X84.32 Y131.321 E0.026
G1 X84.185 Y130.563 E0.025
G1 Y125.733 E0.161
G1 X87.387 Y122.531 E0.151
G1 Y97.469 E0.833
G1 X84.185 Y94.266 E0.151
G1 Y89.437 E0.16
G1 X84.32 Y88.679 E0.026
G1 X84.604 Y88.077 E0.022
G1 X84.983 Y87.535 E0.022
G1 X85.744 Y86.897 E0.033
G1 X86.588 Y86.588 E0.03
G1 X86.897 Y85.744 E0.03
G1 X87.608 Y84.897 E0.037
G1 X88.472 Y84.396 E0.033
G1 X89.227 Y84.195 E0.026
G1 X94.425 Y84.182 E0.173
G1 X97.629 Y87.388 E0.151
G1 X122.531 E0.828
G1 X125.733 Y84.185 E0.151
;rapid-leaky
G0 X125.899 Y84.585 F7200
;bead-skirt/brim
G1 X130.527 F960 E0.153
G1 X131.198 Y84.704 E0.023
G1 X131.721 Y84.951 E0.019
G1 X132.192 Y85.281 E0.02
G1 X132.751 Y85.948 E0.028
G1 X133.085 Y86.859 E0.033
G1 Y86.935 E0.002
G1 X133.229 Y86.947 E0.005
G1 X134.053 Y87.249 E0.029
G1 X134.793 Y87.87 E0.032
G1 X135.231 Y88.626 E0.029
G1 X135.405 Y89.28 E0.023
G1 X135.416 Y94.259 E0.166
G1 X132.212 Y97.463 E0.15
G1 Y122.697 E0.84
G1 X135.414 Y125.899 E0.15
G1 Y130.522 E0.154
G1 X135.298 Y131.193 E0.023
G1 X135.049 Y131.721 E0.019
G1 X134.719 Y132.192 E0.019
G1 X134.053 Y132.751 E0.029
G1 X133.141 Y133.085 E0.032
G1 X133.065 E0.003
G1 X133.053 Y133.228 E0.005
G1 X132.751 Y134.052 E0.029
G1 X132.13 Y134.793 E0.032
G1 X131.287 Y135.282 E0.032
G1 X130.522 Y135.414 E0.026
G1 X125.739 E0.159
G1 X122.537 Y132.212 E0.151
G1 X119.877 E0.088
G1 X117.475 Y134.614 E0.113
G1 X102.703 E0.492
G1 X100.302 Y132.212 E0.113
G1 X97.302 E0.099
G1 X94.098 Y135.416 E0.151
G1 X89.279 Y135.405 E0.16
G1 X88.626 Y135.231 E0.023
G1 X87.87 Y134.793 E0.029
G1 X87.249 Y134.053 E0.032
G1 X86.947 Y133.229 E0.029
G1 X86.935 Y133.085 E0.005
G1 X86.859 E0.003
G1 X86.04 Y132.785 E0.029
G1 X85.487 Y132.398 E0.022
G1 X84.993 Y131.809 E0.026
G1 X84.704 Y131.198 E0.022
G1 X84.585 Y130.527 E0.023
G1 Y125.899 E0.154
G1 X87.787 Y122.697 E0.15
G1 Y97.303 E0.845
G1 X84.585 Y94.1 E0.151
G1 Y89.473 E0.153
G1 X84.704 Y88.802 E0.023
G1 X84.951 Y88.279 E0.019
G1 X85.281 Y87.808 E0.019
G1 X85.947 Y87.249 E0.029
G1 X86.87 Y86.911 E0.033
G1 X86.935 Y86.912 E0.002
G1 X86.947 Y86.772 E0.005
G1 X87.249 Y85.947 E0.029
G1 X87.87 Y85.207 E0.032
G1 X88.627 Y84.768 E0.029
G1 X89.28 Y84.595 E0.023
G1 X94.259 Y84.583 E0.165
G1 X97.463 Y87.788 E0.151
G1 X122.697 E0.839
G1 X125.899 Y84.585 E0.151
;rapid-leaky
G0 X126.064 Y84.985 F7200
;bead-skirt/brim
G1 X130.492 F960 E0.147
G1 X131.075 Y85.089 E0.02
G1 X131.52 Y85.298 E0.016
G1 X131.919 Y85.578 E0.017
G1 X132.4 Y86.151 E0.025
G1 X132.685 Y86.93 E0.027
G1 Y87.303 E0.013
G1 X133.142 Y87.341 E0.015
G1 X133.849 Y87.6 E0.025
G1 X134.482 Y88.131 E0.027
G1 X134.859 Y88.781 E0.025
G1 X135.005 Y89.333 E0.019
G1 X135.016 Y94.094 E0.159
G1 X131.812 Y97.298 E0.15
G1 Y122.862 E0.851
G1 X135.014 Y126.064 E0.15
G1 Y130.487 E0.147
G1 X134.913 Y131.071 E0.02
G1 X134.702 Y131.52 E0.017
G1 X134.422 Y131.92 E0.016
G1 X133.849 Y132.4 E0.025
G1 X133.07 Y132.685 E0.027
G1 X132.697 E0.013
G1 X132.659 Y133.141 E0.015
G1 X132.4 Y133.849 E0.025
G1 X131.869 Y134.482 E0.027
G1 X131.148 Y134.9 E0.028
G1 X130.487 Y135.014 E0.022
G1 X125.904 E0.153
G1 X122.702 Y131.812 E0.15
G1 X119.712 E0.1
G1 X117.31 Y134.214 E0.113
G1 X102.869 E0.48
G1 X100.468 Y131.812 E0.113
G1 X97.137 E0.111
G1 X93.933 Y135.016 E0.151
G1 X89.332 Y135.005 E0.153
G1 X88.781 Y134.858 E0.019
G1 X88.131 Y134.482 E0.025
G1 X87.6 Y133.849 E0.027
G1 X87.341 Y133.142 E0.025
G1 X87.303 Y132.685 E0.015
G1 X86.93 E0.013
G1 X86.226 Y132.427 E0.025
G1 X85.759 Y132.1 E0.019
G1 X85.332 Y131.592 E0.022
G1 X85.089 Y131.076 E0.019
G1 X84.985 Y130.492 E0.02
G1 Y126.064 E0.147
G1 X88.187 Y122.862 E0.15
G1 Y97.137 E0.856
G1 X84.985 Y93.934 E0.151
G1 Y89.508 E0.147
G1 X85.089 Y88.925 E0.02
G1 X85.298 Y88.48 E0.016
G1 X85.578 Y88.081 E0.016
G1 X86.151 Y87.6 E0.025
G1 X86.939 Y87.312 E0.028
G1 X87.303 Y87.315 E0.012
G1 X87.341 Y86.858 E0.015
G1 X87.6 Y86.151 E0.025
G1 X88.131 Y85.518 E0.028
G1 X88.781 Y85.141 E0.025
G1 X89.333 Y84.995 E0.019
G1 X94.094 Y84.983 E0.158
G1 X97.298 Y88.188 E0.151
G1 X122.862 E0.85
G1 X126.064 Y84.985 E0.151
;rapid-leaky
G0 X126.23 Y85.385 F7200
;bead-skirt/brim
G1 X130.457 F960 E0.14
G1 X130.953 Y85.473 E0.017
G1 X131.318 Y85.646 E0.014
G1 X131.647 Y85.876 E0.013
G1 X132.048 Y86.354 E0.021
G1 X132.285 Y87.001 E0.023
G1 Y87.691 E0.023
G1 X132.269 Y87.734 E0.001
G1 X132.654 Y87.702 E0.013
G1 X133.055 Y87.735 E0.013
G1 X133.646 Y87.952 E0.021
G1 X134.171 Y88.392 E0.023
G1 X134.486 Y88.935 E0.021
G1 X134.606 Y89.385 E0.015
G1 X134.615 Y93.929 E0.151
G1 X131.412 Y97.132 E0.151
G1 Y123.028 E0.861
G1 X134.614 Y126.23 E0.151
G1 Y130.453 E0.141
G1 X134.528 Y130.95 E0.016
G1 X134.354 Y131.318 E0.014
G1 X134.124 Y131.647 E0.013
G1 X133.646 Y132.048 E0.021
G1 X132.999 Y132.285 E0.023
G1 X132.309 E0.023
G1 X132.266 Y132.269 E0.001
G1 X132.298 Y132.654 E0.013
G1 X132.265 Y133.055 E0.014
G1 X132.048 Y133.646 E0.02
G1 X131.608 Y134.171 E0.023
G1 X131.009 Y134.518 E0.023
G1 X130.453 Y134.614 E0.019
G1 X126.07 E0.146
G1 X122.868 Y131.412 E0.15
G1 X119.546 E0.111
G1 X117.144 Y133.814 E0.113
G1 X103.035 E0.469
G1 X100.634 Y131.412 E0.113
G1 X96.971 E0.122
G1 X93.768 Y134.615 E0.151
G1 X89.385 Y134.606 E0.145
G1 X88.935 Y134.486 E0.016
G1 X88.392 Y134.171 E0.021
G1 X87.952 Y133.646 E0.023
G1 X87.735 Y133.055 E0.021
G1 X87.702 Y132.654 E0.013
G1 X87.734 Y132.269 E0.013
G1 X87.691 Y132.285 E0.001
G1 X87.001 E0.023
G1 X86.413 Y132.07 E0.021
G1 X86.032 Y131.803 E0.016
G1 X85.672 Y131.374 E0.018
G1 X85.473 Y130.953 E0.016
G1 X85.385 Y130.457 E0.016
G1 Y126.23 E0.141
G1 X88.587 Y123.028 E0.151
G1 Y96.972 E0.866
G1 X85.385 Y93.769 E0.151
G1 Y89.543 E0.14
G1 X85.473 Y89.047 E0.017
G1 X85.646 Y88.682 E0.014
G1 X85.876 Y88.353 E0.013
G1 X86.354 Y87.952 E0.021
G1 X87.008 Y87.713 E0.023
G1 X87.734 Y87.729 E0.024
G1 X87.702 Y87.346 E0.013
G1 X87.735 Y86.945 E0.013
G1 X87.952 Y86.354 E0.021
G1 X88.392 Y85.829 E0.023
G1 X88.935 Y85.514 E0.021
G1 X89.385 Y85.394 E0.015
G1 X93.929 Y85.384 E0.151
G1 X97.132 Y88.588 E0.151
G1 X123.028 E0.861
G1 X126.23 Y85.385 E0.151
;rapid-leaky
G0 X126.396 Y85.785 F7200
;bead-skirt/brim
G1 X130.421 F960 E0.134
G1 X130.83 Y85.858 E0.014
G1 X131.117 Y85.993 E0.01
G1 X131.374 Y86.173 E0.011
G1 X131.697 Y86.558 E0.016
G1 X131.885 Y87.072 E0.019
G1 Y87.62 E0.018
G1 X131.697 Y88.134 E0.018
G1 X131.345 Y88.554 E0.018
G1 X130.912 Y88.802 E0.017
G1 X130.586 Y88.892 E0.011
G1 X130.172 Y88.909 E0.014
G1 X129.926 Y88.971 E0.008
G1 X129.715 Y89.096 E0.008
G1 X129.549 Y89.277 E0.009
G1 X129.488 Y89.382 E0.004
G1 X129.414 Y89.617 E0.008
G1 X129.41 Y89.863 E0.008
G1 X129.476 Y90.097 E0.008
G1 X129.609 Y90.305 E0.008
G1 X129.695 Y90.391 E0.004
G1 X129.904 Y90.524 E0.009
G1 X130.137 Y90.59 E0.008
G1 X130.261 Y90.597 E0.004
G1 X130.383 Y90.586 E0.004
G1 X130.618 Y90.512 E0.008
G1 X130.82 Y90.374 E0.008
G1 X130.979 Y90.175 E0.009
G1 X131.029 Y90.074 E0.003
G1 X131.091 Y89.828 E0.009
G1 X131.108 Y89.414 E0.014
G1 X131.198 Y89.088 E0.011
G1 X131.446 Y88.655 E0.016
G1 X131.866 Y88.303 E0.019
G1 X132.34 Y88.13 E0.017
G1 X132.654 Y88.104 E0.01
G1 X132.968 Y88.13 E0.01
G1 X133.442 Y88.303 E0.017
G1 X133.86 Y88.654 E0.018
G1 X134.113 Y89.09 E0.017
G1 X134.206 Y89.438 E0.012
G1 X134.215 Y93.763 E0.144
G1 X131.012 Y96.966 E0.151
G1 Y123.194 E0.872
G1 X134.214 Y126.396 E0.151
G1 Y130.419 E0.133
G1 X134.143 Y130.828 E0.014
G1 X134.007 Y131.117 E0.011
G1 X133.827 Y131.374 E0.01
G1 X133.442 Y131.697 E0.017
G1 X132.928 Y131.885 E0.018
G1 X132.38 E0.018
G1 X131.866 Y131.697 E0.019
G1 X131.481 Y131.374 E0.016
G1 X131.275 Y131.079 E0.012
G1 X131.114 Y130.64 E0.016
G1 X131.083 Y130.176 E0.015
G1 X131.021 Y129.96 E0.008
G1 X130.893 Y129.759 E0.008
G1 X130.71 Y129.604 E0.008
G1 X130.605 Y129.55 E0.004
G1 X130.493 Y129.511 E0.004
G1 X130.254 Y129.486 E0.008
G1 X130.021 Y129.531 E0.007
G1 X129.912 Y129.579 E0.004
G1 X129.72 Y129.72 E0.008
G1 X129.643 Y129.81 E0.004
G1 X129.533 Y130.017 E0.008
G1 X129.486 Y130.255 E0.008
G1 X129.511 Y130.491 E0.008
G1 X129.548 Y130.599 E0.004
G1 X129.614 Y130.723 E0.005
G1 X129.759 Y130.893 E0.007
G1 X129.96 Y131.021 E0.008
G1 X130.071 Y131.061 E0.004
G1 X130.194 Y131.086 E0.004
G1 X130.636 Y131.113 E0.015
G1 X131.079 Y131.275 E0.015
G1 X131.374 Y131.481 E0.012
G1 X131.697 Y131.866 E0.017
G1 X131.871 Y132.34 E0.017
G1 X131.896 Y132.654 E0.01
G1 X131.871 Y132.968 E0.011
G1 X131.697 Y133.442 E0.017
G1 X131.346 Y133.86 E0.018
G1 X130.871 Y134.136 E0.018
G1 X130.419 Y134.214 E0.015
G1 X126.236 E0.139
G1 X123.034 Y131.012 E0.151
G1 X119.38 E0.122
G1 X116.978 Y133.414 E0.113
G1 X103.201 E0.458
G1 X100.8 Y131.012 E0.113
G1 X96.805 E0.133
G1 X93.602 Y134.215 E0.15
G1 X89.438 Y134.206 E0.139
G1 X89.09 Y134.113 E0.012
G1 X88.654 Y133.86 E0.017
G1 X88.303 Y133.442 E0.018
G1 X88.13 Y132.968 E0.016
G1 X88.104 Y132.654 E0.011
G1 X88.13 Y132.34 E0.01
G1 X88.303 Y131.866 E0.017
G1 X88.655 Y131.446 E0.018
G1 X89.088 Y131.198 E0.017
G1 X89.42 Y131.106 E0.011
G1 X89.845 Y131.093 E0.015
G1 X90.097 Y131.038 E0.008
G1 X90.315 Y130.916 E0.009
G1 X90.491 Y130.738 E0.008
G1 X90.609 Y130.52 E0.008
G1 X90.661 Y130.273 E0.008
G1 X90.66 Y130.148 E0.005
G1 X90.603 Y129.9 E0.008
G1 X90.554 Y129.794 E0.004
G1 X90.425 Y129.618 E0.007
G1 X90.301 Y129.506 E0.006
G1 X90.204 Y129.444 E0.004
G1 X90.088 Y129.391 E0.004
G1 X89.88 Y129.344 E0.007
G1 X89.712 Y129.34 E0.006
G1 X89.597 Y129.357 E0.003
G1 X89.364 Y129.443 E0.009
G1 X89.26 Y129.511 E0.004
G1 X89.076 Y129.697 E0.009
G1 X88.961 Y129.906 E0.007
G1 X88.911 Y130.124 E0.008
G1 X88.891 Y130.627 E0.017
G1 X88.725 Y131.079 E0.016
G1 X88.519 Y131.374 E0.012
G1 X88.134 Y131.697 E0.016
G1 X87.62 Y131.885 E0.019
G1 X87.072 E0.018
G1 X86.599 Y131.712 E0.017
G1 X86.305 Y131.506 E0.011
G1 X86.012 Y131.157 E0.016
G1 X85.858 Y130.83 E0.012
G1 X85.785 Y130.421 E0.013
G1 Y126.396 E0.134
G1 X88.987 Y123.194 E0.151
G1 Y96.806 E0.878
G1 X85.785 Y93.603 E0.15
G1 Y89.579 E0.134
G1 X85.858 Y89.17 E0.014
G1 X85.993 Y88.883 E0.01
G1 X86.173 Y88.626 E0.011
G1 X86.558 Y88.303 E0.017
G1 X87.077 Y88.113 E0.018
G1 X87.635 Y88.119 E0.019
G1 X88.136 Y88.305 E0.017
G1 X88.519 Y88.626 E0.017
G1 X88.725 Y88.92 E0.012
G1 X88.891 Y89.373 E0.016
G1 X88.909 Y89.828 E0.015
G1 X88.971 Y90.074 E0.009
G1 X89.097 Y90.286 E0.008
G1 X89.276 Y90.451 E0.008
G1 X89.498 Y90.558 E0.008
G1 X89.617 Y90.586 E0.004
G1 X89.734 Y90.597 E0.004
G1 X89.877 Y90.587 E0.005
G1 X90.098 Y90.523 E0.007
G1 X90.205 Y90.465 E0.004
G1 X90.392 Y90.304 E0.009
G1 X90.523 Y90.098 E0.008
G1 X90.565 Y89.982 E0.004
G1 X90.597 Y89.739 E0.008
G1 X90.558 Y89.498 E0.008
G1 X90.451 Y89.276 E0.008
G1 X90.376 Y89.181 E0.004
G1 X90.286 Y89.097 E0.005
G1 X90.074 Y88.971 E0.008
G1 X89.828 Y88.909 E0.008
G1 X89.414 Y88.892 E0.014
G1 X89.088 Y88.802 E0.011
G1 X88.655 Y88.554 E0.017
G1 X88.303 Y88.134 E0.018
G1 X88.13 Y87.66 E0.017
G1 X88.104 Y87.346 E0.01
G1 X88.13 Y87.032 E0.011
G1 X88.303 Y86.558 E0.017
G1 X88.654 Y86.14 E0.018
G1 X89.09 Y85.887 E0.016
G1 X89.438 Y85.794 E0.012
G1 X93.763 Y85.784 E0.144
G1 X96.966 Y88.988 E0.151
G1 X123.194 E0.872
G1 X126.396 Y85.785 E0.151
;rapid-leaky
G0 X126.561 Y86.185 F7200
;bead-skirt/brim
G1 X130.386 F960 E0.127
G1 X130.708 Y86.242 E0.011
G1 X130.915 Y86.34 E0.008
G1 X131.102 Y86.471 E0.007
G1 X131.345 Y86.761 E0.013
G1 X131.485 Y87.143 E0.013
G1 Y87.549 E0.014
G1 X131.345 Y87.931 E0.013
G1 X131.084 Y88.242 E0.014
G1 X130.757 Y88.43 E0.012
G1 X130.523 Y88.495 E0.008
G1 X130.129 Y88.511 E0.014
G1 X129.946 Y88.543 E0.006
G1 X129.773 Y88.6 E0.006
G1 X129.611 Y88.681 E0.006
G1 X129.462 Y88.785 E0.006
G1 X129.331 Y88.909 E0.006
G1 X129.218 Y89.051 E0.006
G1 X129.127 Y89.207 E0.006
G1 X129.06 Y89.377 E0.006
G1 X129.018 Y89.553 E0.006
G1 X129.002 Y89.733 E0.006
G1 X129.013 Y89.914 E0.006
G1 X129.049 Y90.091 E0.006
G1 X129.111 Y90.261 E0.006
G1 X129.197 Y90.421 E0.006
G1 X129.306 Y90.567 E0.006
G1 X129.433 Y90.694 E0.006
G1 X129.579 Y90.803 E0.006
G1 X129.739 Y90.889 E0.006
G1 X129.909 Y90.951 E0.006
G1 X130.086 Y90.987 E0.006
G1 X130.267 Y90.998 E0.006
G1 X130.447 Y90.982 E0.006
G1 X130.623 Y90.94 E0.006
G1 X130.793 Y90.873 E0.006
G1 X130.949 Y90.782 E0.006
G1 X131.091 Y90.669 E0.007
G1 X131.189 Y90.565 E0.004
G1 X131.322 Y90.383 E0.008
G1 X131.4 Y90.227 E0.006
G1 X131.457 Y90.054 E0.006
G1 X131.489 Y89.871 E0.006
G1 X131.505 Y89.477 E0.013
G1 X131.57 Y89.243 E0.008
G1 X131.758 Y88.916 E0.013
G1 X132.069 Y88.655 E0.013
G1 X132.427 Y88.524 E0.013
G1 X132.654 Y88.505 E0.007
G1 X132.881 Y88.524 E0.008
G1 X133.239 Y88.655 E0.013
G1 X133.549 Y88.915 E0.013
G1 X133.74 Y89.244 E0.013
G1 X133.806 Y89.491 E0.008
G1 X133.815 Y93.598 E0.137
G1 X130.612 Y96.801 E0.15
G1 Y123.359 E0.884
G1 X133.814 Y126.561 E0.15
G1 Y130.384 E0.128
G1 X133.758 Y130.706 E0.01
G1 X133.66 Y130.915 E0.008
G1 X133.529 Y131.102 E0.008
G1 X133.239 Y131.345 E0.012
G1 X132.857 Y131.485 E0.014
G1 X132.451 E0.013
G1 X132.069 Y131.345 E0.014
G1 X131.779 Y131.102 E0.012
G1 X131.633 Y130.893 E0.009
G1 X131.509 Y130.556 E0.012
G1 X131.48 Y130.123 E0.014
G1 X131.448 Y129.963 E0.006
G1 X131.387 Y129.795 E0.006
G1 X131.301 Y129.638 E0.006
G1 X131.194 Y129.494 E0.006
G1 X131.066 Y129.369 E0.005
G1 X130.921 Y129.263 E0.006
G1 X130.763 Y129.181 E0.006
G1 X130.594 Y129.123 E0.006
G1 X130.418 Y129.091 E0.006
G1 X130.238 Y129.085 E0.006
G1 X130.061 Y129.106 E0.006
G1 X129.888 Y129.152 E0.006
G1 X129.724 Y129.224 E0.006
G1 X129.572 Y129.32 E0.006
G1 X129.436 Y129.436 E0.006
G1 X129.32 Y129.572 E0.006
G1 X129.224 Y129.724 E0.006
G1 X129.154 Y129.885 E0.006
G1 X129.103 Y130.079 E0.006
G1 X129.085 Y130.238 E0.006
G1 X129.09 Y130.418 E0.006
G1 X129.123 Y130.593 E0.006
G1 X129.18 Y130.76 E0.006
G1 X129.274 Y130.936 E0.006
G1 X129.369 Y131.066 E0.006
G1 X129.494 Y131.194 E0.006
G1 X129.638 Y131.301 E0.005
G1 X129.795 Y131.387 E0.006
G1 X129.963 Y131.448 E0.006
G1 X130.142 Y131.484 E0.006
G1 X130.554 Y131.508 E0.014
G1 X130.893 Y131.632 E0.012
G1 X131.102 Y131.779 E0.009
G1 X131.345 Y132.069 E0.012
G1 X131.476 Y132.427 E0.013
G1 X131.495 Y132.654 E0.008
G1 X131.476 Y132.881 E0.007
G1 X131.345 Y133.239 E0.013
G1 X131.085 Y133.549 E0.013
G1 X130.732 Y133.754 E0.014
G1 X130.384 Y133.814 E0.012
G1 X126.401 E0.132
G1 X123.199 Y130.612 E0.151
G1 X119.215 E0.132
G1 X116.813 Y133.014 E0.113
G1 X103.366 E0.447
G1 X100.965 Y130.612 E0.113
G1 X96.64 E0.144
G1 X93.437 Y133.815 E0.151
G1 X89.491 Y133.806 E0.131
G1 X89.244 Y133.74 E0.009
G1 X88.915 Y133.549 E0.012
G1 X88.655 Y133.239 E0.014
G1 X88.524 Y132.881 E0.012
G1 X88.505 Y132.654 E0.008
G1 X88.524 Y132.427 E0.008
G1 X88.655 Y132.069 E0.012
G1 X88.916 Y131.758 E0.014
G1 X89.243 Y131.57 E0.012
G1 X89.48 Y131.504 E0.008
G1 X89.881 Y131.492 E0.014
G1 X90.067 Y131.464 E0.006
G1 X90.241 Y131.412 E0.006
G1 X90.405 Y131.335 E0.006
G1 X90.558 Y131.235 E0.006
G1 X90.695 Y131.115 E0.006
G1 X90.813 Y130.976 E0.006
G1 X90.912 Y130.821 E0.006
G1 X90.986 Y130.657 E0.006
G1 X91.035 Y130.482 E0.006
G1 X91.061 Y130.3 E0.007
G1 X91.06 Y130.118 E0.006
G1 X91.04 Y129.976 E0.004
G1 X90.98 Y129.761 E0.008
G1 X90.905 Y129.6 E0.006
G1 X90.806 Y129.446 E0.006
G1 X90.711 Y129.337 E0.005
G1 X90.544 Y129.186 E0.007
G1 X90.396 Y129.092 E0.006
G1 X90.228 Y129.016 E0.006
G1 X90.055 Y128.965 E0.006
G1 X89.912 Y128.944 E0.005
G1 X89.687 Y128.94 E0.007
G1 X89.512 Y128.965 E0.006
G1 X89.337 Y129.016 E0.006
G1 X89.172 Y129.091 E0.006
G1 X89.019 Y129.19 E0.006
G1 X88.91 Y129.284 E0.005
G1 X88.758 Y129.452 E0.008
G1 X88.662 Y129.6 E0.006
G1 X88.586 Y129.765 E0.006
G1 X88.534 Y129.939 E0.006
G1 X88.512 Y130.086 E0.005
G1 X88.494 Y130.548 E0.015
G1 X88.367 Y130.893 E0.012
G1 X88.221 Y131.102 E0.009
G1 X87.931 Y131.345 E0.012
G1 X87.549 Y131.485 E0.014
G1 X87.143 E0.013
G1 X86.786 Y131.354 E0.013
G1 X86.577 Y131.208 E0.008
G1 X86.352 Y130.939 E0.012
G1 X86.242 Y130.708 E0.009
G1 X86.185 Y130.386 E0.011
G1 Y126.561 E0.127
G1 X89.387 Y123.359 E0.15
G1 Y96.641 E0.889
G1 X86.185 Y93.437 E0.151
G1 Y89.614 E0.127
G1 X86.242 Y89.292 E0.011
G1 X86.34 Y89.085 E0.007
G1 X86.471 Y88.898 E0.008
G1 X86.761 Y88.655 E0.012
G1 X87.146 Y88.514 E0.014
G1 X87.562 Y88.518 E0.014
G1 X87.932 Y88.656 E0.013
G1 X88.221 Y88.898 E0.013
G1 X88.367 Y89.107 E0.008
G1 X88.494 Y89.452 E0.012
G1 X88.511 Y89.871 E0.014
G1 X88.543 Y90.054 E0.006
G1 X88.6 Y90.227 E0.007
G1 X88.681 Y90.389 E0.006
G1 X88.785 Y90.538 E0.006
G1 X88.91 Y90.671 E0.006
G1 X89.05 Y90.782 E0.006
G1 X89.207 Y90.873 E0.006
G1 X89.377 Y90.94 E0.006
G1 X89.553 Y90.982 E0.006
G1 X89.73 Y90.998 E0.006
G1 X89.932 Y90.984 E0.006
G1 X90.091 Y90.951 E0.006
G1 X90.262 Y90.889 E0.006
G1 X90.421 Y90.804 E0.006
G1 X90.567 Y90.695 E0.006
G1 X90.695 Y90.567 E0.006
G1 X90.804 Y90.421 E0.006
G1 X90.889 Y90.262 E0.006
G1 X90.951 Y90.091 E0.006
G1 X90.988 Y89.913 E0.006
G1 X90.998 Y89.733 E0.006
G1 X90.982 Y89.553 E0.006
G1 X90.94 Y89.377 E0.006
G1 X90.873 Y89.207 E0.006
G1 X90.782 Y89.05 E0.006
G1 X90.671 Y88.91 E0.006
G1 X90.538 Y88.785 E0.006
G1 X90.389 Y88.681 E0.006
G1 X90.227 Y88.6 E0.006
G1 X90.054 Y88.543 E0.006
G1 X89.871 Y88.511 E0.007
G1 X89.477 Y88.495 E0.013
G1 X89.243 Y88.43 E0.008
G1 X88.916 Y88.242 E0.012
G1 X88.655 Y87.931 E0.014
G1 X88.524 Y87.573 E0.012
G1 X88.505 Y87.346 E0.008
G1 X88.524 Y87.119 E0.008
G1 X88.655 Y86.761 E0.012
G1 X88.915 Y86.451 E0.014
G1 X89.244 Y86.26 E0.012
G1 X89.491 Y86.194 E0.009
G1 X93.598 Y86.184 E0.137
G1 X96.801 Y89.388 E0.15
G1 X123.359 E0.884
G1 X126.561 Y86.185 E0.15
;rapid-leaky
G0 X126.727 Y86.585 F7200
;bead-skirt/brim
G1 X130.351 F960 E0.121
G1 X130.585 Y86.627 E0.008
G1 X130.714 Y86.687 E0.004
G1 X130.829 Y86.768 E0.005
G1 X130.994 Y86.964 E0.009
G1 X131.085 Y87.214 E0.008
G1 Y87.478 E0.009
G1 X130.994 Y87.728 E0.009
G1 X130.823 Y87.931 E0.009
G1 X130.602 Y88.058 E0.008
G1 X130.461 Y88.097 E0.005
G1 X130.086 Y88.112 E0.013
G1 X129.848 Y88.154 E0.008
G1 X129.62 Y88.229 E0.008
G1 X129.406 Y88.336 E0.008
G1 X129.21 Y88.474 E0.008
G1 X129.036 Y88.638 E0.008
G1 X128.887 Y88.825 E0.008
G1 X128.766 Y89.032 E0.007
G1 X128.678 Y89.256 E0.008
G1 X128.622 Y89.488 E0.008
G1 X128.601 Y89.727 E0.008
G1 X128.615 Y89.966 E0.008
G1 X128.663 Y90.2 E0.008
G1 X128.745 Y90.426 E0.008
G1 X128.859 Y90.636 E0.008
G1 X129.002 Y90.829 E0.008
G1 X129.171 Y90.998 E0.008
G1 X129.364 Y91.141 E0.008
G1 X129.574 Y91.255 E0.008
G1 X129.8 Y91.337 E0.008
G1 X130.034 Y91.385 E0.008
G1 X130.273 Y91.399 E0.008
G1 X130.512 Y91.378 E0.008
G1 X130.744 Y91.322 E0.008
G1 X130.968 Y91.234 E0.008
G1 X131.175 Y91.113 E0.008
G1 X131.362 Y90.964 E0.008
G1 X131.498 Y90.821 E0.006
G1 X131.665 Y90.592 E0.01
G1 X131.771 Y90.38 E0.008
G1 X131.846 Y90.152 E0.008
G1 X131.888 Y89.914 E0.008
G1 X131.903 Y89.539 E0.012
G1 X131.942 Y89.398 E0.005
G1 X132.069 Y89.177 E0.009
G1 X132.272 Y89.006 E0.008
G1 X132.514 Y88.918 E0.009
G1 X132.654 Y88.906 E0.005
G1 X132.794 Y88.918 E0.004
G1 X133.036 Y89.006 E0.009
G1 X133.238 Y89.176 E0.009
G1 X133.367 Y89.399 E0.008
G1 X133.406 Y89.544 E0.005
G1 X133.414 Y93.433 E0.13
G1 X130.212 Y96.635 E0.15
G1 Y123.525 E0.895
G1 X133.414 Y126.727 E0.15
G1 Y130.35 E0.121
G1 X133.373 Y130.585 E0.008
G1 X133.313 Y130.714 E0.004
G1 X133.232 Y130.829 E0.005
G1 X133.036 Y130.994 E0.009
G1 X132.786 Y131.085 E0.008
G1 X132.522 E0.009
G1 X132.272 Y130.994 E0.009
G1 X132.076 Y130.829 E0.009
G1 X131.99 Y130.706 E0.005
G1 X131.904 Y130.472 E0.008
G1 X131.877 Y130.07 E0.013
G1 X131.834 Y129.855 E0.008
G1 X131.753 Y129.631 E0.007
G1 X131.639 Y129.421 E0.008
G1 X131.496 Y129.23 E0.008
G1 X131.325 Y129.063 E0.008
G1 X131.132 Y128.922 E0.008
G1 X130.921 Y128.812 E0.008
G1 X130.695 Y128.735 E0.008
G1 X130.461 Y128.692 E0.008
G1 X130.221 Y128.684 E0.008
G1 X129.985 Y128.712 E0.008
G1 X129.755 Y128.774 E0.008
G1 X129.536 Y128.87 E0.008
G1 X129.334 Y128.997 E0.008
G1 X129.153 Y129.153 E0.008
G1 X128.997 Y129.334 E0.008
G1 X128.87 Y129.536 E0.008
G1 X128.775 Y129.754 E0.007
G1 X128.709 Y130.006 E0.009
G1 X128.684 Y130.221 E0.007
G1 X128.691 Y130.461 E0.008
G1 X128.735 Y130.695 E0.008
G1 X128.812 Y130.92 E0.008
G1 X128.935 Y131.149 E0.009
G1 X129.063 Y131.325 E0.007
G1 X129.23 Y131.496 E0.008
G1 X129.421 Y131.639 E0.008
G1 X129.631 Y131.753 E0.008
G1 X129.855 Y131.834 E0.008
G1 X130.091 Y131.881 E0.008
G1 X130.471 Y131.904 E0.012
G1 X130.706 Y131.99 E0.009
G1 X130.829 Y132.076 E0.005
G1 X130.994 Y132.272 E0.008
G1 X131.082 Y132.514 E0.009
G1 X131.094 Y132.654 E0.004
G1 X131.082 Y132.794 E0.005
G1 X130.994 Y133.036 E0.009
G1 X130.824 Y133.238 E0.009
G1 X130.593 Y133.372 E0.008
G1 X130.35 Y133.414 E0.009
G1 X126.567 E0.125
G1 X123.365 Y130.212 E0.151
G1 X119.049 E0.144
G1 X116.647 Y132.614 E0.113
G1 X103.532 E0.436
G1 X101.131 Y130.212 E0.113
G1 X96.474 E0.155
G1 X93.272 Y133.414 E0.15
G1 X89.544 Y133.406 E0.124
G1 X89.399 Y133.367 E0.005
G1 X89.176 Y133.238 E0.009
G1 X89.006 Y133.036 E0.009
G1 X88.918 Y132.794 E0.008
G1 X88.906 Y132.654 E0.005
G1 X88.918 Y132.514 E0.004
G1 X89.006 Y132.272 E0.009
G1 X89.177 Y132.069 E0.009
G1 X89.398 Y131.942 E0.008
G1 X89.54 Y131.903 E0.005
G1 X89.917 Y131.891 E0.013
G1 X90.155 Y131.855 E0.008
G1 X90.384 Y131.787 E0.008
G1 X90.6 Y131.685 E0.008
G1 X90.801 Y131.554 E0.008
G1 X90.98 Y131.396 E0.008
G1 X91.136 Y131.215 E0.008
G1 X91.265 Y131.012 E0.008
G1 X91.363 Y130.795 E0.007
G1 X91.428 Y130.565 E0.008
G1 X91.461 Y130.327 E0.008
G1 X91.46 Y130.089 E0.008
G1 X91.432 Y129.894 E0.007
G1 X91.357 Y129.622 E0.009
G1 X91.256 Y129.407 E0.008
G1 X91.127 Y129.205 E0.008
G1 X90.997 Y129.056 E0.007
G1 X90.787 Y128.867 E0.009
G1 X90.587 Y128.74 E0.008
G1 X90.369 Y128.64 E0.008
G1 X90.14 Y128.573 E0.008
G1 X89.945 Y128.545 E0.006
G1 X89.662 Y128.539 E0.01
G1 X89.427 Y128.573 E0.008
G1 X89.198 Y128.64 E0.008
G1 X88.98 Y128.739 E0.008
G1 X88.779 Y128.869 E0.008
G1 X88.63 Y128.997 E0.006
G1 X88.44 Y129.207 E0.01
G1 X88.311 Y129.407 E0.007
G1 X88.211 Y129.624 E0.008
G1 X88.143 Y129.852 E0.008
G1 X88.113 Y130.049 E0.007
G1 X88.097 Y130.469 E0.014
G1 X88.01 Y130.706 E0.008
G1 X87.924 Y130.829 E0.005
G1 X87.728 Y130.994 E0.009
G1 X87.478 Y131.085 E0.009
G1 X87.214 E0.009
G1 X86.973 Y130.997 E0.008
G1 X86.85 Y130.911 E0.005
G1 X86.691 Y130.722 E0.008
G1 X86.627 Y130.585 E0.005
G1 X86.585 Y130.351 E0.008
G1 Y126.727 E0.121
G1 X89.787 Y123.525 E0.15
G1 Y96.475 E0.9
G1 X86.585 Y93.272 E0.151
G1 Y89.649 E0.12
G1 X86.627 Y89.415 E0.008
G1 X86.687 Y89.286 E0.005
G1 X86.768 Y89.171 E0.004
G1 X86.964 Y89.006 E0.009
G1 X87.215 Y88.915 E0.009
G1 X87.488 Y88.917 E0.009
G1 X87.728 Y89.007 E0.008
G1 X87.924 Y89.171 E0.009
G1 X88.01 Y89.294 E0.005
G1 X88.097 Y89.531 E0.008
G1 X88.112 Y89.914 E0.013
G1 X88.154 Y90.152 E0.008
G1 X88.229 Y90.38 E0.008
G1 X88.336 Y90.594 E0.008
G1 X88.474 Y90.791 E0.008
G1 X88.638 Y90.966 E0.008
G1 X88.825 Y91.114 E0.008
G1 X89.032 Y91.234 E0.008
G1 X89.256 Y91.323 E0.008
G1 X89.488 Y91.378 E0.008
G1 X89.726 Y91.399 E0.008
G1 X89.987 Y91.381 E0.009
G1 X90.2 Y91.337 E0.007
G1 X90.426 Y91.255 E0.008
G1 X90.636 Y91.142 E0.008
G1 X90.829 Y90.998 E0.008
G1 X90.998 Y90.829 E0.008
G1 X91.142 Y90.636 E0.008
G1 X91.255 Y90.426 E0.008
G1 X91.337 Y90.2 E0.008
G1 X91.385 Y89.966 E0.008
G1 X91.399 Y89.727 E0.007
G1 X91.378 Y89.488 E0.008
G1 X91.323 Y89.256 E0.008
G1 X91.234 Y89.032 E0.008
G1 X91.114 Y88.825 E0.008
G1 X90.966 Y88.638 E0.008
G1 X90.791 Y88.474 E0.008
G1 X90.594 Y88.336 E0.008
G1 X90.38 Y88.229 E0.008
G1 X90.152 Y88.154 E0.008
G1 X89.914 Y88.112 E0.008
G1 X89.539 Y88.097 E0.013
G1 X89.398 Y88.058 E0.005
G1 X89.177 Y87.931 E0.008
G1 X89.006 Y87.728 E0.009
G1 X88.918 Y87.486 E0.008
G1 X88.906 Y87.346 E0.005
G1 X88.918 Y87.206 E0.005
G1 X89.006 Y86.964 E0.008
G1 X89.176 Y86.762 E0.009
G1 X89.399 Y86.633 E0.009
G1 X89.544 Y86.594 E0.005
G1 X93.433 Y86.585 E0.129
G1 X96.635 Y89.788 E0.151
G1 X123.525 E0.894
G1 X126.727 Y86.585 E0.151
;rapid-leaky
G0 X129.922 Y89.452 F7200
;bead-skirt/brim
G1 X129.849 Y89.557 F960 E0.004
G1 X129.804 Y89.745 E0.006
G1 X129.842 Y89.932 E0.007
G1 X129.913 Y90.043 E0.004
G1 X130.068 Y90.158 E0.007
G1 X130.255 Y90.196 E0.006
G1 X130.443 Y90.151 E0.006
G1 X130.549 Y90.078 E0.005
G1 X130.636 Y89.966 E0.004
G1 X130.679 Y89.858 E0.004
G1 X130.71 Y89.352 E0.017
G1 X130.733 Y89.267 E0.003
G1 X130.648 Y89.29 E0.003
G1 X130.142 Y89.321 E0.017
G1 X130.021 Y89.371 E0.004
G1 X129.922 Y89.452 E0.004
;rapid-leaky
G0 X130.226 Y89.716 F7200
;bead-skirt/brim
G1 X130.207 Y89.764 F960 E0.002
G1 X130.226 Y89.788 E0.001
G1 X130.26 Y89.793 E0.001
G1 X130.293 Y89.741 E0.002
G1 X130.295 Y89.705 E0.002
G1 X130.226 Y89.716 E0.002
;rapid-leaky
G0 X90.192 Y89.809 F7200
;bead-skirt/brim
G1 X90.176 Y89.619 F960 E0.006
G1 X90.081 Y89.453 E0.007
G1 X89.979 Y89.371 E0.004
G1 X89.858 Y89.321 E0.004
G1 X89.352 Y89.29 E0.017
G1 X89.279 Y89.27 E0.003
G1 X89.308 Y89.784 E0.017
G1 X89.342 Y89.921 E0.004
G1 X89.408 Y90.033 E0.005
G1 X89.557 Y90.151 E0.006
G1 X89.738 Y90.196 E0.006
G1 X89.872 Y90.18 E0.005
G1 X90.042 Y90.088 E0.006
G1 X90.127 Y89.99 E0.005
G1 X90.192 Y89.809 E0.006
;rapid-leaky
G0 X89.795 Y89.756 F7200
;bead-skirt/brim
G1 X89.786 Y89.725 F960 E0.001
G1 X89.705 Y89.705 E0.003
G1 X89.72 Y89.781 E0.002
G1 X89.744 Y89.794 E0.001
G1 X89.78 Y89.785 E0.002
G1 X89.795 Y89.756 E0.001
;rapid-leaky
G0 X89.885 Y129.748 F7200
;bead-skirt/brim
G1 X89.682 Y129.749 F960 E0.006
G1 X89.5 Y129.832 E0.007
G1 X89.394 Y129.941 E0.005
G1 X89.337 Y130.048 E0.004
G1 X89.31 Y130.162 E0.004
G1 X89.279 Y130.73 E0.019
G1 X89.359 Y130.708 E0.003
G1 X89.892 Y130.682 E0.017
G1 X90.073 Y130.596 E0.007
G1 X90.169 Y130.499 E0.005
G1 X90.251 Y130.317 E0.006
G1 X90.255 Y130.141 E0.006
G1 X90.203 Y129.988 E0.005
G1 X90.14 Y129.899 E0.004
G1 X90.058 Y129.826 E0.004
G1 X89.885 Y129.748 E0.006
;rapid-leaky
G0 X89.817 Y130.147 F7200
;bead-skirt/brim
G1 X89.756 Y130.144 F960 E0.002
G1 X89.712 Y130.189 E0.002
G1 X89.705 Y130.297 E0.004
G1 X89.811 Y130.288 E0.003
G1 X89.858 Y130.235 E0.003
G1 X89.851 Y130.179 E0.002
G1 X89.817 Y130.147 E0.001
;rapid-leaky
G0 X129.888 Y130.333 F7200
;bead-skirt/brim
G1 X129.916 Y130.439 F960 E0.004
G1 X129.954 Y130.51 E0.002
G1 X130.023 Y130.591 E0.004
G1 X130.124 Y130.655 E0.004
G1 X130.246 Y130.688 E0.004
G1 X130.718 Y130.717 E0.016
G1 X130.685 Y130.23 E0.016
G1 X130.655 Y130.124 E0.004
G1 X130.591 Y130.023 E0.004
G1 X130.447 Y129.918 E0.006
G1 X130.271 Y129.887 E0.006
G1 X130.155 Y129.909 E0.004
G1 X130.004 Y130.004 E0.006
G1 X129.912 Y130.148 E0.005
G1 X129.892 Y130.226 E0.003
G1 X129.888 Y130.333 E0.003
G1 X129.916 Y130.439 E0.004
G1 X129.954 Y130.51 E0.003
G1 X130.023 Y130.591 E0.003
G1 X130.124 Y130.655 E0.004
G1 X130.246 Y130.688 E0.004
G1 X130.718 Y130.717 E0.016
G1 X130.685 Y130.23 E0.016
G1 X130.655 Y130.124 E0.004
G1 X130.591 Y130.023 E0.004
G1 X130.447 Y129.918 E0.006
G1 X130.271 Y129.887 E0.006
G1 X130.155 Y129.909 E0.004
G1 X130.004 Y130.004 E0.006
G1 X129.912 Y130.148 E0.006
G1 X129.892 Y130.226 E0.002
G1 X129.888 Y130.333 E0.004
G1 F2700 E-7
;rapid-dry
G0 X125.331 Y120.029 F7200
G1 F2700 E7
;bead-perimeter_outer
G1 X125.147 F720 E0.006
G1 X125.048 Y120.056 E0.003
G1 X124.905 Y120.14 E0.006
G1 X124.833 Y120.21 E0.003
G1 X124.739 Y120.373 E0.006
G1 X124.713 Y120.481 E0.004
G1 X124.714 Y120.638 E0.005
G1 X124.779 Y120.817 E0.007
G1 X124.837 Y120.9 E0.003
G1 X124.966 Y121.008 E0.006
G1 X125.06 Y121.052 E0.003
G1 X125.168 Y121.078 E0.004
G1 X125.323 Y121.077 E0.005
G1 X125.504 Y121.012 E0.006
G1 X125.587 Y120.954 E0.004
G1 X125.695 Y120.825 E0.005
G1 X125.739 Y120.731 E0.004
G1 X125.765 Y120.623 E0.003
G1 X125.764 Y120.468 E0.006
G1 X125.699 Y120.287 E0.006
G1 X125.64 Y120.203 E0.003
G1 X125.513 Y120.097 E0.006
G1 X125.422 Y120.054 E0.003
G1 X125.331 Y120.029 E0.003
G1 F2700 E-7
;rapid-dry
G0 X125.31 Y118.797 F7200
G1 F2700 E7
;bead-perimeter_outer
G1 X125.155 Y118.798 F720 E0.006
G1 X124.974 Y118.863 E0.006
G1 X124.891 Y118.921 E0.003
G1 X124.783 Y119.05 E0.006
G1 X124.739 Y119.144 E0.003
G1 X124.713 Y119.252 E0.004
G1 X124.714 Y119.407 E0.005
G1 X124.779 Y119.588 E0.007
G1 X124.837 Y119.671 E0.003
G1 X124.966 Y119.779 E0.006
G1 X125.06 Y119.823 E0.003
G1 X125.168 Y119.849 E0.004
G1 X125.323 Y119.848 E0.005
G1 X125.504 Y119.783 E0.006
G1 X125.587 Y119.725 E0.004
G1 X125.695 Y119.596 E0.005
G1 X125.739 Y119.502 E0.004
G1 X125.765 Y119.394 E0.003
G1 X125.764 Y119.239 E0.006
G1 X125.699 Y119.058 E0.006
G1 X125.641 Y118.975 E0.003
G1 X125.512 Y118.867 E0.006
G1 X125.418 Y118.823 E0.003
G1 X125.31 Y118.797 E0.004
;rapid-leaky
G0 X125.352 Y118.436 F7200
;bead-perimeter_inner
G1 X125.106 Y118.439 F960 E0.008
G1 X124.935 Y118.484 E0.006
G1 X124.794 Y118.55 E0.005
G1 X124.645 Y118.654 E0.006
G1 X124.476 Y118.855 E0.009
G1 X124.398 Y119.024 E0.006
G1 X124.352 Y119.21 E0.007
G1 X124.355 Y119.456 E0.008
G1 X124.4 Y119.627 E0.006
G1 X124.466 Y119.769 E0.005
G1 X124.596 Y119.938 E0.007
G1 X124.466 Y120.107 E0.007
G1 X124.398 Y120.253 E0.005
G1 X124.352 Y120.439 E0.007
G1 X124.355 Y120.688 E0.008
G1 X124.401 Y120.857 E0.006
G1 X124.466 Y120.997 E0.005
G1 X124.57 Y121.146 E0.006
G1 X124.771 Y121.315 E0.009
G1 X124.94 Y121.393 E0.006
G1 X125.126 Y121.439 E0.006
G1 X125.372 Y121.436 E0.009
G1 X125.543 Y121.391 E0.005
G1 X125.685 Y121.325 E0.006
G1 X125.833 Y121.221 E0.006
G1 X126.002 Y121.02 E0.008
G1 X126.08 Y120.851 E0.007
G1 X126.126 Y120.665 E0.006
G1 X126.123 Y120.419 E0.008
G1 X126.078 Y120.248 E0.006
G1 X126.012 Y120.107 E0.005
G1 X125.881 Y119.935 E0.007
G1 X126.002 Y119.791 E0.007
G1 X126.08 Y119.622 E0.006
G1 X126.126 Y119.436 E0.006
G1 X126.123 Y119.19 E0.008
G1 X126.078 Y119.019 E0.006
G1 X126.012 Y118.878 E0.005
G1 X125.908 Y118.729 E0.006
G1 X125.707 Y118.56 E0.009
G1 X125.538 Y118.482 E0.006
G1 X125.352 Y118.436 E0.007
G1 F2700 E-7
;rapid-dry
G0 X113.906 Y109.112 F7200
G1 F2700 E7
;bead-perimeter_outer
G1 X113.818 Y109.05 F720 E0.003
G1 X113.625 Y108.982 E0.007
G1 X113.52 Y108.971 E0.004
G1 X113.315 Y109.008 E0.007
G1 X113.22 Y109.052 E0.003
G1 X113.06 Y109.185 E0.007
G1 X112.999 Y109.272 E0.004
G1 X112.928 Y109.468 E0.007
G1 Y109.677 E0.006
G1 X112.999 Y109.871 E0.007
G1 X113.059 Y109.959 E0.004
G1 X113.136 Y110.035 E0.003
G1 X113.232 Y110.099 E0.004
G1 X113.414 Y110.163 E0.007
G1 X113.52 Y110.174 E0.003
G1 X113.724 Y110.137 E0.007
G1 X113.906 Y110.033 E0.007
G1 X114.04 Y109.872 E0.007
G1 X114.112 Y109.677 E0.007
G1 Y109.468 E0.007
G1 X114.04 Y109.271 E0.007
G1 X113.906 Y109.112 E0.007
;rapid-leaky
G0 X114.256 Y108.953 F7200
;bead-perimeter_inner
G1 X114.139 Y108.836 F960 E0.005
G1 X113.994 Y108.734 E0.006
G1 X113.828 Y108.663 E0.006
G1 X113.69 Y108.626 E0.005
G1 X113.52 Y108.609 E0.006
G1 X113.349 Y108.626 E0.005
G1 X113.192 Y108.669 E0.006
G1 X113.04 Y108.739 E0.005
G1 X112.904 Y108.834 E0.006
G1 X112.784 Y108.951 E0.005
G1 X112.685 Y109.093 E0.006
G1 X112.615 Y109.247 E0.006
G1 X112.572 Y109.406 E0.005
G1 X112.558 Y109.573 E0.006
G1 X112.572 Y109.74 E0.005
G1 X112.615 Y109.9 E0.006
G1 X112.685 Y110.05 E0.005
G1 X112.783 Y110.192 E0.006
G1 X112.908 Y110.315 E0.006
G1 X113.056 Y110.415 E0.006
G1 X113.194 Y110.477 E0.005
G1 X113.349 Y110.519 E0.005
G1 X113.52 Y110.536 E0.006
G1 X113.691 Y110.519 E0.006
G1 X113.845 Y110.477 E0.005
G1 X113.999 Y110.407 E0.006
G1 X114.139 Y110.309 E0.005
G1 X114.258 Y110.19 E0.006
G1 X114.352 Y110.053 E0.006
G1 X114.424 Y109.904 E0.005
G1 X114.468 Y109.74 E0.006
G1 X114.482 Y109.573 E0.005
G1 X114.468 Y109.406 E0.006
G1 X114.424 Y109.243 E0.005
G1 X114.352 Y109.09 E0.006
G1 X114.256 Y108.953 E0.006
G1 F2700 E-7
;rapid-dry
G0 X107.118 Y109.367 F7200
G1 F2700 E7
;bead-perimeter_outer
G1 X107.013 Y109.186 F720 E0.007
G1 X106.938 Y109.111 E0.003
G1 X106.841 Y109.046 E0.004
G1 X106.658 Y108.982 E0.006
G1 X106.553 Y108.971 E0.004
G1 X106.348 Y109.008 E0.007
G1 X106.253 Y109.052 E0.003
G1 X106.093 Y109.185 E0.007
G1 X105.988 Y109.368 E0.007
G1 X105.961 Y109.468 E0.004
G1 Y109.677 E0.007
G1 X106.032 Y109.871 E0.007
G1 X106.092 Y109.959 E0.003
G1 X106.169 Y110.035 E0.004
G1 X106.265 Y110.099 E0.004
G1 X106.447 Y110.163 E0.006
G1 X106.553 Y110.174 E0.004
G1 X106.758 Y110.137 E0.006
G1 X106.853 Y110.093 E0.004
G1 X107.013 Y109.959 E0.007
G1 X107.117 Y109.779 E0.007
G1 X107.154 Y109.573 E0.007
G1 X107.118 Y109.367 E0.007
;rapid-leaky
G0 X107.385 Y109.09 F7200
;bead-perimeter_inner
G1 X107.289 Y108.953 F960 E0.005
G1 X107.167 Y108.831 E0.006
G1 X107.016 Y108.73 E0.006
G1 X106.878 Y108.668 E0.005
G1 X106.723 Y108.626 E0.005
G1 X106.553 Y108.609 E0.006
G1 X106.382 Y108.626 E0.006
G1 X106.225 Y108.668 E0.005
G1 X106.073 Y108.739 E0.006
G1 X105.937 Y108.834 E0.005
G1 X105.817 Y108.951 E0.006
G1 X105.718 Y109.093 E0.006
G1 X105.648 Y109.247 E0.005
G1 X105.605 Y109.406 E0.006
G1 X105.591 Y109.573 E0.005
G1 X105.605 Y109.74 E0.006
G1 X105.648 Y109.9 E0.005
G1 X105.718 Y110.05 E0.006
G1 X105.816 Y110.192 E0.006
G1 X105.941 Y110.315 E0.006
G1 X106.09 Y110.415 E0.005
G1 X106.227 Y110.477 E0.005
G1 X106.382 Y110.519 E0.006
G1 X106.553 Y110.536 E0.006
G1 X106.723 Y110.519 E0.005
G1 X106.88 Y110.477 E0.006
G1 X107.033 Y110.407 E0.005
G1 X107.172 Y110.309 E0.006
G1 X107.291 Y110.19 E0.005
G1 X107.385 Y110.053 E0.006
G1 X107.457 Y109.904 E0.006
G1 X107.501 Y109.74 E0.005
G1 X107.515 Y109.573 E0.006
G1 X107.501 Y109.406 E0.005
G1 X107.457 Y109.243 E0.006
G1 X107.385 Y109.09 E0.006
G1 F2700 E-7
;rapid-dry
G0 X97.833 Y107.603 F7200
G1 F2700 E7
;bead-perimeter_outer
G1 X97.749 Y107.376 F720 E0.008
G1 X97.679 Y107.275 E0.004
G1 X97.593 Y107.189 E0.004
G1 X97.492 Y107.119 E0.004
G1 X97.382 Y107.068 E0.004
G1 X97.264 Y107.035 E0.004
G1 X96.03 Y107.026 E0.041
G1 X95.916 Y107.035 E0.004
G1 X95.798 Y107.068 E0.004
G1 X95.688 Y107.119 E0.004
G1 X95.587 Y107.189 E0.004
G1 X95.501 Y107.275 E0.004
G1 X95.431 Y107.376 E0.004
G1 X95.379 Y107.487 E0.004
G1 X95.346 Y107.613 E0.004
G1 X95.347 Y107.848 E0.008
G1 X95.38 Y107.966 E0.004
G1 X95.431 Y108.077 E0.004
G1 X95.587 Y108.263 E0.008
G1 X95.688 Y108.333 E0.005
G1 X95.799 Y108.385 E0.004
G1 X96.029 Y108.426 E0.007
G1 X97.151 E0.038
G1 X97.265 Y108.416 E0.004
G1 X97.39 Y108.381 E0.004
G1 X97.593 Y108.263 E0.008
G1 X97.749 Y108.077 E0.008
G1 X97.8 Y107.966 E0.004
G1 X97.833 Y107.848 E0.004
G1 Y107.603 E0.008
;rapid-leaky
G0 X98.135 Y107.35 F7200
;bead-perimeter_inner
G1 X98.062 Y107.195 F960 E0.006
G1 X97.956 Y107.043 E0.006
G1 X97.825 Y106.912 E0.006
G1 X97.672 Y106.806 E0.006
G1 X97.507 Y106.729 E0.006
G1 X97.326 Y106.679 E0.007
G1 X97.164 Y106.666 E0.005
G1 X96.016 E0.038
G1 X95.854 Y106.679 E0.006
G1 X95.673 Y106.729 E0.006
G1 X95.508 Y106.806 E0.006
G1 X95.355 Y106.912 E0.006
G1 X95.224 Y107.043 E0.006
G1 X95.118 Y107.196 E0.006
G1 X95.039 Y107.363 E0.007
G1 X94.989 Y107.553 E0.006
G1 X94.976 Y107.728 E0.006
G1 X94.991 Y107.91 E0.006
G1 X95.041 Y108.091 E0.006
G1 X95.119 Y108.258 E0.006
G1 X95.224 Y108.407 E0.006
G1 X95.354 Y108.539 E0.007
G1 X95.508 Y108.646 E0.006
G1 X95.676 Y108.725 E0.006
G1 X95.854 Y108.771 E0.006
G1 X96.012 Y108.786 E0.005
G1 X97.168 E0.039
G1 X97.33 Y108.771 E0.005
G1 X97.515 Y108.72 E0.007
G1 X97.673 Y108.646 E0.005
G1 X97.826 Y108.539 E0.007
G1 X97.956 Y108.407 E0.006
G1 X98.061 Y108.258 E0.006
G1 X98.139 Y108.091 E0.006
G1 X98.189 Y107.91 E0.006
G1 X98.204 Y107.726 E0.006
G1 X98.189 Y107.539 E0.007
G1 X98.135 Y107.35 E0.006
G1 F2700 E-7
;rapid-dry
G0 X94.642 Y108.471 F7200
G1 F2700 E7
;bead-perimeter_outer
G1 X94.57 Y108.231 F720 E0.009
G1 X94.458 Y108.007 E0.008
G1 X94.31 Y107.806 E0.008
G1 X94.129 Y107.633 E0.008
G1 X93.921 Y107.494 E0.009
G1 X93.691 Y107.392 E0.008
G1 X93.448 Y107.332 E0.008
G1 X93.199 Y107.314 E0.009
G1 X92.949 Y107.34 E0.008
G1 X92.708 Y107.408 E0.008
G1 X92.483 Y107.516 E0.009
G1 X92.279 Y107.661 E0.008
G1 X92.103 Y107.84 E0.008
G1 X91.96 Y108.048 E0.009
G1 X91.851 Y108.293 E0.009
G1 X91.792 Y108.516 E0.007
G1 X91.771 Y108.756 E0.008
G1 X91.772 Y110.747 E0.067
G1 X91.799 Y110.988 E0.008
G1 X91.87 Y111.226 E0.008
G1 X91.98 Y111.449 E0.008
G1 X92.125 Y111.65 E0.009
G1 X92.304 Y111.822 E0.008
G1 X92.508 Y111.962 E0.008
G1 X92.735 Y112.064 E0.008
G1 X92.974 Y112.128 E0.008
G1 X93.221 Y112.149 E0.009
G1 X93.468 Y112.128 E0.008
G1 X93.709 Y112.064 E0.008
G1 X93.95 Y111.951 E0.009
G1 X94.138 Y111.821 E0.008
G1 X94.317 Y111.65 E0.008
G1 X94.462 Y111.449 E0.008
G1 X94.572 Y111.226 E0.008
G1 X94.643 Y110.988 E0.009
G1 X94.67 Y110.747 E0.008
G1 Y108.714 E0.067
G1 X94.642 Y108.471 E0.009
;rapid-leaky
G0 X94.996 Y108.398 F7200
;bead-perimeter_inner
G1 X94.906 Y108.098 F960 E0.01
G1 X94.766 Y107.819 E0.01
G1 X94.581 Y107.567 E0.011
G1 X94.355 Y107.352 E0.01
G1 X94.096 Y107.178 E0.011
G1 X93.809 Y107.05 E0.01
G1 X93.505 Y106.975 E0.01
G1 X93.193 Y106.953 E0.011
G1 X92.881 Y106.985 E0.01
G1 X92.58 Y107.07 E0.011
G1 X92.3 Y107.205 E0.01
G1 X92.044 Y107.386 E0.01
G1 X91.825 Y107.61 E0.011
G1 X91.645 Y107.87 E0.01
G1 X91.51 Y108.173 E0.011
G1 X91.436 Y108.454 E0.01
G1 X91.411 Y108.74 E0.01
G1 X91.412 Y110.768 E0.067
G1 X91.445 Y111.06 E0.01
G1 X91.534 Y111.359 E0.01
G1 X91.671 Y111.635 E0.01
G1 X91.853 Y111.887 E0.011
G1 X92.076 Y112.102 E0.01
G1 X92.331 Y112.277 E0.01
G1 X92.613 Y112.404 E0.011
G1 X92.911 Y112.484 E0.01
G1 X93.221 Y112.51 E0.01
G1 X93.531 Y112.484 E0.011
G1 X93.832 Y112.403 E0.01
G1 X94.129 Y112.265 E0.011
G1 X94.366 Y112.101 E0.009
G1 X94.589 Y111.887 E0.011
G1 X94.771 Y111.635 E0.01
G1 X94.908 Y111.359 E0.01
G1 X94.997 Y111.06 E0.011
G1 X95.03 Y110.768 E0.009
G1 Y108.693 E0.069
G1 X94.996 Y108.398 E0.01
G1 F2700 E-7
;rapid-dry
G0 X97.749 Y111.326 F7200
G1 F2700 E7
;bead-perimeter_outer
G1 X97.679 Y111.225 F720 E0.004
G1 X97.593 Y111.139 E0.004
G1 X97.492 Y111.069 E0.005
G1 X97.382 Y111.018 E0.004
G1 X97.264 Y110.985 E0.004
G1 X96.03 Y110.976 E0.041
G1 X95.916 Y110.985 E0.003
G1 X95.798 Y111.018 E0.005
G1 X95.688 Y111.069 E0.004
G1 X95.587 Y111.139 E0.004
G1 X95.501 Y111.225 E0.004
G1 X95.431 Y111.326 E0.004
G1 X95.379 Y111.437 E0.004
G1 X95.346 Y111.563 E0.004
G1 X95.347 Y111.798 E0.008
G1 X95.38 Y111.916 E0.004
G1 X95.431 Y112.027 E0.004
G1 X95.587 Y112.213 E0.008
G1 X95.688 Y112.283 E0.004
G1 X95.799 Y112.335 E0.004
G1 X96.029 Y112.376 E0.008
G1 X97.151 E0.038
G1 X97.265 Y112.366 E0.003
G1 X97.39 Y112.331 E0.005
G1 X97.593 Y112.213 E0.007
G1 X97.749 Y112.027 E0.008
G1 X97.8 Y111.916 E0.005
G1 X97.833 Y111.798 E0.004
G1 Y111.553 E0.008
G1 X97.749 Y111.326 E0.008
;rapid-leaky
G0 X98.135 Y111.3 F7200
;bead-perimeter_inner
G1 X98.062 Y111.145 F960 E0.006
G1 X97.956 Y110.993 E0.006
G1 X97.825 Y110.862 E0.006
G1 X97.672 Y110.756 E0.006
G1 X97.507 Y110.679 E0.006
G1 X97.326 Y110.629 E0.006
G1 X97.165 Y110.616 E0.006
G1 X96.015 E0.038
G1 X95.854 Y110.629 E0.005
G1 X95.673 Y110.679 E0.007
G1 X95.508 Y110.756 E0.006
G1 X95.355 Y110.862 E0.006
G1 X95.224 Y110.993 E0.006
G1 X95.118 Y111.145 E0.006
G1 X95.039 Y111.313 E0.006
G1 X94.989 Y111.503 E0.007
G1 X94.976 Y111.678 E0.006
G1 X94.991 Y111.86 E0.006
G1 X95.041 Y112.041 E0.006
G1 X95.119 Y112.208 E0.006
G1 X95.224 Y112.357 E0.006
G1 X95.354 Y112.489 E0.006
G1 X95.508 Y112.596 E0.007
G1 X95.676 Y112.675 E0.006
G1 X95.854 Y112.721 E0.006
G1 X96.012 Y112.736 E0.005
G1 X97.168 E0.039
G1 X97.33 Y112.721 E0.005
G1 X97.515 Y112.67 E0.006
G1 X97.673 Y112.596 E0.006
G1 X97.826 Y112.489 E0.006
G1 X97.956 Y112.357 E0.007
G1 X98.061 Y112.208 E0.006
G1 X98.139 Y112.041 E0.006
G1 X98.189 Y111.86 E0.006
G1 X98.204 Y111.676 E0.006
G1 X98.189 Y111.489 E0.006
G1 X98.135 Y111.3 E0.007
G1 F2700 E-7
;rapid-dry
G0 X95.244 Y119.058 F7200
G1 F2700 E7
;bead-perimeter_outer
G1 X95.186 Y118.975 F720 E0.003
G1 X95.057 Y118.867 E0.006
G1 X94.963 Y118.823 E0.003
G1 X94.855 Y118.797 E0.004
G1 X94.7 Y118.798 E0.005
G1 X94.519 Y118.863 E0.007
G1 X94.436 Y118.921 E0.003
G1 X94.328 Y119.05 E0.006
G1 X94.284 Y119.144 E0.003
G1 X94.258 Y119.252 E0.004
G1 X94.259 Y119.407 E0.005
G1 X94.324 Y119.588 E0.006
G1 X94.382 Y119.671 E0.004
G1 X94.511 Y119.779 E0.005
G1 X94.605 Y119.823 E0.004
G1 X94.713 Y119.849 E0.003
G1 X94.868 Y119.848 E0.006
G1 X95.049 Y119.783 E0.006
G1 X95.132 Y119.725 E0.003
G1 X95.24 Y119.596 E0.006
G1 X95.284 Y119.502 E0.003
G1 X95.31 Y119.394 E0.004
G1 X95.309 Y119.239 E0.005
G1 X95.244 Y119.058 E0.007
G1 F2700 E-7
;rapid-dry
G0 Y120.287 F7200
G1 F2700 E7
;bead-perimeter_outer
G1 X95.185 Y120.203 F720 E0.003
G1 X95.058 Y120.097 E0.006
G1 X94.967 Y120.054 E0.003
G1 X94.876 Y120.029 E0.003
G1 X94.692 E0.006
G1 X94.593 Y120.056 E0.004
G1 X94.45 Y120.14 E0.005
G1 X94.378 Y120.21 E0.003
G1 X94.284 Y120.373 E0.007
G1 X94.258 Y120.481 E0.003
G1 X94.259 Y120.638 E0.006
G1 X94.324 Y120.817 E0.006
G1 X94.382 Y120.9 E0.003
G1 X94.511 Y121.008 E0.006
G1 X94.605 Y121.052 E0.003
G1 X94.713 Y121.078 E0.004
G1 X94.868 Y121.077 E0.005
G1 X95.049 Y121.012 E0.007
G1 X95.132 Y120.954 E0.003
G1 X95.24 Y120.825 E0.006
G1 X95.284 Y120.731 E0.003
G1 X95.31 Y120.623 E0.004
G1 X95.309 Y120.468 E0.005
G1 X95.244 Y120.287 E0.006
;rapid-leaky
G0 X95.557 Y118.878 F7200
;bead-perimeter_inner
G1 X95.453 Y118.729 F960 E0.006
G1 X95.252 Y118.56 E0.009
G1 X95.083 Y118.482 E0.006
G1 X94.897 Y118.436 E0.007
G1 X94.651 Y118.439 E0.008
G1 X94.48 Y118.484 E0.006
G1 X94.338 Y118.55 E0.005
G1 X94.19 Y118.654 E0.006
G1 X94.021 Y118.855 E0.009
G1 X93.943 Y119.024 E0.006
G1 X93.897 Y119.21 E0.006
G1 X93.9 Y119.456 E0.008
G1 X93.945 Y119.627 E0.006
G1 X94.011 Y119.769 E0.005
G1 X94.141 Y119.938 E0.008
G1 X94.011 Y120.107 E0.007
G1 X93.943 Y120.253 E0.005
G1 X93.897 Y120.439 E0.006
G1 X93.9 Y120.688 E0.009
G1 X93.946 Y120.857 E0.005
G1 X94.011 Y120.997 E0.006
G1 X94.115 Y121.146 E0.006
G1 X94.316 Y121.315 E0.008
G1 X94.485 Y121.393 E0.007
G1 X94.671 Y121.439 E0.006
G1 X94.917 Y121.436 E0.008
G1 X95.088 Y121.391 E0.006
G1 X95.23 Y121.325 E0.005
G1 X95.378 Y121.221 E0.006
G1 X95.547 Y121.02 E0.009
G1 X95.625 Y120.851 E0.006
G1 X95.671 Y120.665 E0.007
G1 X95.668 Y120.419 E0.008
G1 X95.623 Y120.248 E0.006
G1 X95.557 Y120.107 E0.005
G1 X95.426 Y119.935 E0.007
G1 X95.547 Y119.791 E0.006
G1 X95.625 Y119.622 E0.006
G1 X95.671 Y119.436 E0.007
G1 X95.668 Y119.19 E0.008
G1 X95.623 Y119.019 E0.006
G1 X95.557 Y118.878 E0.005
G1 F2700 E-7
;rapid-dry
G0 X95.309 Y100.096 F7200
G1 F2700 E7
;bead-perimeter_outer
G1 X95.244 Y99.916 F720 E0.006
G1 X95.185 Y99.832 E0.004
G1 X95.058 Y99.726 E0.005
G1 X94.967 Y99.683 E0.004
G1 X94.876 Y99.658 E0.003
G1 X94.692 E0.006
G1 X94.593 Y99.685 E0.003
G1 X94.45 Y99.769 E0.006
G1 X94.378 Y99.839 E0.003
G1 X94.284 Y100.003 E0.006
G1 X94.258 Y100.109 E0.004
G1 X94.259 Y100.267 E0.005
G1 X94.288 Y100.371 E0.004
G1 X94.375 Y100.525 E0.006
G1 X94.51 Y100.637 E0.006
G1 X94.61 Y100.685 E0.003
G1 X94.784 Y100.714 E0.006
G1 X94.966 Y100.683 E0.006
G1 X95.118 Y100.594 E0.006
G1 X95.191 Y100.523 E0.004
G1 X95.284 Y100.36 E0.006
G1 X95.31 Y100.252 E0.004
G1 X95.309 Y100.096 E0.005
G1 F2700 E-7
;rapid-dry
G0 X95.31 Y98.993 F7200
G1 F2700 E7
;bead-perimeter_outer
G1 X95.309 Y98.836 F720 E0.005
G1 X95.244 Y98.657 E0.006
G1 X95.186 Y98.574 E0.004
G1 X95.057 Y98.466 E0.005
G1 X94.963 Y98.422 E0.004
G1 X94.855 Y98.396 E0.003
G1 X94.7 Y98.397 E0.006
G1 X94.519 Y98.462 E0.006
G1 X94.436 Y98.52 E0.003
G1 X94.328 Y98.649 E0.006
G1 X94.284 Y98.743 E0.003
G1 X94.258 Y98.851 E0.004
G1 X94.259 Y99.006 E0.005
G1 X94.324 Y99.187 E0.007
G1 X94.382 Y99.27 E0.003
G1 X94.511 Y99.378 E0.006
G1 X94.605 Y99.422 E0.003
G1 X94.713 Y99.448 E0.004
G1 X94.868 Y99.447 E0.005
G1 X95.049 Y99.382 E0.006
G1 X95.132 Y99.324 E0.004
G1 X95.24 Y99.195 E0.005
G1 X95.284 Y99.101 E0.004
G1 X95.31 Y98.993 E0.003
;rapid-leaky
G0 X95.671 Y99.035 F7200
;bead-perimeter_inner
G1 X95.668 Y98.786 F960 E0.009
G1 X95.622 Y98.617 E0.006
G1 X95.557 Y98.476 E0.005
G1 X95.453 Y98.328 E0.006
G1 X95.252 Y98.159 E0.008
G1 X95.083 Y98.081 E0.007
G1 X94.897 Y98.035 E0.006
G1 X94.651 Y98.038 E0.008
G1 X94.48 Y98.083 E0.006
G1 X94.338 Y98.149 E0.005
G1 X94.19 Y98.253 E0.006
G1 X94.021 Y98.454 E0.009
G1 X93.943 Y98.623 E0.006
G1 X93.897 Y98.809 E0.007
G1 X93.9 Y99.055 E0.008
G1 X93.945 Y99.226 E0.006
G1 X94.011 Y99.368 E0.005
G1 X94.115 Y99.516 E0.006
G1 X94.157 Y99.551 E0.002
G1 X94.01 Y99.737 E0.008
G1 X93.943 Y99.884 E0.005
G1 X93.897 Y100.067 E0.006
G1 X93.9 Y100.317 E0.009
G1 X93.952 Y100.51 E0.006
G1 X94.095 Y100.76 E0.01
G1 X94.314 Y100.942 E0.009
G1 X94.5 Y101.031 E0.007
G1 X94.784 Y101.079 E0.01
G1 X95.091 Y101.027 E0.01
G1 X95.338 Y100.883 E0.01
G1 X95.467 Y100.757 E0.006
G1 X95.558 Y100.624 E0.005
G1 X95.625 Y100.48 E0.005
G1 X95.671 Y100.294 E0.007
G1 X95.668 Y100.046 E0.008
G1 X95.623 Y99.879 E0.006
G1 X95.559 Y99.737 E0.005
G1 X95.452 Y99.586 E0.006
G1 X95.411 Y99.552 E0.002
G1 X95.547 Y99.39 E0.007
G1 X95.625 Y99.221 E0.006
G1 X95.671 Y99.035 E0.006
G1 F2700 E-7
;rapid-dry
G0 X125.422 Y99.683 F7200
G1 F2700 E7
;bead-perimeter_outer
G1 X125.331 Y99.658 F720 E0.003
G1 X125.147 E0.006
G1 X125.048 Y99.685 E0.004
G1 X124.905 Y99.769 E0.005
G1 X124.833 Y99.839 E0.004
G1 X124.739 Y100.003 E0.006
G1 X124.713 Y100.109 E0.004
G1 X124.714 Y100.267 E0.005
G1 X124.743 Y100.371 E0.004
G1 X124.83 Y100.525 E0.005
G1 X124.965 Y100.637 E0.006
G1 X125.065 Y100.685 E0.004
G1 X125.239 Y100.714 E0.006
G1 X125.421 Y100.683 E0.006
G1 X125.573 Y100.594 E0.006
G1 X125.646 Y100.523 E0.003
G1 X125.739 Y100.36 E0.006
G1 X125.765 Y100.252 E0.004
G1 X125.764 Y100.096 E0.005
G1 X125.699 Y99.916 E0.007
G1 X125.64 Y99.832 E0.003
G1 X125.513 Y99.726 E0.006
G1 X125.422 Y99.683 E0.003
G1 F2700 E-7
;rapid-dry
G0 X125.587 Y99.324 F7200
G1 F2700 E7
;bead-perimeter_outer
G1 X125.695 Y99.195 F720 E0.006
G1 X125.739 Y99.101 E0.003
G1 X125.765 Y98.993 E0.004
G1 X125.764 Y98.836 E0.005
G1 X125.699 Y98.657 E0.006
G1 X125.641 Y98.574 E0.004
G1 X125.512 Y98.466 E0.005
G1 X125.418 Y98.422 E0.004
G1 X125.31 Y98.396 E0.003
G1 X125.155 Y98.397 E0.005
G1 X124.974 Y98.462 E0.007
G1 X124.891 Y98.52 E0.003
G1 X124.783 Y98.649 E0.006
G1 X124.739 Y98.743 E0.003
G1 X124.713 Y98.851 E0.004
G1 X124.714 Y99.006 E0.005
G1 X124.779 Y99.187 E0.007
G1 X124.837 Y99.27 E0.003
G1 X124.966 Y99.378 E0.006
G1 X125.06 Y99.422 E0.003
G1 X125.168 Y99.448 E0.004
G1 X125.323 Y99.447 E0.005
G1 X125.504 Y99.382 E0.006
G1 X125.587 Y99.324 E0.004
;rapid-leaky
G0 X125.866 Y99.552 F7200
;bead-perimeter_inner
G1 X126.002 Y99.39 F960 E0.007
G1 X126.08 Y99.221 E0.006
G1 X126.126 Y99.035 E0.006
G1 X126.123 Y98.786 E0.008
G1 X126.077 Y98.617 E0.006
G1 X126.012 Y98.476 E0.005
G1 X125.908 Y98.328 E0.006
G1 X125.707 Y98.159 E0.009
G1 X125.538 Y98.081 E0.006
G1 X125.352 Y98.035 E0.007
G1 X125.106 Y98.038 E0.008
G1 X124.935 Y98.083 E0.006
G1 X124.794 Y98.149 E0.005
G1 X124.645 Y98.253 E0.006
G1 X124.476 Y98.454 E0.009
G1 X124.398 Y98.623 E0.006
G1 X124.352 Y98.809 E0.006
G1 X124.355 Y99.055 E0.009
G1 X124.4 Y99.226 E0.005
G1 X124.466 Y99.368 E0.006
G1 X124.57 Y99.516 E0.006
G1 X124.612 Y99.551 E0.001
G1 X124.465 Y99.737 E0.008
G1 X124.398 Y99.884 E0.006
G1 X124.352 Y100.067 E0.006
G1 X124.355 Y100.317 E0.008
G1 X124.407 Y100.51 E0.007
G1 X124.55 Y100.76 E0.01
G1 X124.769 Y100.942 E0.009
G1 X124.955 Y101.031 E0.007
G1 X125.239 Y101.079 E0.009
G1 X125.546 Y101.027 E0.011
G1 X125.793 Y100.883 E0.009
G1 X125.922 Y100.757 E0.006
G1 X126.013 Y100.624 E0.006
G1 X126.08 Y100.48 E0.005
G1 X126.126 Y100.294 E0.006
G1 X126.123 Y100.046 E0.009
G1 X126.078 Y99.879 E0.005
G1 X126.013 Y99.737 E0.005
G1 X125.907 Y99.586 E0.007
G1 X125.866 Y99.552 E0.001
G1 F2700 E-7
;rapid-dry
G0 X129.812 Y96.469 F7200
G1 F2700 E7
;bead-perimeter_outer
G1 Y123.691 F720 E0.906
G1 X133.014 Y126.893 E0.15
G1 Y130.325 E0.115
G1 X133.008 Y130.396 E0.002
G1 X132.965 Y130.512 E0.004
G1 X132.929 Y130.564 E0.002
G1 X132.834 Y130.644 E0.004
G1 X132.716 Y130.687 E0.004
G1 X132.593 E0.005
G1 X132.475 Y130.644 E0.004
G1 X132.423 Y130.608 E0.002
G1 X132.343 Y130.513 E0.004
G1 X132.3 Y130.396 E0.004
G1 X132.275 Y130.016 E0.013
G1 X132.22 Y129.747 E0.009
G1 X132.119 Y129.467 E0.01
G1 X131.977 Y129.205 E0.01
G1 X131.798 Y128.966 E0.01
G1 X131.585 Y128.757 E0.01
G1 X131.344 Y128.582 E0.01
G1 X131.079 Y128.444 E0.009
G1 X130.797 Y128.347 E0.01
G1 X130.503 Y128.294 E0.01
G1 X130.205 Y128.284 E0.01
G1 X129.909 Y128.318 E0.01
G1 X129.621 Y128.396 E0.01
G1 X129.348 Y128.516 E0.01
G1 X129.096 Y128.675 E0.01
G1 X128.869 Y128.869 E0.01
G1 X128.675 Y129.096 E0.01
G1 X128.516 Y129.348 E0.01
G1 X128.395 Y129.622 E0.01
G1 X128.315 Y129.932 E0.01
G1 X128.284 Y130.205 E0.009
G1 X128.293 Y130.503 E0.01
G1 X128.347 Y130.797 E0.01
G1 X128.444 Y131.08 E0.01
G1 X128.595 Y131.363 E0.011
G1 X128.757 Y131.585 E0.009
G1 X128.966 Y131.798 E0.01
G1 X129.205 Y131.977 E0.01
G1 X129.467 Y132.119 E0.01
G1 X129.747 Y132.22 E0.01
G1 X130.039 Y132.279 E0.01
G1 X130.397 Y132.3 E0.012
G1 X130.513 Y132.343 E0.004
G1 X130.564 Y132.379 E0.002
G1 X130.644 Y132.474 E0.004
G1 X130.687 Y132.592 E0.004
G1 X130.692 Y132.654 E0.002
G1 X130.687 Y132.716 E0.002
G1 X130.644 Y132.834 E0.004
G1 X130.564 Y132.929 E0.004
G1 X130.455 Y132.992 E0.005
G1 X130.325 Y133.014 E0.004
G1 X126.733 E0.12
G1 X123.531 Y129.812 E0.15
G1 X118.883 E0.155
G1 X116.481 Y132.214 E0.113
G1 X103.698 E0.425
G1 X101.297 Y129.812 E0.113
G1 X96.308 E0.166
G1 X93.106 Y133.014 E0.15
G1 X89.604 Y133.008 E0.117
G1 X89.488 Y132.965 E0.004
G1 X89.392 Y132.885 E0.004
G1 X89.356 Y132.834 E0.002
G1 X89.313 Y132.716 E0.004
G1 Y132.593 E0.005
G1 X89.332 Y132.525 E0.002
G1 X89.392 Y132.423 E0.004
G1 X89.436 Y132.379 E0.002
G1 X89.487 Y132.343 E0.002
G1 X89.605 Y132.3 E0.004
G1 X89.951 Y132.291 E0.012
G1 X90.243 Y132.247 E0.009
G1 X90.528 Y132.161 E0.01
G1 X90.796 Y132.035 E0.01
G1 X91.043 Y131.874 E0.01
G1 X91.266 Y131.678 E0.01
G1 X91.458 Y131.453 E0.01
G1 X91.617 Y131.202 E0.01
G1 X91.739 Y130.933 E0.009
G1 X91.82 Y130.647 E0.01
G1 X91.861 Y130.355 E0.01
G1 X91.86 Y130.059 E0.01
G1 X91.824 Y129.812 E0.008
G1 X91.733 Y129.484 E0.012
G1 X91.608 Y129.213 E0.01
G1 X91.447 Y128.965 E0.009
G1 X91.291 Y128.784 E0.008
G1 X91.028 Y128.546 E0.012
G1 X90.779 Y128.388 E0.01
G1 X90.509 Y128.264 E0.01
G1 X90.226 Y128.181 E0.01
G1 X89.977 Y128.145 E0.008
G1 X89.638 Y128.139 E0.011
G1 X89.343 Y128.181 E0.01
G1 X89.058 Y128.264 E0.01
G1 X88.788 Y128.387 E0.01
G1 X88.539 Y128.548 E0.01
G1 X88.315 Y128.742 E0.01
G1 X88.121 Y128.964 E0.009
G1 X87.959 Y129.213 E0.01
G1 X87.835 Y129.482 E0.01
G1 X87.751 Y129.766 E0.01
G1 X87.715 Y130.011 E0.008
G1 X87.699 Y130.399 E0.013
G1 X87.657 Y130.513 E0.004
G1 X87.621 Y130.564 E0.002
G1 X87.526 Y130.644 E0.004
G1 X87.408 Y130.687 E0.005
G1 X87.284 E0.004
G1 X87.166 Y130.644 E0.004
G1 X87.071 Y130.564 E0.004
G1 X87.035 Y130.512 E0.002
G1 X86.992 Y130.395 E0.004
G1 X86.985 Y130.324 E0.003
G1 Y126.893 E0.114
G1 X90.187 Y123.691 E0.15
G1 Y96.309 E0.911
G1 X86.985 Y93.106 E0.151
G1 Y89.676 E0.114
G1 X86.992 Y89.605 E0.002
G1 X87.035 Y89.488 E0.004
G1 X87.071 Y89.436 E0.002
G1 X87.166 Y89.356 E0.005
G1 X87.284 Y89.313 E0.004
G1 X87.414 Y89.314 E0.004
G1 X87.526 Y89.356 E0.004
G1 X87.577 Y89.392 E0.002
G1 X87.657 Y89.487 E0.004
G1 X87.699 Y89.601 E0.004
G1 X87.714 Y89.958 E0.012
G1 X87.766 Y90.25 E0.01
G1 X87.859 Y90.532 E0.01
G1 X87.992 Y90.798 E0.01
G1 X88.162 Y91.043 E0.01
G1 X88.366 Y91.26 E0.01
G1 X88.599 Y91.446 E0.01
G1 X88.858 Y91.594 E0.009
G1 X89.134 Y91.705 E0.01
G1 X89.424 Y91.774 E0.01
G1 X89.722 Y91.801 E0.01
G1 X90.041 Y91.779 E0.011
G1 X90.31 Y91.723 E0.009
G1 X90.59 Y91.621 E0.01
G1 X90.852 Y91.48 E0.01
G1 X91.091 Y91.302 E0.01
G1 X91.302 Y91.091 E0.01
G1 X91.48 Y90.852 E0.01
G1 X91.621 Y90.59 E0.009
G1 X91.723 Y90.31 E0.01
G1 X91.783 Y90.018 E0.01
G1 X91.801 Y89.721 E0.01
G1 X91.774 Y89.424 E0.01
G1 X91.705 Y89.134 E0.01
G1 X91.594 Y88.858 E0.01
G1 X91.446 Y88.599 E0.01
G1 X91.26 Y88.366 E0.01
G1 X91.043 Y88.162 E0.01
G1 X90.798 Y87.992 E0.01
G1 X90.532 Y87.859 E0.009
G1 X90.25 Y87.766 E0.01
G1 X89.958 Y87.714 E0.01
G1 X89.601 Y87.699 E0.012
G1 X89.487 Y87.657 E0.004
G1 X89.436 Y87.621 E0.002
G1 X89.356 Y87.526 E0.004
G1 X89.329 Y87.468 E0.002
G1 X89.313 Y87.408 E0.003
G1 Y87.284 E0.004
G1 X89.356 Y87.166 E0.004
G1 X89.392 Y87.115 E0.002
G1 X89.488 Y87.035 E0.004
G1 X89.605 Y86.992 E0.004
G1 X93.267 Y86.985 E0.122
G1 X96.469 Y90.188 E0.151
G1 X123.691 E0.905
G1 X126.893 Y86.985 E0.151
G1 X130.324 E0.114
G1 X130.395 Y86.992 E0.002
G1 X130.512 Y87.035 E0.004
G1 X130.564 Y87.071 E0.002
G1 X130.644 Y87.166 E0.005
G1 X130.687 Y87.284 E0.004
G1 Y87.408 E0.004
G1 X130.644 Y87.526 E0.004
G1 X130.524 Y87.649 E0.006
G1 X130.399 Y87.699 E0.004
G1 X130.042 Y87.714 E0.012
G1 X129.75 Y87.766 E0.01
G1 X129.468 Y87.859 E0.01
G1 X129.202 Y87.992 E0.01
G1 X128.957 Y88.162 E0.01
G1 X128.74 Y88.366 E0.01
G1 X128.555 Y88.599 E0.01
G1 X128.406 Y88.858 E0.009
G1 X128.296 Y89.134 E0.01
G1 X128.226 Y89.424 E0.01
G1 X128.201 Y89.721 E0.01
G1 X128.217 Y90.018 E0.01
G1 X128.277 Y90.31 E0.01
G1 X128.379 Y90.59 E0.01
G1 X128.521 Y90.852 E0.01
G1 X128.698 Y91.091 E0.01
G1 X128.909 Y91.302 E0.01
G1 X129.148 Y91.479 E0.01
G1 X129.41 Y91.621 E0.009
G1 X129.69 Y91.723 E0.01
G1 X129.982 Y91.783 E0.01
G1 X130.279 Y91.799 E0.01
G1 X130.576 Y91.774 E0.01
G1 X130.866 Y91.704 E0.01
G1 X131.142 Y91.594 E0.01
G1 X131.401 Y91.445 E0.01
G1 X131.634 Y91.26 E0.01
G1 X131.838 Y91.043 E0.01
G1 X132.008 Y90.798 E0.01
G1 X132.141 Y90.532 E0.009
G1 X132.234 Y90.25 E0.01
G1 X132.286 Y89.958 E0.01
G1 X132.301 Y89.601 E0.012
G1 X132.343 Y89.487 E0.004
G1 X132.379 Y89.436 E0.002
G1 X132.423 Y89.392 E0.002
G1 X132.531 Y89.329 E0.004
G1 X132.592 Y89.313 E0.002
G1 X132.716 E0.005
G1 X132.834 Y89.356 E0.004
G1 X132.885 Y89.392 E0.002
G1 X132.965 Y89.488 E0.004
G1 X133.008 Y89.604 E0.004
G1 X133.014 Y93.267 E0.122
G1 X129.812 Y96.469 E0.151
;rapid-leaky
G0 X129.452 Y96.32 F7200
;bead-perimeter_inner
G1 Y123.84 F960 E0.915
G1 X132.654 Y127.042 E0.151
G1 Y130.292 E0.108
G1 X132.632 Y129.968 E0.01
G1 X132.568 Y129.65 E0.011
G1 X132.448 Y129.319 E0.012
G1 X132.281 Y129.01 E0.012
G1 X132.069 Y128.728 E0.011
G1 X131.818 Y128.481 E0.012
G1 X131.534 Y128.275 E0.012
G1 X131.221 Y128.112 E0.011
G1 X130.888 Y127.998 E0.012
G1 X130.542 Y127.935 E0.012
G1 X130.19 Y127.923 E0.012
G1 X129.841 Y127.964 E0.011
G1 X129.501 Y128.055 E0.012
G1 X129.179 Y128.197 E0.012
G1 X128.882 Y128.384 E0.011
G1 X128.614 Y128.614 E0.012
G1 X128.384 Y128.882 E0.012
G1 X128.197 Y129.179 E0.012
G1 X128.054 Y129.504 E0.011
G1 X127.96 Y129.866 E0.013
G1 X127.923 Y130.189 E0.011
G1 X127.934 Y130.542 E0.011
G1 X127.998 Y130.889 E0.012
G1 X128.113 Y131.224 E0.012
G1 X128.29 Y131.554 E0.012
G1 X128.481 Y131.818 E0.011
G1 X128.728 Y132.07 E0.012
G1 X129.01 Y132.281 E0.012
G1 X129.319 Y132.448 E0.011
G1 X129.65 Y132.568 E0.012
G1 X129.993 Y132.637 E0.012
G1 X130.28 Y132.654 E0.009
G1 X126.882 E0.113
G1 X123.68 Y129.452 E0.151
G1 X118.734 E0.164
G1 X116.332 Y131.854 E0.113
G1 X103.847 E0.416
G1 X101.446 Y129.452 E0.113
G1 X96.159 E0.175
G1 X92.957 Y132.654 E0.151
G1 X89.69 E0.109
G1 X89.98 Y132.651 E0.009
G1 X90.322 Y132.599 E0.012
G1 X90.657 Y132.498 E0.011
G1 X90.972 Y132.35 E0.012
G1 X91.262 Y132.161 E0.012
G1 X91.523 Y131.931 E0.011
G1 X91.748 Y131.668 E0.012
G1 X91.935 Y131.373 E0.011
G1 X92.078 Y131.057 E0.012
G1 X92.173 Y130.721 E0.011
G1 X92.221 Y130.379 E0.012
G1 X92.22 Y130.033 E0.011
G1 X92.177 Y129.738 E0.01
G1 X92.072 Y129.359 E0.013
G1 X91.924 Y129.039 E0.012
G1 X91.736 Y128.748 E0.012
G1 X91.562 Y128.547 E0.008
G1 X91.243 Y128.257 E0.015
G1 X90.951 Y128.071 E0.011
G1 X90.636 Y127.926 E0.012
G1 X90.302 Y127.828 E0.011
G1 X90.007 Y127.786 E0.01
G1 X89.615 Y127.778 E0.013
G1 X89.266 Y127.828 E0.012
G1 X88.933 Y127.926 E0.012
G1 X88.615 Y128.07 E0.011
G1 X88.323 Y128.259 E0.012
G1 X88.122 Y128.432 E0.009
G1 X87.833 Y128.747 E0.014
G1 X87.643 Y129.039 E0.011
G1 X87.498 Y129.355 E0.012
G1 X87.399 Y129.687 E0.012
G1 X87.356 Y129.977 E0.009
G1 X87.345 Y130.244 E0.009
G1 Y127.042 E0.107
G1 X90.547 Y123.84 E0.15
G1 Y96.16 E0.921
G1 X87.345 Y92.957 E0.151
G1 Y89.752 E0.106
G1 X87.355 Y89.997 E0.008
G1 X87.416 Y90.338 E0.012
G1 X87.525 Y90.67 E0.011
G1 X87.681 Y90.983 E0.012
G1 X87.882 Y91.271 E0.012
G1 X88.122 Y91.526 E0.011
G1 X88.396 Y91.744 E0.012
G1 X88.7 Y91.919 E0.012
G1 X89.025 Y92.049 E0.011
G1 X89.366 Y92.13 E0.012
G1 X89.718 Y92.162 E0.012
G1 X90.091 Y92.136 E0.012
G1 X90.408 Y92.07 E0.011
G1 X90.738 Y91.95 E0.012
G1 X91.046 Y91.785 E0.011
G1 X91.327 Y91.575 E0.012
G1 X91.575 Y91.327 E0.012
G1 X91.785 Y91.046 E0.011
G1 X91.95 Y90.738 E0.012
G1 X92.07 Y90.408 E0.012
G1 X92.141 Y90.065 E0.011
G1 X92.161 Y89.716 E0.012
G1 X92.13 Y89.366 E0.012
G1 X92.049 Y89.025 E0.011
G1 X91.919 Y88.7 E0.012
G1 X91.744 Y88.396 E0.011
G1 X91.526 Y88.122 E0.012
G1 X91.271 Y87.882 E0.012
G1 X90.983 Y87.681 E0.011
G1 X90.67 Y87.525 E0.012
G1 X90.338 Y87.416 E0.012
G1 X89.997 Y87.355 E0.011
G1 X89.752 Y87.345 E0.008
G1 X93.118 E0.112
G1 X96.32 Y90.548 E0.151
G1 X123.84 E0.915
G1 X127.042 Y87.345 E0.151
G1 X130.248 E0.107
G1 X130.003 Y87.355 E0.008
G1 X129.662 Y87.416 E0.011
G1 X129.33 Y87.525 E0.012
G1 X129.017 Y87.681 E0.011
G1 X128.729 Y87.882 E0.012
G1 X128.475 Y88.122 E0.012
G1 X128.257 Y88.396 E0.011
G1 X128.081 Y88.7 E0.012
G1 X127.952 Y89.025 E0.012
G1 X127.87 Y89.366 E0.011
G1 X127.84 Y89.716 E0.012
G1 X127.859 Y90.064 E0.012
G1 X127.93 Y90.408 E0.011
G1 X128.05 Y90.738 E0.012
G1 X128.217 Y91.046 E0.012
G1 X128.425 Y91.327 E0.011
G1 X128.673 Y91.575 E0.012
G1 X128.954 Y91.783 E0.012
G1 X129.187 Y91.91 E0.008
G1 X129.592 Y92.07 E0.015
G1 X129.936 Y92.141 E0.012
G1 X130.284 Y92.16 E0.011
G1 X130.634 Y92.13 E0.012
G1 X130.975 Y92.048 E0.012
G1 X131.3 Y91.919 E0.011
G1 X131.604 Y91.743 E0.012
G1 X131.878 Y91.526 E0.012
G1 X132.118 Y91.27 E0.011
G1 X132.319 Y90.983 E0.012
G1 X132.475 Y90.67 E0.011
G1 X132.584 Y90.338 E0.012
G1 X132.645 Y89.997 E0.012
G1 X132.654 Y89.777 E0.007
G1 Y93.118 E0.111
G1 X129.452 Y96.32 E0.151
;rapid-leaky
G0 X129.132 Y98.626 F7200
;bead-solid_infill
G1 X98.626 Y129.132 F720 E1.435
G1 X99.192 E0.018
G1 X129.132 Y99.192 E1.409
G1 Y99.758 E0.018
G1 X99.758 Y129.132 E1.382
G1 X100.323 E0.019
G1 X129.132 Y100.323 E1.355
G1 Y100.889 E0.019
G1 X100.889 Y129.132 E1.328
G1 X101.455 E0.019
G1 X129.132 Y101.455 E1.302
G1 Y102.02 E0.019
G1 X101.8 Y129.353 E1.285
G1 X102.082 Y129.636 E0.014
G1 X129.132 Y102.586 E1.272
G1 Y103.152 E0.019
G1 X102.365 Y129.919 E1.259
G1 X102.648 Y130.202 E0.013
G1 X129.132 Y103.718 E1.246
G1 Y104.283 E0.019
G1 X102.931 Y130.485 E1.232
G1 X103.213 Y130.767 E0.014
G1 X129.132 Y104.849 E1.219
G1 Y105.415 E0.018
G1 X103.496 Y131.05 E1.206
G1 X103.779 Y131.333 E0.014
G1 X129.132 Y105.98 E1.192
G1 Y106.546 E0.019
G1 X104.144 Y131.534 E1.175
G1 X104.71 E0.019
G1 X129.132 Y107.112 E1.149
G1 Y107.677 E0.019
G1 X105.275 Y131.534 E1.122
G1 X105.841 E0.019
G1 X129.132 Y108.243 E1.095
G1 Y108.809 E0.019
G1 X106.407 Y131.534 E1.069
G1 X106.972 E0.019
G1 X129.132 Y109.374 E1.042
G1 Y109.94 E0.019
G1 X107.538 Y131.534 E1.016
G1 X108.104 E0.018
G1 X129.132 Y110.506 E0.989
G1 Y111.071 E0.019
G1 X108.669 Y131.534 E0.963
G1 X109.235 E0.019
G1 X129.132 Y111.637 E0.936
G1 Y112.203 E0.018
G1 X109.801 Y131.534 E0.91
G1 X110.367 E0.018
G1 X129.132 Y112.769 E0.883
G1 Y113.334 E0.019
G1 X110.932 Y131.534 E0.856
G1 X111.498 E0.019
G1 X124.088 Y118.944 E0.592
G1 X124.064 Y119.042 E0.003
G1 X124.032 Y119.172 E0.005
G1 X124.035 Y119.5 E0.011
G1 X124.048 Y119.549 E0.001
G1 X112.064 Y131.534 E0.564
G1 X112.629 E0.019
G1 X124.162 Y120.002 E0.542
G1 X124.16 Y120.005 E0.001
G1 X124.095 Y120.147 E0.005
G1 X124.063 Y120.277 E0.004
G1 X124.032 Y120.401 E0.004
G1 X124.035 Y120.694 E0.01
G1 X113.195 Y131.534 E0.51
G1 X113.761 E0.019
G1 X124.171 Y121.123 E0.49
G1 X124.187 Y121.158 E0.001
G1 X124.332 Y121.364 E0.008
G1 X124.421 Y121.439 E0.004
G1 X114.326 Y131.534 E0.475
G1 X114.892 E0.019
G1 X124.763 Y121.663 E0.464
G1 X124.834 Y121.696 E0.003
G1 X125.088 Y121.759 E0.008
G1 X125.234 Y121.758 E0.005
G1 X115.458 Y131.534 E0.46
G1 X116.023 E0.019
G1 X129.132 Y118.425 E0.616
G1 Y117.86 E0.019
G1 X126.445 Y120.547 E0.127
G1 X126.443 Y120.375 E0.005
G1 X126.38 Y120.139 E0.009
G1 X126.35 Y120.076 E0.002
G1 X129.132 Y117.294 E0.131
G1 Y116.728 E0.018
G1 X126.445 Y119.415 E0.127
G1 X126.443 Y119.146 E0.009
G1 X126.381 Y118.914 E0.008
G1 X129.132 Y116.163 E0.129
G1 Y115.597 E0.019
G1 X126.176 Y118.553 E0.139
G1 X126.146 Y118.511 E0.002
G1 X125.88 Y118.287 E0.011
G1 X125.877 Y118.286
G1 X129.132 Y115.031 E0.154
G1 Y114.466 E0.018
G1 X125.463 Y118.134 E0.173
G1 X125.39 Y118.116 E0.002
G1 X125.062 Y118.119 E0.011
G1 X124.858 Y118.174 E0.007
G1 X129.132 Y113.9 E0.201
G1 F2700 E-7
;rapid-dry
G0 Y118.991 F7200
G1 F2700 E7
;bead-solid_infill
G1 X118.991 Y129.132 F720 E0.477
G1 X119.557 E0.019
G1 X129.132 Y119.557 E0.451
G1 Y120.122 E0.018
G1 X120.122 Y129.132 E0.424
G1 X120.688 E0.019
G1 X129.132 Y120.688 E0.397
G1 Y121.254 E0.019
G1 X121.254 Y129.132 E0.371
G1 X121.819 E0.018
G1 X129.132 Y121.819 E0.344
G1 Y122.385 E0.019
G1 X122.385 Y129.132 E0.318
G1 X122.951 E0.018
G1 X129.132 Y122.951 E0.291
G1 Y123.517 E0.019
G1 X123.517 Y129.132 E0.264
G1 X123.813 E0.01
G1 X123.947 Y129.267 E0.006
G1 X129.187 Y124.027 E0.247
G1 X129.47 Y124.31 E0.013
G1 X124.23 Y129.55 E0.246
G1 X124.513 Y129.833 E0.014
G1 X129.753 Y124.593 E0.246
G1 X130.035 Y124.876 E0.013
G1 X124.796 Y130.115 E0.247
G1 X125.079 Y130.398 E0.013
G1 X130.318 Y125.159 E0.247
G1 X130.601 Y125.442 E0.013
G1 X125.362 Y130.681 E0.246
G1 X125.644 Y130.964 E0.014
G1 X130.884 Y125.724 E0.246
G1 X131.167 Y126.007 E0.013
G1 X129.431 Y127.743 E0.082
G1 X129.78 Y127.648 E0.012
G1 X130.132 Y127.607 E0.012
G1 X131.45 Y126.29 E0.062
G1 X131.732 Y126.573 E0.013
G1 X130.672 Y127.633 E0.05
G1 X130.969 Y127.687 E0.01
G1 X131.129 Y127.742 E0.006
G1 X132.015 Y126.856 E0.041
G1 X132.298 Y127.139 E0.014
G1 X131.527 Y127.91 E0.036
G1 X131.703 Y128.002 E0.007
G1 X131.875 Y128.127 E0.007
G1 X132.334 Y127.668 E0.021
G1 Y128.234 E0.019
G1 X132.18 Y128.388 E0.007
G1 F2700 E-7
;rapid-dry
G0 X128.234 Y132.334 F7200
G1 F2700 E7
;bead-solid_infill
G1 X128.388 Y132.18 F720 E0.008
G1 X128.236 Y132.025 E0.007
G1 X128.127 Y131.875 E0.006
G1 X127.668 Y132.334 E0.022
G1 X127.103 E0.018
G1 X127.911 Y131.526 E0.038
G1 X127.819 Y131.352 E0.007
G1 X127.742 Y131.129 E0.008
G1 X126.776 Y132.095 E0.045
G1 X126.493 Y131.812 E0.014
G1 X127.632 Y130.673 E0.053
G1 X127.614 Y130.576 E0.003
G1 X127.603 Y130.176 E0.014
G1 X127.608 Y130.132 E0.001
G1 X126.21 Y131.53 E0.066
G1 X125.927 Y131.247 E0.013
G1 X127.742 Y129.432 E0.086
G1 F2700 E-7
;rapid-dry
G0 X114.802 Y109.562 F7200
G1 F2700 E7
;bead-solid_infill
G1 X124.035 Y100.329 F720 E0.434
G1 X124.032 Y100.029 E0.01
G1 X124.095 Y99.778 E0.008
G1 X124.141 Y99.677 E0.004
G1 X124.156 Y99.642 E0.001
G1 X114.707 Y109.092 E0.445
G1 X114.699 Y109.075 E0.001
G1 X114.63 Y108.929 E0.005
G1 X114.502 Y108.747 E0.007
G1 X114.494 Y108.739 E0.001
G1 X124.056 Y99.177 E0.449
G1 X124.035 Y99.099 E0.003
G1 X124.032 Y98.771 E0.011
G1 X124.076 Y98.591 E0.006
G1 X114.188 Y108.479 E0.465
G1 X114.15 Y108.453 E0.002
G1 X113.933 Y108.36 E0.008
G1 X113.782 Y108.32 E0.005
G1 X129.685 Y92.416 E0.748
G1 X129.894 Y92.459 E0.007
G1 X130.192 Y92.476 E0.01
G1 X124.908 Y97.759 E0.248
G1 X125.062 Y97.718 E0.006
G1 X125.39 Y97.715 E0.011
G1 X125.493 Y97.74 E0.003
G1 X130.818 Y92.415 E0.251
G1 X131.072 Y92.354 E0.008
G1 X131.44 Y92.208 E0.014
G1 X131.612 Y92.108 E0.006
G1 X131.785 Y92.008 E0.007
G1 X131.812 Y91.987 E0.001
G1 X125.897 Y97.901 E0.278
G1 X126.146 Y98.11 E0.011
G1 X126.191 Y98.174 E0.003
G1 X132.334 Y92.03 E0.289
G1 Y92.596 E0.018
G1 X126.388 Y98.542 E0.28
G1 X126.421 Y98.662 E0.004
G1 X126.443 Y98.742 E0.003
G1 X126.446 Y99.05 E0.01
G1 X129.132 Y96.364 E0.126
G1 Y96.929 E0.019
G1 X126.352 Y99.709 E0.131
G1 X126.38 Y99.77 E0.002
G1 X126.443 Y100.002 E0.008
G1 X126.445 Y100.182 E0.006
G1 X129.132 Y97.495 E0.127
G1 Y98.061 E0.019
G1 X98.061 Y129.132 E1.461
G1 X97.495 E0.019
G1 X125.226 Y101.401 E1.304
G1 X124.857 Y101.339 E0.013
G1 X124.766 Y101.295 E0.003
G1 X96.929 Y129.132 E1.309
G1 X96.364 E0.019
G1 X124.424 Y101.071 E1.32
G1 X124.301 Y100.969 E0.005
G1 X124.177 Y100.753 E0.009
G1 X92.596 Y132.334 E1.485
G1 X92.03 E0.019
G1 X113.508 Y110.856 E1.01
G1 X113.291 Y110.834 E0.007
G1 X113.085 Y110.779 E0.008
G1 X113.04 Y110.759 E0.001
G1 X92.121 Y131.677 E0.984
G1 X92.217 Y131.526 E0.006
G1 X92.38 Y131.167 E0.013
G1 X92.487 Y130.787 E0.013
G1 X92.494 Y130.739 E0.002
G1 X112.687 Y110.546 E0.95
G1 X112.537 Y110.399 E0.007
G1 X112.427 Y110.24 E0.006
G1 X92.54 Y130.127 E0.936
G1 Y130.009 E0.004
G1 X92.491 Y129.672 E0.011
G1 X92.478 Y129.624 E0.002
G1 X112.267 Y109.835 E0.93
G1 X112.256 Y109.795 E0.002
G1 X112.237 Y109.574 E0.007
G1 X112.256 Y109.35 E0.008
G1 X112.282 Y109.254 E0.003
G1 X92.346 Y129.189 E0.938
G1 X92.204 Y128.884 E0.011
G1 X92.158 Y128.812 E0.003
G1 X128.869 Y92.101 E1.726
G1 X128.782 Y92.054 E0.004
G1 X128.534 Y91.87 E0.01
G1 X91.926 Y128.479 E1.722
G1 X91.791 Y128.324 E0.007
G1 X91.647 Y128.192 E0.006
G1 X128.242 Y91.597 E1.722
G1 X128.182 Y91.536 E0.002
G1 X127.992 Y91.281 E0.011
G1 X91.336 Y127.937 E1.724
G1 X91.27 Y127.894 E0.003
G1 X91.105 Y127.789 E0.006
G1 X90.977 Y127.731 E0.005
G1 X127.785 Y90.922 E1.731
G1 X127.757 Y90.87 E0.002
G1 X127.667 Y90.621 E0.009
G1 X127.628 Y90.514 E0.004
G1 X90.569 Y127.573 E1.743
G1 X90.37 Y127.515 E0.007
G1 X90.1 Y127.476 E0.009
G1 X106.737 Y110.839 E0.783
G1 X106.78 Y110.834 E0.001
G1 X106.989 Y110.779 E0.007
G1 X107.193 Y110.685 E0.008
G1 X107.295 Y110.614 E0.004
G1 X107.378 Y110.555 E0.003
G1 X107.538 Y110.395 E0.008
G1 X107.663 Y110.214 E0.007
G1 X107.758 Y110.015 E0.007
G1 X107.817 Y109.795 E0.008
G1 X107.82 Y109.756 E0.001
G1 X127.537 Y90.039 E0.928
G1 X127.519 Y89.711 E0.011
G1 X127.539 Y89.471 E0.008
G1 X107.784 Y109.226 E0.929
G1 X107.759 Y109.133 E0.003
G1 X107.663 Y108.929 E0.007
G1 X107.602 Y108.842 E0.004
G1 X127.731 Y88.713 E0.947
G1 X127.792 Y88.56 E0.005
G1 X127.992 Y88.215 E0.014
G1 X128.238 Y87.905 E0.013
G1 X128.493 Y87.665 E0.011
G1 X128.214 E0.01
G1 X107.326 Y108.553 E0.982
G1 X107.173 Y108.45 E0.006
G1 X107.05 Y108.394 E0.005
G1 X106.986 Y108.365 E0.002
G1 X106.956 Y108.357 E0.001
G1 X127.648 Y87.665 E0.973
G1 F2700 E-7
;rapid-dry
G0 X129.255 Y92.281 F7200
G1 F2700 E7
;bead-solid_infill
G1 X113.201 Y108.335 F720 E0.756
G1 F2700 E-7
;rapid-dry
G0 X96.591 Y109.106 F7200
G1 F2700 E7
;bead-solid_infill
G1 X95.35 Y110.347 F720 E0.058
G1 Y109.781 E0.019
G1 X96.025 Y109.106 E0.031
G1 X95.998 E0.001
G1 X95.798 Y109.088 E0.007
G1 X95.566 Y109.027 E0.008
G1 X95.547 Y109.018 E0.001
G1 X95.35 Y109.215 E0.009
G1 F2700 E-7
;rapid-dry
G0 X90.867 Y108.607 F7200
G1 F2700 E7
;bead-solid_infill
G1 X91.136 Y108.338 F720 E0.013
G1 X91.12 Y108.399 E0.002
G1 X91.117 Y108.436 E0.001
G1 X91.091 Y108.726 E0.01
G1 Y108.949 E0.007
G1 X90.867 Y109.173 E0.011
G1 Y109.738 E0.018
G1 X91.091 Y109.514 E0.011
G1 X91.092 Y110.079 E0.019
G1 X90.867 Y110.304 E0.01
G1 Y110.87 E0.019
G1 X91.092 Y110.645 E0.011
G1 Y110.786 E0.004
G1 X91.13 Y111.124 E0.012
G1 X91.141 Y111.161 E0.001
G1 X90.867 Y111.436 E0.013
G1 Y112.001 E0.019
G1 X91.287 Y111.581 E0.02
G1 X91.396 Y111.801 E0.008
G1 X91.495 Y111.939 E0.005
G1 X90.867 Y112.567 E0.03
G1 Y113.133 E0.019
G1 X91.759 Y112.241 E0.042
G1 X91.873 Y112.35 E0.005
G1 X92.076 Y112.49 E0.008
G1 X90.867 Y113.698 E0.057
G1 Y114.264 E0.019
G1 X92.45 Y112.681 E0.074
G1 X92.506 Y112.707 E0.002
G1 X92.856 Y112.8 E0.012
G1 X92.893 Y112.803 E0.002
G1 X90.867 Y114.83 E0.095
G1 Y115.395 E0.019
G1 X93.451 Y112.812 E0.121
G1 X93.586 Y112.8 E0.005
G1 X93.942 Y112.705 E0.012
G1 X94.281 Y112.547 E0.012
G1 X90.867 Y115.961 E0.161
G1 Y116.527 E0.019
G1 X94.917 Y112.477 E0.19
G1 X94.977 Y112.563 E0.004
G1 X95.146 Y112.735 E0.008
G1 X95.193 Y112.767 E0.002
G1 X90.867 Y117.092 E0.203
G1 Y117.658 E0.019
G1 X95.554 Y112.971 E0.22
G1 X95.566 Y112.977 E0.001
G1 X95.677 Y113.006 E0.004
G1 X95.798 Y113.038 E0.004
G1 X95.998 Y113.056 E0.006
G1 X96.035 E0.002
G1 X90.867 Y118.224 E0.243
G1 Y118.789 E0.019
G1 X96.6 Y113.056 E0.269
G1 X97.166 E0.019
G1 X90.867 Y119.355 E0.296
G1 Y119.921 E0.019
G1 X119.92 Y90.868 E1.367
G1 X119.354 E0.019
G1 X98.523 Y111.699 E0.979
G1 X98.525 Y111.676 E0.001
G1 X98.505 Y111.431 E0.008
G1 X98.443 Y111.214 E0.008
G1 X118.788 Y90.868 E0.957
G1 X118.223 E0.019
G1 X98.244 Y110.847 E0.939
G1 X98.203 Y110.787 E0.003
G1 X98.031 Y110.615 E0.008
G1 X97.959 Y110.566 E0.003
G1 X117.657 Y90.868 E0.926
G1 X117.091 E0.019
G1 X97.59 Y110.369 E0.917
G1 X97.382 Y110.312 E0.008
G1 X97.177 Y110.296 E0.006
G1 X97.098 E0.003
G1 X116.526 Y90.868 E0.914
G1 X115.96 E0.019
G1 X96.532 Y110.296 E0.914
G1 X96.003 E0.017
G1 X95.963 Y110.299 E0.002
G1 X97.156 Y109.106 E0.056
G1 X97.182
G1 X97.387 Y109.087 E0.007
G1 X97.627 Y109.021 E0.009
G1 X97.834 Y108.924 E0.007
G1 X98.034 Y108.785 E0.008
G1 X98.203 Y108.613 E0.008
G1 X98.339 Y108.419 E0.008
G1 X98.441 Y108.202 E0.008
G1 X98.506 Y107.966 E0.008
G1 X98.524 Y107.738 E0.008
G1 X115.394 Y90.868 E0.793
G1 X114.829 E0.019
G1 X98.441 Y107.256 E0.771
G1 X98.435 Y107.237 E0.001
G1 X98.34 Y107.034 E0.007
G1 X98.24 Y106.891 E0.006
G1 X114.263 Y90.868 E0.754
G1 X113.697 E0.019
G1 X97.954 Y106.612 E0.74
G1 X97.833 Y106.528 E0.005
G1 X97.618 Y106.427 E0.008
G1 X97.582 Y106.417 E0.001
G1 X113.132 Y90.868 E0.731
G1 X112.566 E0.019
G1 X97.088 Y106.346 E0.728
G1 X96.522 E0.019
G1 X112 Y90.868 E0.728
G1 X111.435 E0.019
G1 X95.952 Y106.35 E0.728
G1 X95.798 Y106.362 E0.005
G1 X95.562 Y106.427 E0.008
G1 X95.454 Y106.477 E0.004
G1 X95.347 Y106.528 E0.004
G1 X95.149 Y106.665 E0.008
G1 X94.977 Y106.837 E0.008
G1 X94.84 Y107.035 E0.008
G1 X94.737 Y107.254 E0.009
G1 X94.733 Y107.27
G1 X94.597 Y107.14 E0.006
G1 X110.869 Y90.868 E0.766
G1 X110.303 E0.019
G1 X94.265 Y106.906 E0.754
G1 X94.251 Y106.897 E0.001
G1 X93.913 Y106.747 E0.012
G1 X93.87 Y106.736 E0.001
G1 X109.737 Y90.868 E0.747
G1 X109.172 E0.018
G1 X93.394 Y106.646 E0.743
G1 X93.188 Y106.632 E0.007
G1 X92.821 Y106.669 E0.012
G1 X92.798 Y106.676 E0.001
G1 X108.606 Y90.868 E0.743
G1 X108.04 E0.019
G1 X90.867 Y108.041 E0.808
G1 Y107.476 E0.019
G1 X107.475 Y90.868 E0.781
G1 X106.909 E0.019
G1 X90.867 Y106.91 E0.754
G1 Y106.344 E0.019
G1 X106.343 Y90.868 E0.728
G1 F2700 E-7
;rapid-dry
G0 X101.252 F7200
G1 F2700 E7
;bead-solid_infill
G1 X94.311 Y97.809 F720 E0.326
G1 X94.371 Y97.781 E0.002
G1 X94.607 Y97.718 E0.009
G1 X94.935 Y97.715 E0.011
G1 X94.964 Y97.722 E0.001
G1 X101.818 Y90.868 E0.322
G1 X102.384 E0.019
G1 X95.384 Y97.868 E0.329
G1 X95.425 Y97.886 E0.001
G1 X95.691 Y98.11 E0.012
G1 X95.698 Y98.12
G1 X102.949 Y90.868 E0.342
G1 X103.515 E0.018
G1 X95.909 Y98.474 E0.358
G1 X95.924 Y98.507 E0.001
G1 X95.988 Y98.742 E0.008
G1 X95.99 Y98.959 E0.008
G1 X104.081 Y90.868 E0.38
G1 X104.646 E0.019
G1 X95.868 Y99.646 E0.413
G1 X95.925 Y99.77 E0.004
G1 X95.958 Y99.891 E0.005
G1 X95.988 Y100.002 E0.003
G1 X95.989 Y100.091 E0.003
G1 X105.212 Y90.868 E0.434
G1 X105.778 E0.019
G1 X95.782 Y100.864 E0.47
G1 X95.713 Y100.964 E0.004
G1 X95.534 Y101.139 E0.009
G1 X95.469 Y101.177 E0.002
G1 X90.867 Y105.779 E0.217
G1 Y105.213 E0.018
G1 X94.692 Y101.388 E0.18
G1 X94.402 Y101.339 E0.01
G1 X94.249 Y101.265 E0.006
G1 X90.867 Y104.647 E0.159
G1 Y104.082 E0.019
G1 X93.919 Y101.03 E0.143
G1 X93.846 Y100.969 E0.003
G1 X93.689 Y100.694 E0.011
G1 X90.867 Y103.516 E0.133
G1 Y102.95 E0.018
G1 X93.579 Y100.238 E0.128
G1 X93.577 Y100.029 E0.007
G1 X93.64 Y99.778 E0.008
G1 X93.734 Y99.569 E0.008
G1 X93.749 Y99.551 E0.001
G1 X93.732 Y99.528 E0.001
G1 X93.73 Y99.522
G1 X90.867 Y102.385 E0.135
G1 Y101.819 E0.019
G1 X93.582 Y99.104 E0.127
G1 X93.58 Y99.099
G1 X93.577 Y98.771 E0.011
G1 X93.64 Y98.517 E0.009
G1 X93.671 Y98.449 E0.002
G1 X90.867 Y101.253 E0.132
G1 Y100.688 E0.019
G1 X100.687 Y90.868 E0.462
G1 X100.121 E0.019
G1 X90.867 Y100.122 E0.435
G1 Y99.556 E0.019
G1 X99.555 Y90.868 E0.409
G1 X98.989 E0.018
G1 X90.867 Y98.99 E0.382
G1 Y98.425 E0.019
G1 X98.424 Y90.868 E0.356
G1 X97.858 E0.019
G1 X90.867 Y97.859 E0.328
G1 Y97.293 E0.019
G1 X97.292 Y90.868 E0.302
G1 X96.727 E0.019
G1 X90.867 Y96.728 E0.276
G1 Y96.162 E0.019
G1 X96.174 Y90.855 E0.249
G1 X95.891 Y90.572 E0.014
G1 X90.651 Y95.812 E0.246
G1 X90.369 Y95.529 E0.013
G1 X95.609 Y90.289 E0.247
G1 X95.326 Y90.006 E0.013
G1 X90.086 Y95.246 E0.247
G1 X89.803 Y94.963 E0.013
G1 X95.043 Y89.723 E0.246
G1 X94.76 Y89.44 E0.014
G1 X89.52 Y94.68 E0.246
G1 F2700 E-7
;rapid-dry
G0 X87.909 Y91.766 F7200
G1 F2700 E7
;bead-solid_infill
G1 X87.665 Y92.01 F720 E0.012
G1 Y92.576 E0.019
G1 X88.225 Y92.015 E0.026
G1 X88.532 Y92.192 E0.012
G1 X88.56 Y92.208 E0.001
G1 X88.588 Y92.219 E0.001
G1 X87.823 Y92.983 E0.036
G1 X88.106 Y93.266 E0.013
G1 X89 Y92.372 E0.042
G1 X89.314 Y92.447 E0.011
G1 X89.476 Y92.461 E0.005
G1 X88.389 Y93.549 E0.051
G1 X88.672 Y93.832 E0.014
G1 X90.043 Y92.46 E0.064
G1 X90.134 Y92.454 E0.003
G1 X90.496 Y92.379 E0.012
G1 X90.802 Y92.268 E0.011
G1 X88.955 Y94.115 E0.087
G1 X89.237 Y94.398 E0.013
G1 X94.477 Y89.157 E0.247
G1 X94.195 Y88.875 E0.013
G1 X92.268 Y90.802 E0.091
G1 X92.379 Y90.495 E0.011
G1 X92.459 Y90.107 E0.013
G1 X92.463 Y90.041 E0.002
G1 X93.912 Y88.592 E0.068
G1 X93.629 Y88.309 E0.014
G1 X92.461 Y89.477 E0.054
G1 X92.447 Y89.314 E0.006
G1 X92.372 Y89 E0.011
G1 X93.346 Y88.026 E0.045
G1 X93.063 Y87.743 E0.014
G1 X92.219 Y88.588 E0.039
G1 X92.208 Y88.56 E0.001
G1 X92.015 Y88.225 E0.013
G1 X92.576 Y87.665 E0.027
G1 X92.01 E0.018
G1 X91.766 Y87.909 E0.012
G1 F2700 E-7
;rapid-dry
G0 X121.617 Y90.868 F7200
G1 F2700 E7
;bead-solid_infill
G1 X94.244 Y118.241 F720 E1.288
G1 X94.245 Y118.24
G1 X94.371 Y118.182 E0.004
G1 X94.607 Y118.119 E0.008
G1 X94.935 Y118.116 E0.011
G1 X122.183 Y90.868 E1.282
G1 X122.748 E0.019
G1 X95.359 Y118.257 E1.288
G1 X95.425 Y118.287 E0.002
G1 X95.68 Y118.502 E0.011
G1 X123.314 Y90.868 E1.3
G1 X123.88 E0.019
G1 X106.45 Y108.298 E0.82
G1 X106.324 Y108.311 E0.004
G1 X106.116 Y108.366 E0.007
G1 X105.913 Y108.46 E0.008
G1 X105.732 Y108.587 E0.007
G1 X105.572 Y108.743 E0.008
G1 X105.438 Y108.934 E0.007
G1 X105.346 Y109.138 E0.008
G1 X105.289 Y109.35 E0.007
G1 X105.279 Y109.469 E0.004
G1 X95.897 Y118.85 E0.441
G1 X95.925 Y118.91 E0.002
G1 X95.988 Y119.146 E0.009
G1 X95.99 Y119.324 E0.006
G1 X105.337 Y109.976 E0.439
G1 X105.346 Y110.009 E0.001
G1 X105.438 Y110.209 E0.008
G1 X105.533 Y110.346 E0.005
G1 X95.866 Y120.013 E0.455
G1 X95.925 Y120.139 E0.004
G1 X95.988 Y120.375 E0.009
G1 X95.989 Y120.456 E0.002
G1 X105.823 Y110.621 E0.463
G1 X105.933 Y110.695 E0.004
G1 X106.118 Y110.779 E0.007
G1 X106.207 Y110.803 E0.003
G1 X95.821 Y121.189 E0.489
G1 X95.82 Y121.193
G1 X95.596 Y121.459 E0.011
G1 X95.446 Y121.564 E0.006
G1 X89.545 Y127.465 E0.278
G1 X89.198 Y127.515 E0.012
G1 X88.821 Y127.625 E0.013
G1 X88.819 Y127.626
G1 X94.686 Y121.759 E0.276
G1 X94.633 E0.002
G1 X94.379 Y121.696 E0.008
G1 X94.245 Y121.634 E0.005
G1 X87.665 Y128.214 E0.31
G1 Y127.648 E0.018
G1 X93.916 Y121.397 E0.295
G1 X93.904 Y121.386
G1 X93.867 Y121.349 E0.002
G1 X93.732 Y121.158 E0.008
G1 X93.687 Y121.06 E0.003
G1 X90.867 Y123.881 E0.133
G1 Y123.315 E0.019
G1 X93.579 Y120.603 E0.127
G1 X93.577 Y120.401 E0.007
G1 X93.64 Y120.147 E0.009
G1 X93.735 Y119.939 E0.007
G1 X93.736 Y119.938
G1 X93.727 Y119.917 E0.001
G1 X93.718 Y119.898 E0.001
G1 X90.867 Y122.749 E0.134
G1 Y122.184 E0.019
G1 X93.58 Y119.471 E0.127
G1 X93.577 Y119.172 E0.01
G1 X93.64 Y118.918 E0.009
G1 X93.702 Y118.783 E0.005
G1 X90.867 Y121.618 E0.133
G1 Y121.052 E0.019
G1 X121.051 Y90.868 E1.42
G1 X120.486 E0.019
G1 X90.867 Y120.487 E1.393
G1 F2700 E-7
;LAYER:2
M107
;rapid-dry
G0 X95.244 Y120.287 Z0.35 F7200
G1 F2700 E7
;bead-perimeter_outer
G1 X95.185 Y120.203 F1800 E0.002
G1 X95.058 Y120.097 E0.004
G1 X94.876 Y120.029 E0.005
G1 X94.692 E0.005
G1 X94.593 Y120.056 E0.002
G1 X94.45 Y120.14 E0.005
G1 X94.375 Y120.213 E0.002
G1 X94.309 Y120.317 E0.003
G1 X94.262 Y120.453 E0.004
G1 X94.261 Y120.645 E0.005
G1 X94.324 Y120.817 E0.004
G1 X94.377 Y120.893 E0.003
G1 X94.446 Y120.962 E0.002
G1 X94.549 Y121.027 E0.003
G1 X94.685 Y121.074 E0.004
G1 X94.876 Y121.075 E0.004
G1 X95.049 Y121.012 E0.005
G1 X95.194 Y120.89 E0.005
G1 X95.259 Y120.788 E0.003
G1 X95.306 Y120.652 E0.003
G1 X95.307 Y120.46 E0.005
G1 X95.244 Y120.287 E0.005
G1 F2700 E-7
;rapid-dry
G0 Y119.058 F7200
G1 F2700 E7
;bead-perimeter_outer
G1 X95.191 Y118.982 F1800 E0.002
G1 X95.122 Y118.913 E0.002
G1 X95.019 Y118.848 E0.003
G1 X94.883 Y118.801 E0.004
G1 X94.784 Y118.792 E0.003
G1 X94.603 Y118.824 E0.004
G1 X94.443 Y118.916 E0.005
G1 X94.374 Y118.985 E0.002
G1 X94.309 Y119.088 E0.003
G1 X94.262 Y119.224 E0.004
G1 X94.253 Y119.323 E0.002
G1 X94.261 Y119.415 E0.003
G1 X94.324 Y119.588 E0.004
G1 X94.446 Y119.733 E0.005
G1 X94.549 Y119.798 E0.003
G1 X94.685 Y119.845 E0.004
G1 X94.784 Y119.854 E0.002
G1 X94.965 Y119.822 E0.005
G1 X95.125 Y119.73 E0.004
G1 X95.194 Y119.661 E0.003
G1 X95.259 Y119.558 E0.003
G1 X95.306 Y119.422 E0.003
G1 X95.307 Y119.231 E0.005
G1 X95.244 Y119.058 E0.005
;rapid-leaky
G0 X95.557 Y118.878 F7200
;bead-perimeter_inner
G1 X95.467 Y118.749 F2400 E0.003
G1 X95.349 Y118.631 E0.005
G1 X95.177 Y118.521 E0.005
G1 X94.957 Y118.446 E0.006
G1 X94.784 Y118.431 E0.004
G1 X94.629 Y118.444 E0.004
G1 X94.48 Y118.484 E0.004
G1 X94.339 Y118.55 E0.004
G1 X94.21 Y118.64 E0.003
G1 X94.092 Y118.758 E0.005
G1 X93.982 Y118.93 E0.005
G1 X93.907 Y119.15 E0.005
G1 X93.892 Y119.323 E0.005
G1 X93.905 Y119.478 E0.004
G1 X93.945 Y119.627 E0.004
G1 X94.011 Y119.769 E0.003
G1 X94.142 Y119.938 E0.006
G1 X94.094 Y119.984 E0.001
G1 X93.982 Y120.159 E0.006
G1 X93.907 Y120.379 E0.005
G1 X93.892 Y120.552 E0.005
G1 X93.905 Y120.709 E0.004
G1 X93.946 Y120.857 E0.004
G1 X94.011 Y120.997 E0.003
G1 X94.101 Y121.126 E0.004
G1 X94.219 Y121.244 E0.004
G1 X94.391 Y121.354 E0.006
G1 X94.611 Y121.429 E0.005
G1 X94.784 Y121.444 E0.005
G1 X94.939 Y121.431 E0.004
G1 X95.088 Y121.391 E0.003
G1 X95.23 Y121.325 E0.004
G1 X95.358 Y121.235 E0.004
G1 X95.476 Y121.117 E0.004
G1 X95.586 Y120.946 E0.005
G1 X95.661 Y120.727 E0.006
G1 X95.676 Y120.552 E0.005
G1 X95.663 Y120.397 E0.003
G1 X95.623 Y120.248 E0.004
G1 X95.557 Y120.107 E0.004
G1 X95.428 Y119.936 E0.006
G1 X95.476 Y119.888 E0.001
G1 X95.586 Y119.716 E0.005
G1 X95.661 Y119.496 E0.006
G1 X95.676 Y119.323 E0.004
G1 X95.663 Y119.168 E0.004
G1 X95.623 Y119.019 E0.004
G1 X95.557 Y118.878 E0.004
G1 F2700 E-7
;rapid-dry
G0 X97.749 Y111.326 F7200
G1 F2700 E7
;bead-perimeter_outer
G1 X97.679 Y111.225 F1800 E0.003
G1 X97.593 Y111.139 E0.003
G1 X97.492 Y111.069 E0.003
G1 X97.382 Y111.018 E0.003
G1 X97.264 Y110.985 E0.003
G1 X97.15 Y110.976 E0.003
G1 X95.914 Y110.985 E0.031
G1 X95.688 Y111.069 E0.006
G1 X95.587 Y111.139 E0.003
G1 X95.501 Y111.225 E0.003
G1 X95.431 Y111.326 E0.003
G1 X95.38 Y111.436 E0.003
G1 X95.347 Y111.554 E0.003
G1 Y111.798 E0.006
G1 X95.38 Y111.916 E0.003
G1 X95.431 Y112.027 E0.003
G1 X95.587 Y112.213 E0.006
G1 X95.688 Y112.283 E0.004
G1 X95.799 Y112.335 E0.003
G1 X96.029 Y112.376 E0.005
G1 X97.151 E0.028
G1 X97.266 Y112.365 E0.003
G1 X97.397 Y112.328 E0.004
G1 X97.593 Y112.213 E0.005
G1 X97.749 Y112.027 E0.006
G1 X97.8 Y111.916 E0.003
G1 X97.833 Y111.798 E0.004
G1 Y111.552 E0.006
G1 X97.749 Y111.326 E0.006
;rapid-leaky
G0 X98.131 Y111.292 F7200
;bead-perimeter_inner
G1 X98.062 Y111.145 F2400 E0.004
G1 X97.956 Y110.993 E0.004
G1 X97.825 Y110.862 E0.005
G1 X97.672 Y110.756 E0.005
G1 X97.507 Y110.679 E0.004
G1 X97.326 Y110.629 E0.005
G1 X97.165 Y110.616 E0.004
G1 X96.015 E0.029
G1 X95.847 Y110.63 E0.004
G1 X95.654 Y110.687 E0.005
G1 X95.507 Y110.756 E0.004
G1 X95.355 Y110.862 E0.004
G1 X95.224 Y110.993 E0.005
G1 X95.118 Y111.146 E0.005
G1 X95.041 Y111.311 E0.004
G1 X94.991 Y111.492 E0.005
G1 X94.976 Y111.676 E0.005
G1 X94.991 Y111.86 E0.004
G1 X95.041 Y112.041 E0.005
G1 X95.119 Y112.208 E0.004
G1 X95.224 Y112.357 E0.005
G1 X95.354 Y112.489 E0.005
G1 X95.508 Y112.596 E0.004
G1 X95.676 Y112.675 E0.005
G1 X95.854 Y112.721 E0.005
G1 X96.012 Y112.736 E0.003
G1 X97.168 E0.029
G1 X97.333 Y112.721 E0.004
G1 X97.524 Y112.666 E0.005
G1 X97.673 Y112.596 E0.005
G1 X97.826 Y112.489 E0.004
G1 X97.956 Y112.357 E0.005
G1 X98.061 Y112.208 E0.004
G1 X98.139 Y112.041 E0.005
G1 X98.189 Y111.86 E0.005
G1 X98.204 Y111.676 E0.004
G1 X98.188 Y111.485 E0.005
G1 X98.131 Y111.292 E0.005
G1 F2700 E-7
;rapid-dry
G0 X97.833 Y107.602 F7200
G1 F2700 E7
;bead-perimeter_outer
G1 X97.749 Y107.376 F1800 E0.006
G1 X97.679 Y107.275 E0.003
G1 X97.593 Y107.189 E0.003
G1 X97.492 Y107.119 E0.003
G1 X97.382 Y107.068 E0.003
G1 X97.264 Y107.035 E0.003
G1 X97.15 Y107.026 E0.003
G1 X95.914 Y107.035 E0.031
G1 X95.688 Y107.119 E0.006
G1 X95.587 Y107.189 E0.003
G1 X95.501 Y107.275 E0.003
G1 X95.431 Y107.376 E0.003
G1 X95.38 Y107.486 E0.003
G1 X95.347 Y107.604 E0.003
G1 Y107.848 E0.006
G1 X95.38 Y107.966 E0.003
G1 X95.431 Y108.077 E0.003
G1 X95.587 Y108.263 E0.006
G1 X95.688 Y108.333 E0.004
G1 X95.799 Y108.385 E0.003
G1 X96.029 Y108.426 E0.005
G1 X97.151 E0.028
G1 X97.266 Y108.415 E0.003
G1 X97.397 Y108.378 E0.004
G1 X97.593 Y108.263 E0.005
G1 X97.749 Y108.077 E0.006
G1 X97.8 Y107.966 E0.003
G1 X97.833 Y107.848 E0.004
G1 Y107.602 E0.006
;rapid-leaky
G0 X98.188 Y107.535 F7200
;bead-perimeter_inner
G1 X98.131 Y107.342 F2400 E0.005
G1 X98.062 Y107.195 E0.004
G1 X97.956 Y107.043 E0.004
G1 X97.825 Y106.912 E0.005
G1 X97.672 Y106.806 E0.005
G1 X97.507 Y106.729 E0.004
G1 X97.326 Y106.679 E0.005
G1 X97.164 Y106.666 E0.004
G1 X96.016 E0.029
G1 X95.847 Y106.68 E0.004
G1 X95.654 Y106.737 E0.005
G1 X95.507 Y106.806 E0.004
G1 X95.355 Y106.912 E0.004
G1 X95.224 Y107.043 E0.005
G1 X95.118 Y107.196 E0.005
G1 X95.041 Y107.361 E0.004
G1 X94.991 Y107.542 E0.005
G1 X94.976 Y107.726 E0.005
G1 X94.991 Y107.91 E0.004
G1 X95.041 Y108.091 E0.005
G1 X95.119 Y108.258 E0.004
G1 X95.224 Y108.407 E0.005
G1 X95.354 Y108.539 E0.005
G1 X95.508 Y108.646 E0.004
G1 X95.676 Y108.725 E0.005
G1 X95.854 Y108.771 E0.005
G1 X96.012 Y108.786 E0.004
G1 X97.168 E0.028
G1 X97.333 Y108.771 E0.004
G1 X97.524 Y108.716 E0.005
G1 X97.673 Y108.646 E0.005
G1 X97.826 Y108.539 E0.004
G1 X97.956 Y108.407 E0.005
G1 X98.061 Y108.258 E0.004
G1 X98.139 Y108.091 E0.005
G1 X98.189 Y107.91 E0.005
G1 X98.204 Y107.726 E0.004
G1 X98.188 Y107.535 E0.005
G1 F2700 E-7
;rapid-dry
G0 X94.642 Y108.471 F7200
G1 F2700 E7
;bead-perimeter_outer
G1 X94.57 Y108.231 F1800 E0.006
G1 X94.458 Y108.007 E0.007
G1 X94.31 Y107.806 E0.006
G1 X94.129 Y107.633 E0.006
G1 X93.921 Y107.494 E0.006
G1 X93.692 Y107.392 E0.006
G1 X93.448 Y107.332 E0.007
G1 X93.199 Y107.314 E0.006
G1 X92.949 Y107.34 E0.006
G1 X92.708 Y107.408 E0.007
G1 X92.483 Y107.516 E0.006
G1 X92.279 Y107.661 E0.006
G1 X92.103 Y107.84 E0.006
G1 X91.961 Y108.047 E0.006
G1 X91.856 Y108.274 E0.007
G1 X91.792 Y108.515 E0.006
G1 X91.771 Y108.756 E0.006
G1 X91.772 Y110.747 E0.05
G1 X91.799 Y110.988 E0.006
G1 X91.87 Y111.226 E0.006
G1 X91.98 Y111.449 E0.006
G1 X92.125 Y111.65 E0.006
G1 X92.304 Y111.822 E0.006
G1 X92.508 Y111.962 E0.007
G1 X92.735 Y112.064 E0.006
G1 X92.974 Y112.128 E0.006
G1 X93.221 Y112.149 E0.006
G1 X93.468 Y112.128 E0.006
G1 X93.707 Y112.064 E0.007
G1 X93.934 Y111.962 E0.006
G1 X94.138 Y111.822 E0.006
G1 X94.317 Y111.65 E0.006
G1 X94.462 Y111.449 E0.006
G1 X94.572 Y111.226 E0.006
G1 X94.643 Y110.988 E0.007
G1 X94.67 Y110.747 E0.006
G1 Y108.714 E0.05
G1 X94.642 Y108.471 E0.007
;rapid-leaky
G0 X94.996 Y108.398 F7200
;bead-perimeter_inner
G1 X94.906 Y108.098 F2400 E0.007
G1 X94.766 Y107.819 E0.008
G1 X94.581 Y107.567 E0.008
G1 X94.355 Y107.352 E0.008
G1 X94.096 Y107.178 E0.008
G1 X93.811 Y107.051 E0.007
G1 X93.504 Y106.975 E0.008
G1 X93.193 Y106.953 E0.008
G1 X92.881 Y106.985 E0.008
G1 X92.58 Y107.07 E0.008
G1 X92.3 Y107.205 E0.007
G1 X92.044 Y107.386 E0.008
G1 X91.825 Y107.61 E0.008
G1 X91.646 Y107.868 E0.008
G1 X91.516 Y108.152 E0.008
G1 X91.436 Y108.453 E0.007
G1 X91.411 Y108.74 E0.008
G1 X91.412 Y110.768 E0.05
G1 X91.445 Y111.06 E0.007
G1 X91.534 Y111.359 E0.008
G1 X91.671 Y111.635 E0.008
G1 X91.853 Y111.887 E0.008
G1 X92.076 Y112.102 E0.007
G1 X92.331 Y112.277 E0.008
G1 X92.613 Y112.404 E0.008
G1 X92.911 Y112.484 E0.008
G1 X93.221 Y112.51 E0.007
G1 X93.531 Y112.484 E0.008
G1 X93.829 Y112.404 E0.008
G1 X94.111 Y112.277 E0.007
G1 X94.366 Y112.102 E0.008
G1 X94.589 Y111.887 E0.008
G1 X94.771 Y111.635 E0.008
G1 X94.908 Y111.359 E0.007
G1 X94.997 Y111.06 E0.008
G1 X95.03 Y110.768 E0.007
G1 Y108.693 E0.052
G1 X94.996 Y108.398 E0.008
G1 F2700 E-7
;rapid-dry
G0 X95.315 Y100.181 F7200
G1 F2700 E7
;bead-perimeter_outer
G1 X95.307 Y100.089 F1800 E0.002
G1 X95.244 Y99.916 E0.005
G1 X95.185 Y99.832 E0.002
G1 X95.058 Y99.726 E0.004
G1 X94.967 Y99.683 E0.003
G1 X94.876 Y99.658 E0.002
G1 X94.692 E0.005
G1 X94.593 Y99.685 E0.002
G1 X94.45 Y99.769 E0.004
G1 X94.378 Y99.839 E0.003
G1 X94.284 Y100.005 E0.005
G1 X94.257 Y100.122 E0.003
G1 X94.26 Y100.268 E0.003
G1 X94.288 Y100.371 E0.003
G1 X94.375 Y100.525 E0.004
G1 X94.51 Y100.637 E0.005
G1 X94.61 Y100.685 E0.002
G1 X94.784 Y100.714 E0.005
G1 X94.966 Y100.683 E0.005
G1 X95.118 Y100.594 E0.004
G1 X95.194 Y100.521 E0.003
G1 X95.26 Y100.416 E0.003
G1 X95.306 Y100.281 E0.003
G1 X95.315 Y100.181 E0.003
G1 F2700 E-7
;rapid-dry
G0 X95.306 Y99.021 F7200
G1 F2700 E7
;bead-perimeter_outer
G1 X95.307 Y98.829 F1800 E0.004
G1 X95.244 Y98.657 E0.005
G1 X95.191 Y98.581 E0.002
G1 X95.122 Y98.512 E0.003
G1 X95.019 Y98.447 E0.003
G1 X94.883 Y98.4 E0.003
G1 X94.784 Y98.391 E0.003
G1 X94.603 Y98.423 E0.004
G1 X94.443 Y98.515 E0.005
G1 X94.374 Y98.584 E0.002
G1 X94.309 Y98.686 E0.004
G1 X94.262 Y98.822 E0.003
G1 X94.253 Y98.922 E0.003
G1 X94.261 Y99.014 E0.002
G1 X94.324 Y99.187 E0.005
G1 X94.446 Y99.332 E0.004
G1 X94.549 Y99.397 E0.003
G1 X94.685 Y99.444 E0.004
G1 X94.784 Y99.453 E0.002
G1 X94.965 Y99.421 E0.005
G1 X95.125 Y99.329 E0.005
G1 X95.194 Y99.26 E0.002
G1 X95.259 Y99.157 E0.003
G1 X95.306 Y99.021 E0.004
;rapid-leaky
G0 X95.676 Y98.922 F7200
;bead-perimeter_inner
G1 X95.663 Y98.765 F2400 E0.004
G1 X95.622 Y98.617 E0.003
G1 X95.557 Y98.477 E0.004
G1 X95.467 Y98.348 E0.004
G1 X95.349 Y98.23 E0.004
G1 X95.177 Y98.12 E0.005
G1 X94.957 Y98.045 E0.006
G1 X94.784 Y98.03 E0.005
G1 X94.629 Y98.043 E0.003
G1 X94.48 Y98.083 E0.004
G1 X94.339 Y98.149 E0.004
G1 X94.21 Y98.239 E0.004
G1 X94.092 Y98.357 E0.004
G1 X93.982 Y98.528 E0.005
G1 X93.907 Y98.747 E0.006
G1 X93.892 Y98.922 E0.004
G1 X93.905 Y99.077 E0.004
G1 X93.945 Y99.226 E0.004
G1 X94.011 Y99.368 E0.004
G1 X94.157 Y99.552 E0.006
G1 X94.009 Y99.737 E0.006
G1 X93.941 Y99.889 E0.004
G1 X93.896 Y100.085 E0.005
G1 X93.901 Y100.32 E0.006
G1 X93.952 Y100.51 E0.005
G1 X94.095 Y100.76 E0.007
G1 X94.314 Y100.942 E0.007
G1 X94.5 Y101.031 E0.005
G1 X94.784 Y101.079 E0.007
G1 X95.091 Y101.027 E0.008
G1 X95.338 Y100.883 E0.007
G1 X95.475 Y100.749 E0.005
G1 X95.586 Y100.573 E0.005
G1 X95.661 Y100.356 E0.006
G1 X95.676 Y100.181 E0.004
G1 X95.662 Y100.025 E0.004
G1 X95.623 Y99.879 E0.004
G1 X95.559 Y99.737 E0.004
G1 X95.452 Y99.586 E0.005
G1 X95.411 Y99.552 E0.001
G1 X95.476 Y99.487 E0.002
G1 X95.586 Y99.315 E0.005
G1 X95.661 Y99.095 E0.006
G1 X95.676 Y98.922 E0.004
G1 F2700 E-7
;rapid-dry
G0 X107.073 Y109.271 F7200
G1 F2700 E7
;bead-perimeter_outer
G1 X106.936 Y109.109 F1800 E0.006
G1 X106.819 Y109.034 E0.003
G1 X106.665 Y108.982 E0.004
G1 X106.553 Y108.971 E0.003
G1 X106.348 Y109.008 E0.005
G1 X106.168 Y109.112 E0.005
G1 X106.09 Y109.188 E0.003
G1 X106.014 Y109.306 E0.004
G1 X105.962 Y109.462 E0.004
G1 X105.961 Y109.677 E0.005
G1 X106.032 Y109.871 E0.005
G1 X106.092 Y109.959 E0.003
G1 X106.171 Y110.036 E0.003
G1 X106.287 Y110.111 E0.003
G1 X106.44 Y110.163 E0.004
G1 X106.553 Y110.174 E0.003
G1 X106.758 Y110.137 E0.005
G1 X106.853 Y110.093 E0.003
G1 X107.013 Y109.959 E0.005
G1 X107.117 Y109.779 E0.005
G1 X107.154 Y109.573 E0.005
G1 X107.145 Y109.468 E0.003
G1 X107.073 Y109.271 E0.005
;rapid-leaky
G0 X107.385 Y109.09 F7200
;bead-perimeter_inner
G1 X107.289 Y108.953 F2400 E0.004
G1 X107.163 Y108.827 E0.005
G1 X106.976 Y108.707 E0.005
G1 X106.741 Y108.628 E0.007
G1 X106.553 Y108.609 E0.004
G1 X106.382 Y108.626 E0.005
G1 X106.225 Y108.668 E0.004
G1 X106.073 Y108.739 E0.004
G1 X105.937 Y108.834 E0.004
G1 X105.809 Y108.959 E0.004
G1 X105.687 Y109.149 E0.006
G1 X105.607 Y109.388 E0.006
G1 X105.591 Y109.573 E0.005
G1 X105.605 Y109.74 E0.004
G1 X105.648 Y109.9 E0.004
G1 X105.718 Y110.05 E0.004
G1 X105.816 Y110.192 E0.005
G1 X105.945 Y110.319 E0.004
G1 X106.129 Y110.437 E0.006
G1 X106.364 Y110.517 E0.006
G1 X106.553 Y110.536 E0.005
G1 X106.723 Y110.519 E0.004
G1 X106.88 Y110.477 E0.004
G1 X107.033 Y110.407 E0.004
G1 X107.172 Y110.309 E0.004
G1 X107.291 Y110.19 E0.005
G1 X107.385 Y110.053 E0.004
G1 X107.457 Y109.904 E0.004
G1 X107.501 Y109.74 E0.004
G1 X107.515 Y109.573 E0.004
G1 X107.501 Y109.406 E0.004
G1 X107.457 Y109.243 E0.005
G1 X107.385 Y109.09 E0.004
G1 F2700 E-7
;rapid-dry
G0 X113.903 Y109.109 F7200
G1 F2700 E7
;bead-perimeter_outer
G1 X113.786 Y109.034 F1800 E0.003
G1 X113.632 Y108.982 E0.004
G1 X113.52 Y108.971 E0.003
G1 X113.315 Y109.008 E0.005
G1 X113.135 Y109.112 E0.006
G1 X113.057 Y109.188 E0.002
G1 X112.981 Y109.306 E0.004
G1 X112.929 Y109.462 E0.004
G1 X112.928 Y109.677 E0.005
G1 X112.999 Y109.871 E0.005
G1 X113.059 Y109.959 E0.003
G1 X113.138 Y110.036 E0.003
G1 X113.254 Y110.111 E0.003
G1 X113.407 Y110.163 E0.004
G1 X113.52 Y110.174 E0.003
G1 X113.724 Y110.137 E0.005
G1 X113.82 Y110.093 E0.003
G1 X113.98 Y109.959 E0.005
G1 X114.084 Y109.779 E0.005
G1 X114.121 Y109.573 E0.006
G1 X114.112 Y109.468 E0.002
G1 X114.04 Y109.271 E0.005
G1 X113.903 Y109.109 E0.006
;rapid-leaky
G0 X114.256 Y108.953 F7200
;bead-perimeter_inner
G1 X114.13 Y108.827 F2400 E0.004
G1 X113.943 Y108.707 E0.006
G1 X113.708 Y108.628 E0.006
G1 X113.52 Y108.609 E0.005
G1 X113.349 Y108.626 E0.004
G1 X113.192 Y108.669 E0.004
G1 X113.04 Y108.739 E0.004
G1 X112.904 Y108.834 E0.004
G1 X112.776 Y108.959 E0.005
G1 X112.654 Y109.149 E0.005
G1 X112.574 Y109.388 E0.007
G1 X112.558 Y109.573 E0.004
G1 X112.572 Y109.74 E0.004
G1 X112.615 Y109.9 E0.005
G1 X112.685 Y110.05 E0.004
G1 X112.783 Y110.192 E0.004
G1 X112.912 Y110.319 E0.005
G1 X113.096 Y110.437 E0.005
G1 X113.331 Y110.517 E0.006
G1 X113.52 Y110.536 E0.005
G1 X113.691 Y110.519 E0.004
G1 X113.845 Y110.477 E0.004
G1 X113.999 Y110.407 E0.004
G1 X114.139 Y110.309 E0.005
G1 X114.258 Y110.19 E0.004
G1 X114.352 Y110.053 E0.004
G1 X114.424 Y109.904 E0.004
G1 X114.468 Y109.74 E0.004
G1 X114.482 Y109.573 E0.005
G1 X114.468 Y109.406 E0.004
G1 X114.424 Y109.243 E0.004
G1 X114.352 Y109.09 E0.004
G1 X114.256 Y108.953 E0.004
G1 F2700 E-7
;rapid-dry
G0 X125.331 Y99.658 F7200
G1 F2700 E7
;bead-perimeter_outer
G1 X125.147 F1800 E0.005
G1 X125.048 Y99.685 E0.002
G1 X124.905 Y99.769 E0.005
G1 X124.833 Y99.839 E0.002
G1 X124.739 Y100.005 E0.005
G1 X124.712 Y100.122 E0.003
G1 X124.715 Y100.268 E0.003
G1 X124.743 Y100.371 E0.003
G1 X124.83 Y100.525 E0.005
G1 X124.965 Y100.637 E0.004
G1 X125.065 Y100.685 E0.003
G1 X125.239 Y100.714 E0.004
G1 X125.421 Y100.683 E0.005
G1 X125.573 Y100.594 E0.004
G1 X125.649 Y100.521 E0.003
G1 X125.715 Y100.416 E0.003
G1 X125.761 Y100.281 E0.003
G1 X125.77 Y100.181 E0.003
G1 X125.762 Y100.089 E0.002
G1 X125.699 Y99.916 E0.005
G1 X125.64 Y99.832 E0.002
G1 X125.513 Y99.726 E0.004
G1 X125.422 Y99.683 E0.003
G1 X125.331 Y99.658 E0.002
G1 F2700 E-7
;rapid-dry
G0 X125.42 Y99.421 F7200
G1 F2700 E7
;bead-perimeter_outer
G1 X125.58 Y99.329 F1800 E0.005
G1 X125.649 Y99.26 E0.002
G1 X125.714 Y99.157 E0.003
G1 X125.761 Y99.021 E0.004
G1 X125.762 Y98.829 E0.005
G1 X125.699 Y98.657 E0.004
G1 X125.646 Y98.581 E0.003
G1 X125.577 Y98.512 E0.002
G1 X125.474 Y98.447 E0.003
G1 X125.338 Y98.4 E0.004
G1 X125.239 Y98.391 E0.002
G1 X125.058 Y98.423 E0.005
G1 X124.898 Y98.515 E0.004
G1 X124.829 Y98.584 E0.003
G1 X124.764 Y98.686 E0.003
G1 X124.717 Y98.822 E0.003
G1 X124.708 Y98.922 E0.003
G1 X124.716 Y99.014 E0.002
G1 X124.779 Y99.187 E0.005
G1 X124.901 Y99.332 E0.005
G1 X125.004 Y99.397 E0.003
G1 X125.14 Y99.444 E0.003
G1 X125.239 Y99.453 E0.003
G1 X125.42 Y99.421 E0.004
;rapid-leaky
G0 X125.866 Y99.552 F7200
;bead-perimeter_inner
G1 X125.931 Y99.487 F2400 E0.003
G1 X126.041 Y99.315 E0.005
G1 X126.116 Y99.095 E0.005
G1 X126.131 Y98.922 E0.005
G1 X126.118 Y98.765 E0.004
G1 X126.077 Y98.617 E0.004
G1 X126.012 Y98.477 E0.003
G1 X125.922 Y98.348 E0.004
G1 X125.804 Y98.23 E0.004
G1 X125.632 Y98.12 E0.006
G1 X125.412 Y98.045 E0.005
G1 X125.239 Y98.03 E0.005
G1 X125.084 Y98.043 E0.004
G1 X124.935 Y98.083 E0.003
G1 X124.794 Y98.149 E0.004
G1 X124.665 Y98.239 E0.004
G1 X124.547 Y98.357 E0.004
G1 X124.437 Y98.528 E0.005
G1 X124.362 Y98.747 E0.006
G1 X124.347 Y98.922 E0.005
G1 X124.36 Y99.077 E0.003
G1 X124.4 Y99.226 E0.004
G1 X124.466 Y99.368 E0.004
G1 X124.612 Y99.552 E0.006
G1 X124.465 Y99.737 E0.006
G1 X124.396 Y99.889 E0.004
G1 X124.351 Y100.085 E0.005
G1 X124.356 Y100.32 E0.006
G1 X124.407 Y100.51 E0.005
G1 X124.55 Y100.76 E0.007
G1 X124.769 Y100.942 E0.007
G1 X124.955 Y101.031 E0.005
G1 X125.239 Y101.079 E0.008
G1 X125.546 Y101.027 E0.007
G1 X125.793 Y100.883 E0.007
G1 X125.93 Y100.749 E0.005
G1 X126.041 Y100.573 E0.005
G1 X126.116 Y100.356 E0.006
G1 X126.131 Y100.181 E0.005
G1 X126.117 Y100.025 E0.003
G1 X126.078 Y99.879 E0.004
G1 X126.013 Y99.737 E0.004
G1 X125.907 Y99.586 E0.005
G1 X125.866 Y99.552 E0.001
G1 F2700 E-7
;rapid-dry
G0 X129.812 Y96.469 F7200
G1 F2700 E7
;bead-perimeter_outer
G1 Y123.691 F1800 E0.679
G1 X133.014 Y126.893 E0.113
G1 Y130.325 E0.086
G1 X133.008 Y130.396 E0.001
G1 X132.965 Y130.512 E0.004
G1 X132.887 Y130.606 E0.003
G1 X132.821 Y130.65 E0.002
G1 X132.716 Y130.687 E0.002
G1 X132.656 Y130.692 E0.002
G1 X132.532 Y130.671 E0.003
G1 X132.423 Y130.608 E0.003
G1 X132.343 Y130.513 E0.003
G1 X132.3 Y130.397 E0.003
G1 X132.279 Y130.039 E0.009
G1 X132.22 Y129.747 E0.008
G1 X132.119 Y129.467 E0.007
G1 X131.977 Y129.205 E0.008
G1 X131.798 Y128.966 E0.007
G1 X131.585 Y128.757 E0.007
G1 X131.344 Y128.582 E0.008
G1 X131.079 Y128.444 E0.007
G1 X130.797 Y128.347 E0.008
G1 X130.503 Y128.294 E0.007
G1 X130.146 Y128.29 E0.009
G1 X129.909 Y128.318 E0.006
G1 X129.621 Y128.396 E0.008
G1 X129.348 Y128.516 E0.007
G1 X129.096 Y128.675 E0.007
G1 X128.869 Y128.869 E0.008
G1 X128.675 Y129.096 E0.007
G1 X128.516 Y129.348 E0.008
G1 X128.396 Y129.621 E0.007
G1 X128.318 Y129.909 E0.008
G1 X128.284 Y130.204 E0.007
G1 X128.293 Y130.503 E0.007
G1 X128.347 Y130.797 E0.008
G1 X128.444 Y131.079 E0.007
G1 X128.581 Y131.343 E0.008
G1 X128.757 Y131.585 E0.007
G1 X128.966 Y131.798 E0.008
G1 X129.205 Y131.977 E0.007
