;1001
;Printer name: Creality Ender 3 V2
;TIME:4204
;Print time: 1h:10m:4s
;Extruder 1 material used: 3045mm
;Extruder 1 material name: 
;Extruder 1 filament diameter: 1.75mm
;Extruder 1 nozzle diameter: 0.4mm
;Extruder 1 offset x: 0mm
;Extruder 1 offset y: 0mm
;Extruder 1 offset z: 0mm
;Extruder 1 max temp: 200
;Bed temp: 70
;Layer count: 45
;Width: 220mm
;Depth: 220mm
;Height: 250mm
;Center x: 110mm
;Center y: 110mm
;Center z: 0mm
;Count of bodies: 2
;Fusion version: 2.0.19440
G21
;--------------------------------
;Selected Profile: PLA Bowden Tube
;--------------------------------
;Selected Printer: Creality, Ender 3 V2
;--------------------------------
T0
M140 S70
M104 S200 T0
M105
M190 S70
M105
M109 S200 T0
G0 F7200
G90
M83
;Reset multiplier
M220 S100
M221 S100
G28
G1 Z10 F236
G92 E0
G0 X10 Y10 Z10 F7200
G92 E0
;--------------------------------
;Part 1
;LAYER_COUNT:45
;LAYER:1
M107
;rapid-leaky
G0 X20 Y20.5 Z0.2 F7200
;bead-prime
G1 X120 F720 E8.315
G1 F2700 E-7
;rapid-dry
G0 X147.65 Y80.8 F7200
G1 F2700 E7
;bead-skirt/brim
G1 Y108.8 F960 E0.931
G1 X72.35 E2.505
G1 Y80.8 E0.931
G1 X147.65 E2.505
;rapid-leaky
G0 X147.25 Y81.2 F7200
;bead-skirt/brim
G1 Y108.4 F960 E0.904
G1 X72.75 E2.478
G1 Y81.2 E0.905
G1 X147.25 E2.478
;rapid-leaky
G0 X146.85 Y81.6 F7200
;bead-skirt/brim
G1 Y108 F960 E0.878
G1 X73.15 E2.451
G1 Y81.6 E0.878
G1 X146.85 E2.451
;rapid-leaky
G0 X146.45 Y82 F7200
;bead-skirt/brim
G1 Y107.6 F960 E0.852
G1 X73.55 E2.424
G1 Y82 E0.852
G1 X146.45 E2.425
;rapid-leaky
G0 X146.05 Y82.4 F7200
;bead-skirt/brim
G1 Y107.2 F960 E0.824
G1 X73.95 E2.399
G1 Y82.4 E0.824
G1 X146.05 E2.398
;rapid-leaky
G0 X145.65 Y82.8 F7200
;bead-skirt/brim
G1 Y106.8 F960 E0.799
G1 X74.35 E2.371
G1 Y82.8 E0.798
G1 X145.65 E2.372
;rapid-leaky
G0 X145.25 Y83.2 F7200
;bead-skirt/brim
G1 Y106.4 F960 E0.771
G1 X74.75 E2.345
G1 Y83.2 E0.772
G1 X145.25 E2.345
;rapid-leaky
G0 X144.85 Y83.6 F7200
;bead-skirt/brim
G1 Y106 F960 E0.745
G1 X75.15 E2.318
G1 Y83.6 E0.745
G1 X144.85 E2.318
;rapid-leaky
G0 X144.45 Y84 F7200
;bead-skirt/brim
G1 Y105.6 F960 E0.719
G1 X75.55 E2.291
G1 Y84 E0.719
G1 X144.45 E2.291
;rapid-leaky
G0 X144.05 Y84.4 F7200
;bead-skirt/brim
G1 Y105.2 F960 E0.692
G1 X75.95 E2.265
G1 Y84.4 E0.692
G1 X144.05 E2.265
;rapid-leaky
G0 X147.65 Y111.2 F7200
;bead-skirt/brim
G1 Y139.2 F960 E0.931
G1 X72.35 E2.505
G1 Y111.2 E0.931
G1 X147.65 E2.505
;rapid-leaky
G0 X147.25 Y111.6 F7200
;bead-skirt/brim
G1 Y138.8 F960 E0.904
G1 X72.75 E2.478
G1 Y111.6 E0.905
G1 X147.25 E2.478
;rapid-leaky
G0 X146.85 Y112 F7200
;bead-skirt/brim
G1 Y138.4 F960 E0.878
G1 X73.15 E2.451
G1 Y112 E0.878
G1 X146.85 E2.451
;rapid-leaky
G0 X146.45 Y112.4 F7200
;bead-skirt/brim
G1 Y138 F960 E0.852
G1 X73.55 E2.424
G1 Y112.4 E0.852
G1 X146.45 E2.425
;rapid-leaky
G0 X146.05 Y112.8 F7200
;bead-skirt/brim
G1 Y137.6 F960 E0.824
G1 X73.95 E2.399
G1 Y112.8 E0.824
G1 X146.05 E2.398
;rapid-leaky
G0 X145.65 Y113.2 F7200
;bead-skirt/brim
G1 Y137.2 F960 E0.799
G1 X74.35 E2.371
G1 Y113.2 E0.798
G1 X145.65 E2.372
;rapid-leaky
G0 X145.25 Y113.6 F7200
;bead-skirt/brim
G1 Y136.8 F960 E0.771
G1 X74.75 E2.345
G1 Y113.6 E0.772
G1 X145.25 E2.345
;rapid-leaky
G0 X144.85 Y114 F7200
;bead-skirt/brim
G1 Y136.4 F960 E0.745
G1 X75.15 E2.318
G1 Y114 E0.745
G1 X144.85 E2.318
;rapid-leaky
G0 X144.45 Y114.4 F7200
;bead-skirt/brim
G1 Y136 F960 E0.719
G1 X75.55 E2.291
G1 Y114.4 E0.719
G1 X144.45 E2.291
;rapid-leaky
G0 X144.05 Y114.8 F7200
;bead-skirt/brim
G1 Y135.6 F960 E0.692
G1 X75.95 E2.265
G1 Y114.8 E0.692
G1 X144.05 E2.265
G1 F2700 E-7
;rapid-dry
G0 X110.4 Y94.8 F7200
G1 F2700 E7
;bead-perimeter_outer
G1 X110.421 Y95.207 F720 E0.014
G1 X110.483 Y95.608 E0.013
G1 X110.587 Y96.001 E0.014
G1 X110.73 Y96.382 E0.013
G1 X110.912 Y96.746 E0.014
G1 X111.131 Y97.089 E0.013
G1 X111.383 Y97.408 E0.014
G1 X111.667 Y97.699 E0.013
G1 X111.979 Y97.959 E0.014
G1 X112.317 Y98.187 E0.013
G1 X112.675 Y98.377 E0.014
G1 X113.052 Y98.531 E0.013
G1 X113.443 Y98.645 E0.014
G1 X113.842 Y98.718 E0.013
G1 X114.249 Y98.749 E0.014
G1 X114.713 Y98.732 E0.015
G1 X115.058 Y98.686 E0.012
G1 X115.454 Y98.593 E0.013
G1 X115.839 Y98.459 E0.014
G1 X116.206 Y98.287 E0.014
G1 X116.555 Y98.077 E0.013
G1 X116.88 Y97.834 E0.014
G1 X117.18 Y97.557 E0.013
G1 X117.447 Y97.251 E0.014
G1 X117.683 Y96.921 E0.013
G1 X117.883 Y96.567 E0.014
G1 X118.046 Y96.194 E0.013
G1 X118.17 Y95.806 E0.014
G1 X118.253 Y95.408 E0.013
G1 X118.295 Y95.003 E0.014
G1 Y94.597 E0.013
G1 X118.253 Y94.192 E0.014
G1 X118.17 Y93.794 E0.013
G1 X118.046 Y93.406 E0.014
G1 X117.883 Y93.033 E0.013
G1 X117.683 Y92.679 E0.014
G1 X117.447 Y92.349 E0.013
G1 X117.18 Y92.043 E0.014
G1 X116.88 Y91.766 E0.014
G1 X116.555 Y91.523 E0.013
G1 X116.206 Y91.313 E0.014
G1 X115.839 Y91.141 E0.013
G1 X115.454 Y91.007 E0.014
G1 X115.058 Y90.914 E0.013
G1 X114.655 Y90.861 E0.014
G1 X114.248 Y90.851 E0.013
G1 X113.842 Y90.882 E0.014
G1 X113.443 Y90.955 E0.013
G1 X113.052 Y91.069 E0.014
G1 X112.675 Y91.223 E0.013
G1 X112.317 Y91.413 E0.014
G1 X111.979 Y91.641 E0.013
G1 X111.667 Y91.901 E0.014
G1 X111.383 Y92.192 E0.013
G1 X111.131 Y92.511 E0.014
G1 X110.912 Y92.854 E0.014
G1 X110.73 Y93.218 E0.013
G1 X110.587 Y93.599 E0.014
G1 X110.483 Y93.992 E0.013
G1 X110.421 Y94.393 E0.014
G1 X110.4 Y94.8 E0.013
;rapid-leaky
G0 X110.039 F7200
;bead-perimeter_inner
G1 X110.062 Y95.243 F960 E0.015
G1 X110.13 Y95.682 E0.015
G1 X110.244 Y96.111 E0.014
G1 X110.4 Y96.526 E0.015
G1 X110.598 Y96.923 E0.015
G1 X110.837 Y97.298 E0.015
G1 X111.112 Y97.646 E0.014
G1 X111.422 Y97.964 E0.015
G1 X111.762 Y98.247 E0.015
G1 X112.131 Y98.496 E0.015
G1 X112.522 Y98.704 E0.015
G1 X112.934 Y98.872 E0.014
G1 X113.36 Y98.996 E0.015
G1 X113.796 Y99.075 E0.015
G1 X114.242 Y99.11 E0.015
G1 X114.743 Y99.091 E0.016
G1 X115.123 Y99.041 E0.013
G1 X115.554 Y98.94 E0.015
G1 X115.975 Y98.793 E0.015
G1 X116.376 Y98.605 E0.014
G1 X116.756 Y98.376 E0.015
G1 X117.111 Y98.111 E0.015
G1 X117.438 Y97.808 E0.015
G1 X117.73 Y97.475 E0.014
G1 X117.987 Y97.114 E0.015
G1 X118.206 Y96.728 E0.015
G1 X118.384 Y96.321 E0.015
G1 X118.518 Y95.897 E0.014
G1 X118.609 Y95.464 E0.015
G1 X118.655 Y95.022 E0.015
G1 Y94.578 E0.015
G1 X118.609 Y94.136 E0.015
G1 X118.518 Y93.703 E0.014
G1 X118.384 Y93.279 E0.015
G1 X118.206 Y92.872 E0.015
G1 X117.987 Y92.486 E0.015
G1 X117.73 Y92.125 E0.014
G1 X117.438 Y91.792 E0.015
G1 X117.111 Y91.489 E0.015
G1 X116.756 Y91.224 E0.015
G1 X116.376 Y90.995 E0.014
G1 X115.975 Y90.807 E0.015
G1 X115.554 Y90.66 E0.015
G1 X115.122 Y90.559 E0.015
G1 X114.683 Y90.502 E0.014
G1 X114.238 Y90.49 E0.015
G1 X113.796 Y90.525 E0.015
G1 X113.36 Y90.604 E0.015
G1 X112.934 Y90.728 E0.014
G1 X112.522 Y90.896 E0.015
G1 X112.131 Y91.104 E0.015
G1 X111.762 Y91.353 E0.015
G1 X111.422 Y91.636 E0.014
G1 X111.112 Y91.954 E0.015
G1 X110.837 Y92.302 E0.015
G1 X110.598 Y92.677 E0.015
G1 X110.4 Y93.074 E0.015
G1 X110.244 Y93.489 E0.014
G1 X110.13 Y93.918 E0.015
G1 X110.062 Y94.356 E0.015
G1 X110.039 Y94.8 E0.015
G1 F2700 E-7
;rapid-dry
G0 X92.668 Y94.799 F7200
G1 F2700 E7
;bead-perimeter_outer
G1 X92.65 Y95.075 F720 E0.009
G1 X92.67 Y95.381 E0.01
G1 X92.734 Y95.681 E0.01
G1 X92.84 Y95.97 E0.01
G1 X92.984 Y96.241 E0.011
G1 X93.165 Y96.49 E0.01
G1 X93.378 Y96.71 E0.01
G1 X93.62 Y96.899 E0.01
G1 X93.885 Y97.053 E0.011
G1 X94.17 Y97.168 E0.01
G1 X94.468 Y97.242 E0.01
G1 X94.773 Y97.274 E0.01
G1 X95.08 Y97.263 E0.01
G1 X95.383 Y97.211 E0.011
G1 X95.675 Y97.114 E0.01
G1 X95.974 Y96.965 E0.011
G1 X96.205 Y96.809 E0.009
G1 X96.433 Y96.603 E0.01
G1 X96.63 Y96.369 E0.011
G1 X96.794 Y96.107 E0.01
G1 X96.926 Y95.799 E0.011
G1 X97.002 Y95.533 E0.009
G1 X97.045 Y95.229 E0.01
G1 Y94.921 E0.011
G1 X97.002 Y94.617 E0.01
G1 X96.917 Y94.323 E0.01
G1 X96.793 Y94.042 E0.01
G1 X96.63 Y93.78 E0.011
G1 X96.411 Y93.527 E0.011
G1 X96.204 Y93.341 E0.009
G1 X95.95 Y93.169 E0.01
G1 X95.674 Y93.035 E0.01
G1 X95.383 Y92.939 E0.011
G1 X95.08 Y92.887 E0.01
G1 X94.773 Y92.876 E0.01
G1 X94.468 Y92.908 E0.01
G1 X94.17 Y92.982 E0.01
G1 X93.885 Y93.097 E0.011
G1 X93.62 Y93.251 E0.01
G1 X93.377 Y93.441 E0.01
G1 X93.148 Y93.683 E0.011
G1 X92.984 Y93.909 E0.009
G1 X92.84 Y94.18 E0.011
G1 X92.734 Y94.47 E0.01
G1 X92.668 Y94.799 E0.011
;rapid-leaky
G0 X92.311 Y94.751 F7200
;bead-perimeter_inner
G1 X92.289 Y95.075 F960 E0.011
G1 X92.313 Y95.431 E0.012
G1 X92.388 Y95.781 E0.012
G1 X92.51 Y96.117 E0.012
G1 X92.678 Y96.432 E0.011
G1 X92.888 Y96.722 E0.012
G1 X93.137 Y96.979 E0.012
G1 X93.417 Y97.198 E0.012
G1 X93.727 Y97.378 E0.012
G1 X94.059 Y97.511 E0.012
G1 X94.405 Y97.598 E0.012
G1 X94.761 Y97.635 E0.012
G1 X95.117 Y97.622 E0.011
G1 X95.47 Y97.561 E0.012
G1 X95.813 Y97.448 E0.012
G1 X96.157 Y97.276 E0.013
G1 X96.427 Y97.093 E0.011
G1 X96.693 Y96.854 E0.012
G1 X96.922 Y96.581 E0.012
G1 X97.114 Y96.274 E0.012
G1 X97.266 Y95.92 E0.013
G1 X97.355 Y95.608 E0.01
G1 X97.405 Y95.254 E0.012
G1 Y94.896 E0.012
G1 X97.355 Y94.542 E0.012
G1 X97.257 Y94.199 E0.012
G1 X97.112 Y93.873 E0.012
G1 X96.92 Y93.566 E0.012
G1 X96.669 Y93.274 E0.013
G1 X96.426 Y93.057 E0.011
G1 X96.131 Y92.857 E0.011
G1 X95.81 Y92.701 E0.012
G1 X95.47 Y92.589 E0.012
G1 X95.117 Y92.528 E0.012
G1 X94.761 Y92.515 E0.012
G1 X94.405 Y92.552 E0.012
G1 X94.059 Y92.639 E0.012
G1 X93.727 Y92.772 E0.012
G1 X93.417 Y92.952 E0.011
G1 X93.134 Y93.174 E0.012
G1 X92.87 Y93.453 E0.013
G1 X92.678 Y93.718 E0.011
G1 X92.51 Y94.033 E0.012
G1 X92.386 Y94.372 E0.012
G1 X92.311 Y94.751 E0.013
G1 F2700 E-7
;rapid-dry
G0 X76.35 Y84.8 F7200
G1 F2700 E7
;bead-perimeter_outer
G1 X143.65 F720 E2.238
G1 Y104.8 E0.665
G1 X76.35 E2.239
G1 Y84.8 E0.665
;rapid-leaky
G0 X76.71 Y85.16 F7200
;bead-perimeter_inner
G1 X143.29 F960 E2.215
G1 Y104.44 E0.641
G1 X76.71 E2.214
G1 Y85.16 E0.642
G1 F2700 E-7
;rapid-dry
G0 X76.35 Y115.2 F7200
G1 F2700 E7
;bead-perimeter_outer
G1 X143.65 F720 E2.238
G1 Y135.2 E0.665
G1 X76.35 E2.239
G1 Y115.2 E0.665
;rapid-leaky
G0 X76.71 Y115.56 F7200
;bead-perimeter_inner
G1 X143.29 F960 E2.214
G1 Y134.84 E0.641
G1 X76.71 E2.215
G1 Y115.56 E0.641
;rapid-leaky
G0 X77.412 Y115.88 F7200
;bead-solid_infill
G1 X77.03 Y116.262 F720 E0.018
G1 Y116.827 E0.019
G1 X77.977 Y115.88 E0.044
G1 X78.543 E0.019
G1 X77.03 Y117.393 E0.071
G1 Y117.959 E0.019
G1 X79.109 Y115.88 E0.098
G1 X79.674 E0.019
G1 X77.03 Y118.524 E0.124
G1 Y119.09 E0.019
G1 X80.24 Y115.88 E0.151
G1 X80.806 E0.019
G1 X77.03 Y119.656 E0.177
G1 Y120.221 E0.019
G1 X81.371 Y115.88 E0.204
G1 X81.937 E0.019
G1 X77.03 Y120.787 E0.231
G1 Y121.353 E0.019
G1 X82.503 Y115.88 E0.257
G1 X83.068 E0.019
G1 X77.03 Y121.918 E0.284
G1 Y122.484 E0.019
G1 X83.634 Y115.88 E0.311
G1 X84.2 E0.018
G1 X77.03 Y123.05 E0.338
G1 Y123.616 E0.019
G1 X84.766 Y115.88 E0.363
G1 X85.331 E0.019
G1 X77.03 Y124.181 E0.391
G1 Y124.747 E0.018
G1 X85.897 Y115.88 E0.418
G1 X86.463 E0.018
G1 X77.03 Y125.313 E0.444
G1 Y125.878 E0.019
G1 X87.028 Y115.88 E0.47
G1 X87.594 E0.019
G1 X77.03 Y126.444 E0.497
G1 Y127.01 E0.019
G1 X88.16 Y115.88 E0.523
G1 X88.725 E0.019
G1 X77.03 Y127.575 E0.55
G1 Y128.141 E0.019
G1 X89.291 Y115.88 E0.577
G1 X89.857 E0.018
G1 X77.03 Y128.707 E0.604
G1 Y129.272 E0.019
G1 X90.422 Y115.88 E0.63
G1 X90.988 E0.018
G1 X77.03 Y129.838 E0.657
G1 Y130.404 E0.019
G1 X91.554 Y115.88 E0.683
G1 X92.119 E0.019
G1 X77.03 Y130.969 E0.709
G1 Y131.535 E0.019
G1 X92.685 Y115.88 E0.737
G1 X93.251 E0.018
G1 X77.03 Y132.101 E0.763
G1 Y132.666 E0.019
G1 X93.816 Y115.88 E0.79
G1 X94.382 E0.019
G1 X77.03 Y133.232 E0.816
G1 Y133.798 E0.019
G1 X94.948 Y115.88 E0.842
G1 X95.514 E0.019
G1 X77.03 Y134.364 E0.87
G1 Y134.52 E0.005
G1 X77.439 E0.013
G1 X96.079 Y115.88 E0.877
G1 X96.645 E0.019
G1 X78.005 Y134.52 E0.877
G1 X78.571 E0.019
G1 X97.211 Y115.88 E0.876
G1 X97.776 E0.019
G1 X79.136 Y134.52 E0.877
G1 X79.702 E0.019
G1 X98.342 Y115.88 E0.877
G1 X98.908 E0.018
G1 X80.268 Y134.52 E0.877
G1 X80.833 E0.019
G1 X99.473 Y115.88 E0.877
G1 X100.039 E0.019
G1 X81.399 Y134.52 E0.876
G1 X81.965 E0.019
G1 X100.605 Y115.88 E0.877
G1 X101.17 E0.019
G1 X82.53 Y134.52 E0.876
G1 X83.096 E0.019
G1 X101.736 Y115.88 E0.877
G1 X102.302 E0.019
G1 X83.662 Y134.52 E0.877
G1 X84.227 E0.018
G1 X102.867 Y115.88 E0.877
G1 X103.433 E0.019
G1 X84.793 Y134.52 E0.877
G1 X85.359 E0.019
G1 X103.999 Y115.88 E0.876
G1 X104.565 E0.019
G1 X85.925 Y134.52 E0.877
G1 X86.49 E0.019
G1 X105.13 Y115.88 E0.877
G1 X105.696 E0.018
G1 X87.056 Y134.52 E0.877
G1 X87.622 E0.019
G1 X106.262 Y115.88 E0.877
G1 X106.827 E0.019
G1 X88.187 Y134.52 E0.876
G1 X88.753 E0.019
G1 X107.393 Y115.88 E0.877
G1 X107.959 E0.019
G1 X89.319 Y134.52 E0.876
G1 X89.884 E0.019
G1 X108.524 Y115.88 E0.877
G1 X109.09 E0.019
G1 X90.45 Y134.52 E0.877
G1 X91.016 E0.018
G1 X109.656 Y115.88 E0.877
G1 X110.221 E0.019
G1 X91.581 Y134.52 E0.877
G1 X92.147 E0.019
G1 X110.787 Y115.88 E0.876
G1 X111.353 E0.019
G1 X92.713 Y134.52 E0.877
G1 X93.278 E0.019
G1 X111.918 Y115.88 E0.877
G1 X112.484 E0.018
G1 X93.844 Y134.52 E0.877
G1 X94.41 E0.019
G1 X113.05 Y115.88 E0.877
G1 X113.615 E0.019
G1 X94.975 Y134.52 E0.876
G1 X95.541 E0.019
G1 X114.181 Y115.88 E0.877
G1 X114.747 E0.019
G1 X96.107 Y134.52 E0.876
G1 X96.673 E0.019
G1 X115.313 Y115.88 E0.877
G1 X115.878 E0.019
G1 X97.238 Y134.52 E0.877
G1 X97.804 E0.018
G1 X116.444 Y115.88 E0.877
G1 X117.01 E0.019
G1 X98.37 Y134.52 E0.877
G1 X98.935 E0.019
G1 X117.575 Y115.88 E0.876
G1 X118.141 E0.019
G1 X99.501 Y134.52 E0.877
G1 X100.067 E0.019
G1 X118.707 Y115.88 E0.877
G1 X119.272 E0.018
G1 X100.632 Y134.52 E0.877
G1 X101.198 E0.019
G1 X119.838 Y115.88 E0.877
G1 X120.404 E0.019
G1 X101.764 Y134.52 E0.876
G1 X102.329 E0.019
G1 X120.969 Y115.88 E0.877
G1 X121.535 E0.019
G1 X102.895 Y134.52 E0.876
G1 X103.461 E0.019
G1 X122.101 Y115.88 E0.877
G1 X122.666 E0.019
G1 X104.026 Y134.52 E0.877
G1 X104.592 E0.018
G1 X123.232 Y115.88 E0.877
G1 X123.798 E0.019
G1 X105.158 Y134.52 E0.877
G1 X105.723 E0.019
G1 X124.363 Y115.88 E0.876
G1 X124.929 E0.019
G1 X106.289 Y134.52 E0.877
G1 X106.855 E0.019
G1 X125.495 Y115.88 E0.877
G1 X126.061 E0.018
G1 X107.421 Y134.52 E0.877
G1 X107.986 E0.019
G1 X126.626 Y115.88 E0.877
G1 X127.192 E0.019
G1 X108.552 Y134.52 E0.876
G1 X109.118 E0.019
G1 X127.758 Y115.88 E0.877
G1 X128.323 E0.019
G1 X109.683 Y134.52 E0.876
G1 X110.249 E0.019
G1 X128.889 Y115.88 E0.877
G1 X129.455 E0.019
G1 X110.815 Y134.52 E0.877
G1 X111.38 E0.018
G1 X130.02 Y115.88 E0.877
G1 X130.586 E0.019
G1 X111.946 Y134.52 E0.877
G1 X112.512 E0.019
G1 X131.152 Y115.88 E0.876
G1 X131.717 E0.019
G1 X113.077 Y134.52 E0.877
G1 X113.643 E0.019
G1 X132.283 Y115.88 E0.877
G1 X132.849 E0.018
G1 X114.209 Y134.52 E0.877
G1 X114.774 E0.019
G1 X133.414 Y115.88 E0.877
G1 X133.98 E0.019
G1 X115.34 Y134.52 E0.876
G1 X115.906 E0.019
G1 X134.546 Y115.88 E0.877
G1 X135.112 E0.019
G1 X116.472 Y134.52 E0.876
G1 X117.037 E0.019
G1 X135.677 Y115.88 E0.877
G1 X136.243 E0.019
G1 X117.603 Y134.52 E0.877
G1 X118.169 E0.018
G1 X136.809 Y115.88 E0.877
G1 X137.374 E0.019
G1 X118.734 Y134.52 E0.877
G1 X119.3 E0.019
G1 X137.94 Y115.88 E0.876
G1 X138.506 E0.019
G1 X119.866 Y134.52 E0.877
G1 X120.431 E0.019
G1 X139.071 Y115.88 E0.877
G1 X139.637 E0.018
G1 X120.997 Y134.52 E0.877
G1 X121.563 E0.019
G1 X140.203 Y115.88 E0.877
G1 X140.768 E0.019
G1 X122.128 Y134.52 E0.876
G1 X122.694 E0.019
G1 X141.334 Y115.88 E0.877
G1 X141.9 E0.019
G1 X123.26 Y134.52 E0.876
G1 X123.825 E0.019
G1 X142.465 Y115.88 E0.877
G1 X142.97 E0.017
G1 Y115.941 E0.002
G1 X124.391 Y134.52 E0.874
G1 X124.957 E0.019
G1 X142.97 Y116.507 E0.847
G1 Y117.072 E0.019
G1 X125.522 Y134.52 E0.82
G1 X126.088 E0.019
G1 X142.97 Y117.638 E0.794
G1 Y118.204 E0.019
G1 X126.654 Y134.52 E0.768
G1 X127.22 E0.018
G1 X142.97 Y118.77 E0.741
G1 Y119.335 E0.019
G1 X127.785 Y134.52 E0.714
G1 X128.351 E0.019
G1 X142.97 Y119.901 E0.688
G1 Y120.467 E0.019
G1 X128.917 Y134.52 E0.661
G1 X129.482 E0.018
G1 X142.97 Y121.032 E0.635
G1 Y121.598 E0.019
G1 X130.048 Y134.52 E0.607
G1 X130.614 E0.019
G1 X142.97 Y122.164 E0.581
G1 Y122.729 E0.019
G1 X131.179 Y134.52 E0.555
G1 X131.745 E0.019
G1 X142.97 Y123.295 E0.528
G1 Y123.861 E0.018
G1 X132.311 Y134.52 E0.502
G1 X132.876 E0.019
G1 X142.97 Y124.426 E0.474
G1 Y124.992 E0.019
G1 X133.442 Y134.52 E0.448
G1 X134.008 E0.019
G1 X142.97 Y125.558 E0.422
G1 Y126.123 E0.019
G1 X134.573 Y134.52 E0.395
G1 X135.139 E0.018
G1 X142.97 Y126.689 E0.369
G1 Y127.255 E0.019
G1 X135.705 Y134.52 E0.341
G1 X136.271 E0.019
G1 X142.97 Y127.821 E0.315
G1 Y128.386 E0.019
G1 X136.836 Y134.52 E0.289
G1 X137.402 E0.018
G1 X142.97 Y128.952 E0.262
G1 Y129.518 E0.019
G1 X137.968 Y134.52 E0.235
G1 X138.533 E0.019
G1 X142.97 Y130.083 E0.209
G1 Y130.649 E0.019
G1 X139.099 Y134.52 E0.182
G1 X139.665 E0.019
G1 X142.97 Y131.215 E0.155
G1 Y131.78 E0.019
G1 X140.23 Y134.52 E0.129
G1 X140.796 E0.019
G1 X142.97 Y132.346 E0.102
G1 Y132.912 E0.019
G1 X141.362 Y134.52 E0.075
G1 X141.927 E0.019
G1 X142.97 Y133.477 E0.049
G1 Y134.043 E0.019
G1 X142.493 Y134.52 E0.022
G1 F2700 E-7
;rapid-dry
G0 X142.97 Y104.062 F7200
G1 F2700 E7
;bead-solid_infill
G1 X142.912 Y104.12 F720 E0.003
G1 X142.346 E0.019
G1 X142.97 Y103.496 E0.029
G1 Y102.93 E0.019
G1 X141.78 Y104.12 E0.056
G1 X141.215 E0.019
G1 X142.97 Y102.365 E0.082
G1 Y101.799 E0.019
G1 X140.649 Y104.12 E0.109
G1 X140.083 E0.019
G1 X142.97 Y101.233 E0.136
G1 Y100.668 E0.019
G1 X139.518 Y104.12 E0.162
G1 X138.952 E0.019
G1 X142.97 Y100.102 E0.189
G1 Y99.536 E0.019
G1 X138.386 Y104.12 E0.215
G1 X137.821 E0.019
G1 X142.97 Y98.971 E0.242
G1 Y98.405 E0.019
G1 X137.255 Y104.12 E0.269
G1 X136.689 E0.019
G1 X142.97 Y97.839 E0.295
G1 Y97.273 E0.019
G1 X136.123 Y104.12 E0.322
G1 X135.558 E0.019
G1 X142.97 Y96.708 E0.349
G1 Y96.142 E0.018
G1 X134.992 Y104.12 E0.376
G1 X134.426 E0.019
G1 X142.97 Y95.576 E0.401
G1 Y95.011 E0.019
G1 X133.861 Y104.12 E0.429
G1 X133.295 E0.019
G1 X142.97 Y94.445 E0.455
G1 Y93.879 E0.018
G1 X132.729 Y104.12 E0.482
G1 X132.164 E0.019
G1 X142.97 Y93.314 E0.508
G1 Y92.748 E0.019
G1 X131.598 Y104.12 E0.535
G1 X131.032 E0.019
G1 X142.97 Y92.182 E0.561
G1 Y91.617 E0.019
G1 X130.467 Y104.12 E0.588
G1 X129.901 E0.019
G1 X142.97 Y91.051 E0.615
G1 Y90.485 E0.019
G1 X129.335 Y104.12 E0.641
G1 X128.77 E0.019
G1 X142.97 Y89.92 E0.668
G1 Y89.354 E0.018
G1 X128.204 Y104.12 E0.695
G1 X127.638 E0.019
G1 X142.97 Y88.788 E0.721
G1 Y88.223 E0.019
G1 X127.073 Y104.12 E0.748
G1 X126.507 E0.018
G1 X142.97 Y87.657 E0.775
G1 Y87.091 E0.019
G1 X125.941 Y104.12 E0.801
G1 X125.375 E0.018
G1 X142.97 Y86.525 E0.828
G1 Y85.96 E0.019
G1 X124.81 Y104.12 E0.854
G1 X124.244 E0.019
G1 X142.884 Y85.48 E0.877
G1 X142.318 E0.018
G1 X123.678 Y104.12 E0.877
G1 X123.113 E0.019
G1 X141.753 Y85.48 E0.877
G1 X141.187 E0.019
G1 X122.547 Y104.12 E0.876
G1 X121.981 E0.019
G1 X140.621 Y85.48 E0.877
G1 X140.056 E0.019
G1 X121.416 Y104.12 E0.876
G1 X120.85 E0.019
G1 X139.49 Y85.48 E0.877
G1 X138.924 E0.019
G1 X120.284 Y104.12 E0.877
G1 X119.719 E0.018
G1 X138.359 Y85.48 E0.877
G1 X137.793 E0.019
G1 X119.153 Y104.12 E0.877
G1 X118.587 E0.019
G1 X137.227 Y85.48 E0.876
G1 X136.662 E0.019
G1 X118.022 Y104.12 E0.877
G1 X117.456 E0.019
G1 X136.096 Y85.48 E0.877
G1 X135.53 E0.018
G1 X116.89 Y104.12 E0.877
G1 X116.325 E0.019
G1 X134.965 Y85.48 E0.877
G1 X134.399 E0.019
G1 X115.759 Y104.12 E0.876
G1 X115.193 E0.019
G1 X133.833 Y85.48 E0.877
G1 X133.267 E0.019
G1 X114.627 Y104.12 E0.876
G1 X114.062 E0.019
G1 X132.702 Y85.48 E0.877
G1 X132.136 E0.019
G1 X113.496 Y104.12 E0.877
G1 X112.93 E0.018
G1 X131.57 Y85.48 E0.877
G1 X131.005 E0.019
G1 X112.365 Y104.12 E0.877
G1 X111.799 E0.019
G1 X130.439 Y85.48 E0.876
G1 F2700 E-7
;rapid-dry
G0 X117.428 F7200
G1 F2700 E7
;bead-solid_infill
G1 X112.207 Y90.702 F720 E0.246
G1 X112.386 Y90.606 E0.007
G1 X112.828 Y90.426 E0.016
G1 X112.978 Y90.382 E0.005
G1 X113.138 Y90.336 E0.005
G1 X117.994 Y85.48 E0.229
G1 X118.56 E0.019
G1 X113.839 Y90.201 E0.222
G1 X114.23 Y90.17 E0.013
G1 X114.43 Y90.175 E0.006
G1 X119.125 Y85.48 E0.221
G1 X119.691 E0.019
G1 X114.956 Y90.215 E0.223
G1 X115.18 Y90.244 E0.007
G1 X115.433 Y90.303 E0.009
G1 X120.257 Y85.48 E0.227
G1 X120.822 E0.019
G1 X115.871 Y90.432 E0.233
G1 X116.096 Y90.51 E0.007
G1 X116.274 Y90.594 E0.007
G1 X121.388 Y85.48 E0.241
G1 X121.954 E0.018
G1 X116.648 Y90.786 E0.25
G1 X116.934 Y90.958 E0.011
G1 X116.996 Y91.004 E0.003
G1 X122.519 Y85.48 E0.259
G1 X123.085 E0.019
G1 X117.319 Y91.246 E0.271
G1 X117.613 Y91.518 E0.014
G1 X123.651 Y85.48 E0.284
G1 X124.216 E0.019
G1 X117.883 Y91.814 E0.297
G1 X117.981 Y91.926 E0.005
G1 X118.129 Y92.133 E0.009
G1 X124.782 Y85.48 E0.313
G1 X125.348 E0.019
G1 X118.35 Y92.478 E0.329
G1 X118.492 Y92.729 E0.009
G1 X118.545 Y92.849 E0.005
G1 X125.914 Y85.48 E0.346
G1 X126.479 E0.019
G1 X118.71 Y93.249 E0.366
G1 X118.828 Y93.621 E0.013
G1 X118.841 Y93.684 E0.002
G1 X127.045 Y85.48 E0.386
G1 X127.611 E0.018
G1 X118.933 Y94.158 E0.409
G1 X118.975 Y94.561 E0.013
G1 Y94.681 E0.004
G1 X128.176 Y85.48 E0.433
G1 X128.742 E0.019
G1 X118.951 Y95.271 E0.46
G1 X118.926 Y95.513 E0.008
G1 X118.887 Y95.696 E0.007
G1 X118.833 Y95.954 E0.008
G1 X129.308 Y85.48 E0.493
G1 X129.873 E0.019
G1 X118.5 Y96.854 E0.535
G1 X118.492 Y96.871
G1 X118.257 Y97.286 E0.016
G1 X117.981 Y97.674 E0.016
G1 X117.668 Y98.031 E0.016
G1 X117.316 Y98.357 E0.016
G1 X117.23 Y98.421 E0.003
G1 X116.934 Y98.642 E0.013
G1 X116.755 Y98.75 E0.007
G1 X116.527 Y98.887 E0.009
G1 X116.412 Y98.941 E0.004
G1 X111.233 Y104.12 E0.243
G1 X110.668 E0.019
G1 X115.509 Y99.279 E0.228
G1 X115.412 Y99.302 E0.003
G1 X115.18 Y99.356 E0.008
G1 X114.818 Y99.403 E0.012
G1 X110.102 Y104.12 E0.222
G1 X109.536 E0.019
G1 X114.227 Y99.43 E0.221
G1 X113.755 Y99.393 E0.015
G1 X113.707 Y99.384 E0.002
G1 X108.971 Y104.12 E0.223
G1 X108.405 E0.018
G1 X113.233 Y99.292 E0.228
G1 X112.828 Y99.174 E0.014
G1 X112.798 Y99.162 E0.001
G1 X107.839 Y104.12 E0.233
G1 X107.274 E0.019
G1 X112.396 Y98.998 E0.241
G1 X112.386 Y98.994
G1 X112.026 Y98.802 E0.014
G1 X106.708 Y104.12 E0.25
G1 X106.142 E0.019
G1 X111.683 Y98.58 E0.26
G1 X111.57 Y98.504 E0.005
G1 X111.364 Y98.332 E0.009
G1 X105.576 Y104.12 E0.272
G1 X105.011 E0.019
G1 X111.07 Y98.061 E0.285
G1 X110.871 Y97.858 E0.009
G1 X110.799 Y97.766 E0.004
G1 X104.445 Y104.12 E0.299
G1 X103.879 E0.019
G1 X110.553 Y97.447 E0.314
G1 X110.332 Y97.102 E0.013
G1 X103.314 Y104.12 E0.33
G1 X102.748 E0.019
G1 X110.142 Y96.726 E0.348
G1 X110.106 Y96.654 E0.003
G1 X109.981 Y96.321 E0.011
G1 X102.182 Y104.12 E0.367
G1 X101.617 E0.019
G1 X109.853 Y95.884 E0.387
G1 X109.817 Y95.748 E0.005
G1 X109.764 Y95.407 E0.012
G1 X101.051 Y104.12 E0.409
G1 X100.485 E0.019
G1 X109.723 Y94.882 E0.435
G1 X109.719 Y94.8 E0.002
G1 X109.744 Y94.323 E0.016
G1 X109.749 Y94.291 E0.001
G1 X99.92 Y104.12 E0.463
G1 X99.354 E0.019
G1 X109.887 Y93.587 E0.495
G1 X109.939 Y93.392 E0.007
G1 X110.062 Y93.062 E0.011
G1 X110.106 Y92.946 E0.005
G1 X110.249 Y92.659 E0.01
G1 X98.788 Y104.12 E0.539
G1 X98.223 E0.019
G1 X116.863 Y85.48 E0.877
G1 X116.297 E0.019
G1 X97.657 Y104.12 E0.876
G1 X97.091 E0.019
G1 X115.731 Y85.48 E0.877
G1 X115.166 E0.019
G1 X96.526 Y104.12 E0.877
G1 X95.96 E0.018
G1 X114.6 Y85.48 E0.877
G1 X114.034 E0.019
G1 X95.394 Y104.12 E0.877
G1 X94.828 E0.019
G1 X113.468 Y85.48 E0.876
G1 X112.903 E0.019
G1 X94.263 Y104.12 E0.877
G1 X93.697 E0.019
G1 X112.337 Y85.48 E0.877
G1 X111.771 E0.018
G1 X93.131 Y104.12 E0.877
G1 X92.566 E0.019
G1 X111.206 Y85.48 E0.877
G1 X110.64 E0.019
G1 X92 Y104.12 E0.876
G1 X91.434 E0.019
G1 X110.074 Y85.48 E0.877
G1 X109.509 E0.019
G1 X90.869 Y104.12 E0.876
G1 X90.303 E0.019
G1 X108.943 Y85.48 E0.877
G1 F2700 E-7
;rapid-dry
G0 X100.458 F7200
G1 F2700 E7
;bead-solid_infill
G1 X93.27 Y92.668 F720 E0.338
G1 X93.586 Y92.484 E0.012
G1 X93.96 Y92.334 E0.014
G1 X94.24 Y92.264 E0.009
G1 X101.023 Y85.48 E0.319
G1 X101.589 E0.019
G1 X94.87 Y92.199 E0.316
G1 X95.151 Y92.209 E0.01
G1 X95.385 Y92.25 E0.007
G1 X102.155 Y85.48 E0.319
G1 X102.72 E0.019
G1 X95.83 Y92.371 E0.324
G1 X95.93 Y92.404 E0.003
G1 X96.221 Y92.545 E0.011
G1 X103.286 Y85.48 E0.332
G1 X103.852 E0.019
G1 X96.567 Y92.765 E0.343
G1 X96.624 Y92.804 E0.002
G1 X96.871 Y93.026 E0.011
G1 X104.417 Y85.48 E0.355
G1 X104.983 E0.019
G1 X97.136 Y93.327 E0.369
G1 X97.179 Y93.376 E0.002
G1 X97.316 Y93.596 E0.009
G1 X97.361 Y93.668 E0.003
G1 X105.549 Y85.48 E0.385
G1 X106.115 E0.019
G1 X97.542 Y94.053 E0.403
G1 X97.558 Y94.09 E0.001
G1 X97.669 Y94.475 E0.014
G1 X97.671 Y94.489
G1 X106.68 Y85.48 E0.424
G1 X107.246 E0.019
G1 X97.725 Y95.001 E0.447
G1 Y95.277 E0.01
G1 X97.677 Y95.614 E0.011
G1 X107.812 Y85.48 E0.477
G1 X108.377 E0.019
G1 X97.338 Y96.519 E0.519
G1 X97.182 Y96.77 E0.01
G1 X96.923 Y97.077 E0.013
G1 X96.625 Y97.346 E0.013
G1 X96.319 Y97.553 E0.013
G1 X96.29 Y97.567 E0.001
G1 X89.737 Y104.12 E0.308
G1 X89.172 E0.019
G1 X95.393 Y97.899 E0.292
G1 X95.151 Y97.941 E0.008
G1 X94.771 Y97.955 E0.013
G1 X88.606 Y104.12 E0.29
G1 X88.04 E0.019
G1 X94.267 Y97.893 E0.293
G1 X93.96 Y97.816 E0.01
G1 X93.83 Y97.764 E0.005
G1 X87.475 Y104.12 E0.299
G1 X86.909 E0.019
G1 X93.445 Y97.584 E0.307
G1 X93.37 Y97.54 E0.003
G1 X93.238 Y97.464 E0.005
G1 X93.104 Y97.359 E0.006
G1 X86.343 Y104.12 E0.318
G1 X85.777 E0.019
G1 X92.803 Y97.094 E0.33
G1 X92.643 Y96.929 E0.008
G1 X92.542 Y96.79 E0.005
G1 X85.212 Y104.12 E0.345
G1 X84.646 E0.019
G1 X92.322 Y96.444 E0.361
G1 X92.217 Y96.247 E0.008
G1 X92.147 Y96.054 E0.006
G1 X84.08 Y104.12 E0.38
G1 X83.515 E0.019
G1 X92.024 Y95.611 E0.4
G1 X91.995 Y95.475 E0.004
G1 X91.97 Y95.099 E0.013
G1 X82.949 Y104.12 E0.424
G1 X82.383 E0.019
G1 X92.042 Y94.461 E0.454
G1 X92.077 Y94.285 E0.006
G1 X92.217 Y93.903 E0.014
G1 X92.406 Y93.548 E0.013
G1 X92.448 Y93.49 E0.003
G1 X81.818 Y104.12 E0.5
G1 X81.252 E0.018
G1 X99.892 Y85.48 E0.877
G1 X99.326 E0.019
G1 X80.686 Y104.12 E0.877
G1 X80.121 E0.019
G1 X98.761 Y85.48 E0.876
G1 X98.195 E0.019
G1 X79.555 Y104.12 E0.877
G1 X78.989 E0.019
G1 X97.629 Y85.48 E0.877
G1 X97.064 E0.018
G1 X78.424 Y104.12 E0.877
G1 X77.858 E0.019
G1 X96.498 Y85.48 E0.877
G1 X95.932 E0.019
G1 X77.292 Y104.12 E0.876
G1 X77.03 E0.009
G1 Y103.817 E0.01
G1 X95.367 Y85.48 E0.863
G1 X94.801 E0.018
G1 X77.03 Y103.251 E0.836
G1 Y102.685 E0.019
G1 X94.235 Y85.48 E0.809
G1 X93.669 E0.019
G1 X77.03 Y102.119 E0.783
G1 Y101.554 E0.019
G1 X93.104 Y85.48 E0.756
G1 X92.538 E0.019
G1 X77.03 Y100.988 E0.729
G1 Y100.422 E0.019
G1 X91.972 Y85.48 E0.703
G1 X91.407 E0.019
G1 X77.03 Y99.857 E0.676
G1 Y99.291 E0.019
G1 X90.841 Y85.48 E0.649
G1 X90.275 E0.019
G1 X77.03 Y98.725 E0.623
G1 Y98.16 E0.019
G1 X89.71 Y85.48 E0.596
G1 X89.144 E0.019
G1 X77.03 Y97.594 E0.57
G1 Y97.028 E0.019
G1 X88.578 Y85.48 E0.543
G1 X88.013 E0.019
G1 X77.03 Y96.463 E0.516
G1 Y95.897 E0.019
G1 X87.447 Y85.48 E0.49
G1 X86.881 E0.019
G1 X77.03 Y95.331 E0.463
G1 Y94.766 E0.019
G1 X86.316 Y85.48 E0.437
G1 X85.75 E0.019
G1 X77.03 Y94.2 E0.41
G1 Y93.634 E0.019
G1 X85.184 Y85.48 E0.383
G1 X84.618 E0.019
G1 X77.03 Y93.069 E0.357
G1 Y92.503 E0.019
G1 X84.053 Y85.48 E0.33
G1 X83.487 E0.019
G1 X77.03 Y91.937 E0.304
G1 Y91.371 E0.018
G1 X82.921 Y85.48 E0.278
G1 X82.356 E0.018
G1 X77.03 Y90.806 E0.251
G1 Y90.24 E0.019
G1 X81.79 Y85.48 E0.224
G1 X81.224 E0.018
G1 X77.03 Y89.674 E0.198
G1 Y89.109 E0.019
G1 X80.659 Y85.48 E0.17
G1 X80.093 E0.019
G1 X77.03 Y88.543 E0.144
G1 Y87.977 E0.019
G1 X79.527 Y85.48 E0.117
G1 X78.962 E0.019
G1 X77.03 Y87.412 E0.091
G1 Y86.846 E0.019
G1 X78.396 Y85.48 E0.064
G1 X77.83 E0.019
G1 X77.03 Y86.28 E0.038
G1 Y85.715 E0.018
G1 X77.265 Y85.48 E0.011
G1 F2700 E-7
;LAYER:2
M107
;rapid-dry
G0 X76.35 Y104.8 Z0.35 F7200
G1 F2700 E7
;bead-perimeter_outer
G1 Y84.8 F1800 E0.499
G1 X143.65 E1.679
G1 Y104.8 E0.499
G1 X76.35 E1.679
;rapid-leaky
G0 X76.71 Y104.44 F7200
;bead-perimeter_inner
G1 Y85.16 F2400 E0.481
G1 X143.29 E1.661
G1 Y104.44 E0.481
G1 X76.71 E1.66
G1 F2700 E-7
;rapid-dry
G0 X76.35 Y115.2 F7200
G1 F2700 E7
;bead-perimeter_outer
G1 X143.65 F1800 E1.679
G1 Y135.2 E0.499
G1 X76.35 E1.679
G1 Y115.2 E0.499
;rapid-leaky
G0 X76.71 Y115.56 F7200
;bead-perimeter_inner
G1 X143.29 F2400 E1.661
G1 Y134.84 E0.481
G1 X76.71 E1.66
G1 Y115.56 E0.481
G1 F2700 E-7
;rapid-dry
G0 X94.468 Y97.242 F7200
G1 F2700 E7
;bead-perimeter_outer
G1 X94.773 Y97.274 F1800 E0.008
G1 X95.08 Y97.263 E0.008
G1 X95.383 Y97.211 E0.007
G1 X95.674 Y97.115 E0.008
G1 X95.95 Y96.981 E0.008
G1 X96.204 Y96.809 E0.007
G1 X96.433 Y96.603 E0.008
G1 X96.63 Y96.369 E0.008
G1 X96.793 Y96.108 E0.007
G1 X96.917 Y95.827 E0.008
G1 X97.002 Y95.533 E0.008
G1 X97.045 Y95.229 E0.007
G1 Y94.921 E0.008
G1 X96.983 Y94.551 E0.009
G1 X96.917 Y94.322 E0.006
G1 X96.793 Y94.042 E0.008
G1 X96.63 Y93.781 E0.008
G1 X96.382 Y93.5 E0.009
G1 X96.204 Y93.341 E0.006
G1 X95.95 Y93.169 E0.008
G1 X95.674 Y93.035 E0.007
G1 X95.383 Y92.939 E0.008
G1 X95.08 Y92.887 E0.008
G1 X94.773 Y92.876 E0.007
G1 X94.468 Y92.908 E0.008
G1 X94.17 Y92.982 E0.007
G1 X93.885 Y93.097 E0.008
G1 X93.62 Y93.251 E0.008
G1 X93.378 Y93.44 E0.007
G1 X93.165 Y93.66 E0.008
G1 X92.984 Y93.909 E0.008
G1 X92.84 Y94.18 E0.007
G1 X92.734 Y94.469 E0.008
G1 X92.671 Y94.769 E0.008
G1 X92.65 Y95.075 E0.007
G1 X92.67 Y95.381 E0.008
G1 X92.734 Y95.681 E0.008
G1 X92.84 Y95.97 E0.007
G1 X92.984 Y96.241 E0.008
G1 X93.165 Y96.49 E0.008
G1 X93.378 Y96.71 E0.007
G1 X93.62 Y96.899 E0.008
G1 X93.885 Y97.053 E0.008
G1 X94.169 Y97.167 E0.007
G1 X94.468 Y97.242 E0.008
;rapid-leaky
G0 X94.406 Y97.598 F7200
;bead-perimeter_inner
G1 X94.761 Y97.635 F2400 E0.009
G1 X95.117 Y97.622 E0.009
G1 X95.47 Y97.561 E0.009
G1 X95.81 Y97.449 E0.009
G1 X96.131 Y97.293 E0.009
G1 X96.427 Y97.093 E0.008
G1 X96.693 Y96.854 E0.009
G1 X96.922 Y96.581 E0.009
G1 X97.112 Y96.277 E0.009
G1 X97.257 Y95.951 E0.009
G1 X97.355 Y95.608 E0.009
G1 X97.405 Y95.254 E0.009
G1 Y94.896 E0.009
G1 X97.355 Y94.543 E0.009
G1 X97.329 Y94.452 E0.002
G1 X97.256 Y94.199 E0.007
G1 X97.112 Y93.873 E0.009
G1 X96.922 Y93.569 E0.009
G1 X96.693 Y93.296 E0.008
G1 X96.623 Y93.233 E0.003
G1 X96.426 Y93.057 E0.006
G1 X96.131 Y92.857 E0.009
G1 X95.81 Y92.701 E0.009
G1 X95.47 Y92.589 E0.009
G1 X95.117 Y92.528 E0.009
G1 X94.761 Y92.515 E0.009
G1 X94.405 Y92.552 E0.009
G1 X94.059 Y92.639 E0.009
G1 X93.727 Y92.772 E0.009
G1 X93.417 Y92.952 E0.009
G1 X93.137 Y93.172 E0.008
G1 X92.889 Y93.427 E0.009
G1 X92.678 Y93.718 E0.009
G1 X92.51 Y94.033 E0.009
G1 X92.388 Y94.369 E0.009
G1 X92.313 Y94.718 E0.009
G1 X92.289 Y95.075 E0.009
G1 X92.313 Y95.431 E0.009
G1 X92.388 Y95.781 E0.009
G1 X92.51 Y96.117 E0.009
G1 X92.678 Y96.432 E0.009
G1 X92.888 Y96.722 E0.009
G1 X93.137 Y96.979 E0.008
G1 X93.417 Y97.198 E0.009
G1 X93.727 Y97.378 E0.009
G1 X94.057 Y97.51 E0.009
G1 X94.406 Y97.598 E0.009
G1 F2700 E-7
;rapid-dry
G0 X110.421 Y95.207 F7200
G1 F2700 E7
;bead-perimeter_outer
G1 X110.483 Y95.608 F1800 E0.01
G1 X110.587 Y96.001 E0.01
G1 X110.73 Y96.382 E0.011
G1 X110.912 Y96.746 E0.01
G1 X111.131 Y97.089 E0.01
G1 X111.383 Y97.408 E0.01
G1 X111.667 Y97.699 E0.01
G1 X111.979 Y97.959 E0.01
G1 X112.317 Y98.187 E0.01
G1 X112.675 Y98.377 E0.011
G1 X113.052 Y98.531 E0.01
G1 X113.443 Y98.645 E0.01
G1 X113.842 Y98.718 E0.01
G1 X114.248 Y98.749 E0.01
G1 X114.655 Y98.739 E0.01
G1 X115.058 Y98.686 E0.01
G1 X115.454 Y98.593 E0.011
G1 X115.839 Y98.459 E0.01
G1 X116.206 Y98.287 E0.01
G1 X116.555 Y98.077 E0.01
G1 X116.88 Y97.834 E0.01
G1 X117.18 Y97.557 E0.01
G1 X117.447 Y97.251 E0.01
G1 X117.683 Y96.921 E0.011
G1 X117.883 Y96.567 E0.01
G1 X118.046 Y96.194 E0.01
G1 X118.17 Y95.806 E0.01
G1 X118.253 Y95.408 E0.01
G1 X118.295 Y95.003 E0.01
G1 Y94.597 E0.011
G1 X118.253 Y94.192 E0.01
G1 X118.17 Y93.794 E0.01
G1 X118.046 Y93.406 E0.01
G1 X117.883 Y93.033 E0.01
G1 X117.683 Y92.679 E0.01
G1 X117.447 Y92.349 E0.01
G1 X117.18 Y92.043 E0.01
G1 X116.88 Y91.766 E0.011
G1 X116.555 Y91.523 E0.01
G1 X116.206 Y91.313 E0.01
G1 X115.839 Y91.141 E0.01
G1 X115.454 Y91.007 E0.01
G1 X115.058 Y90.914 E0.01
G1 X114.655 Y90.861 E0.011
G1 X114.248 Y90.851 E0.01
G1 X113.842 Y90.882 E0.01
G1 X113.443 Y90.955 E0.01
G1 X113.052 Y91.069 E0.01
G1 X112.675 Y91.223 E0.01
G1 X112.317 Y91.413 E0.01
G1 X111.979 Y91.641 E0.011
G1 X111.667 Y91.901 E0.01
G1 X111.383 Y92.192 E0.01
G1 X111.131 Y92.511 E0.01
G1 X110.912 Y92.854 E0.01
G1 X110.73 Y93.218 E0.01
G1 X110.587 Y93.599 E0.01
G1 X110.483 Y93.992 E0.011
G1 X110.421 Y94.393 E0.01
G1 X110.4 Y94.8 E0.01
G1 X110.421 Y95.207 E0.01
;rapid-leaky
G0 X110.062 Y95.243 F7200
;bead-perimeter_inner
G1 X110.13 Y95.682 F2400 E0.011
G1 X110.244 Y96.111 E0.011
G1 X110.4 Y96.526 E0.011
G1 X110.598 Y96.923 E0.011
G1 X110.837 Y97.298 E0.011
G1 X111.112 Y97.646 E0.011
G1 X111.422 Y97.964 E0.012
G1 X111.762 Y98.247 E0.011
G1 X112.131 Y98.496 E0.011
G1 X112.522 Y98.704 E0.011
G1 X112.934 Y98.872 E0.011
G1 X113.36 Y98.996 E0.011
G1 X113.796 Y99.075 E0.011
G1 X114.238 Y99.11 E0.011
G1 X114.683 Y99.098 E0.011
G1 X115.122 Y99.041 E0.011
G1 X115.554 Y98.94 E0.011
G1 X115.975 Y98.793 E0.011
G1 X116.376 Y98.605 E0.011
G1 X116.756 Y98.376 E0.011
G1 X117.111 Y98.111 E0.011
G1 X117.438 Y97.808 E0.012
G1 X117.73 Y97.475 E0.011
G1 X117.987 Y97.114 E0.011
G1 X118.206 Y96.728 E0.011
G1 X118.384 Y96.321 E0.011
G1 X118.518 Y95.897 E0.011
G1 X118.609 Y95.464 E0.011
G1 X118.655 Y95.022 E0.011
G1 Y94.578 E0.011
G1 X118.609 Y94.136 E0.011
G1 X118.518 Y93.703 E0.011
G1 X118.384 Y93.279 E0.011
G1 X118.206 Y92.872 E0.011
G1 X117.987 Y92.486 E0.011
G1 X117.73 Y92.125 E0.012
G1 X117.438 Y91.792 E0.011
G1 X117.111 Y91.489 E0.011
G1 X116.756 Y91.224 E0.011
G1 X116.376 Y90.995 E0.011
G1 X115.975 Y90.807 E0.011
G1 X115.554 Y90.66 E0.011
G1 X115.122 Y90.559 E0.011
G1 X114.683 Y90.502 E0.011
G1 X114.238 Y90.49 E0.011
G1 X113.796 Y90.525 E0.011
G1 X113.36 Y90.604 E0.011
G1 X112.934 Y90.728 E0.011
G1 X112.522 Y90.896 E0.011
G1 X112.131 Y91.104 E0.012
G1 X111.762 Y91.353 E0.011
G1 X111.422 Y91.636 E0.011
G1 X111.112 Y91.954 E0.011
G1 X110.837 Y92.302 E0.011
G1 X110.598 Y92.677 E0.011
G1 X110.4 Y93.074 E0.011
G1 X110.244 Y93.489 E0.011
G1 X110.13 Y93.918 E0.011
G1 X110.062 Y94.356 E0.011
G1 X110.039 Y94.8 E0.011
G1 X110.062 Y95.243 E0.011
G1 F2700 E-7
;rapid-dry
G0 X108.524 Y104.12 F7200
G1 F2700 E7
;bead-solid_infill
G1 X89.884 Y85.48 F1800 E0.658
G1 X90.45 E0.014
G1 X109.09 Y104.12 E0.658
G1 X109.656 E0.014
G1 X91.016 Y85.48 E0.657
G1 X91.581 E0.014
G1 X110.221 Y104.12 E0.658
G1 X110.787 E0.014
G1 X92.147 Y85.48 E0.658
G1 X92.713 E0.014
G1 X111.353 Y104.12 E0.657
G1 X111.918 E0.014
G1 X93.278 Y85.48 E0.658
G1 X93.844 E0.014
G1 X112.484 Y104.12 E0.658
G1 X113.05 E0.014
G1 X94.41 Y85.48 E0.657
G1 X94.975 E0.015
G1 X113.615 Y104.12 E0.657
G1 X114.181 E0.014
G1 X95.541 Y85.48 E0.658
G1 X96.107 E0.014
G1 X114.747 Y104.12 E0.657
G1 X115.313 E0.015
G1 X96.673 Y85.48 E0.657
G1 X97.238 E0.014
G1 X115.878 Y104.12 E0.658
G1 X116.444 E0.014
G1 X97.804 Y85.48 E0.658
G1 X98.37 E0.014
G1 X117.01 Y104.12 E0.657
G1 X117.575 E0.014
G1 X112.493 Y99.037 E0.18
G1 X112.828 Y99.174 E0.009
G1 X113.287 Y99.308 E0.012
G1 X113.338 Y99.317 E0.001
G1 X118.141 Y104.12 E0.169
G1 X118.707 E0.014
G1 X113.998 Y99.412 E0.167
G1 X114.23 Y99.43 E0.005
G1 X114.573 Y99.421 E0.009
G1 X119.272 Y104.12 E0.166
G1 X119.838 E0.014
G1 X115.086 Y99.368 E0.167
G1 X115.18 Y99.356 E0.003
G1 X115.552 Y99.269 E0.009
G1 X120.404 Y104.12 E0.171
G1 X120.969 E0.015
G1 X115.98 Y99.13 E0.176
G1 X116.096 Y99.09 E0.003
G1 X116.374 Y98.959 E0.007
G1 X121.535 Y104.12 E0.182
G1 X122.101 E0.015
G1 X116.74 Y98.759 E0.189
G1 X116.803 Y98.722 E0.001
G1 X116.934 Y98.642 E0.004
G1 X117.08 Y98.534 E0.005
G1 X122.666 Y104.12 E0.197
G1 X123.232 E0.014
G1 X117.396 Y98.283 E0.206
G1 X117.668 Y98.031 E0.009
G1 X117.687 Y98.009 E0.001
G1 X123.798 Y104.12 E0.215
G1 X124.364 E0.015
G1 X117.951 Y97.708 E0.226
G1 X117.981 Y97.674 E0.001
G1 X118.19 Y97.381 E0.009
G1 X124.929 Y104.12 E0.238
G1 X125.495 E0.014
G1 X118.403 Y97.028 E0.25
G1 X118.492 Y96.871 E0.004
G1 X118.589 Y96.649 E0.006
G1 X126.061 Y104.12 E0.264
G1 X126.626 E0.014
G1 X118.745 Y96.239 E0.278
G1 X118.828 Y95.979 E0.007
G1 X118.867 Y95.795 E0.005
G1 X127.192 Y104.12 E0.293
G1 X127.758 E0.014
G1 X118.947 Y95.309 E0.311
G1 X118.975 Y95.039 E0.007
G1 Y94.772 E0.007
G1 X128.323 Y104.12 E0.33
G1 X128.889 E0.014
G1 X118.934 Y94.165 E0.351
G1 X118.926 Y94.087 E0.002
G1 X118.877 Y93.852 E0.006
G1 X118.828 Y93.621 E0.006
G1 X118.769 Y93.434 E0.005
G1 X129.455 Y104.12 E0.377
G1 X130.02 E0.014
G1 X118.314 Y92.413 E0.413
G1 X118.257 Y92.314 E0.003
G1 X117.981 Y91.926 E0.011
G1 X117.668 Y91.569 E0.012
G1 X117.316 Y91.243 E0.012
G1 X117.034 Y91.032 E0.009
G1 X116.934 Y90.958 E0.003
G1 X116.743 Y90.842 E0.006
G1 X111.38 Y85.48 E0.189
G1 X110.815 E0.014
G1 X115.711 Y90.376 E0.173
G1 X115.644 Y90.353 E0.001
G1 X115.18 Y90.244 E0.012
G1 X114.988 Y90.219 E0.005
G1 X110.249 Y85.48 E0.167
G1 X109.683 E0.014
G1 X114.377 Y90.174 E0.166
G1 X114.23 Y90.17 E0.004
G1 X113.838 Y90.201 E0.01
G1 X109.118 Y85.48 E0.166
G1 X108.552 E0.014
G1 X113.352 Y90.28 E0.17
G1 X113.287 Y90.292 E0.001
G1 X112.978 Y90.382 E0.008
G1 X112.909 Y90.402 E0.002
G1 X107.986 Y85.48 E0.174
G1 X107.421 E0.014
G1 X112.5 Y90.56 E0.179
G1 X112.386 Y90.606 E0.003
G1 X112.134 Y90.74 E0.007
G1 X112.122 Y90.747
G1 X106.855 Y85.48 E0.186
G1 X106.289 E0.014
G1 X111.771 Y90.961 E0.194
G1 X111.731 Y90.988 E0.001
G1 X111.57 Y91.096 E0.005
G1 X111.445 Y91.201 E0.004
G1 X105.724 Y85.48 E0.202
G1 X105.158 E0.014
G1 X111.143 Y91.465 E0.211
G1 X110.871 Y91.742 E0.01
G1 X110.864 Y91.752
G1 X104.592 Y85.48 E0.221
G1 X104.026 E0.014
G1 X110.614 Y92.068 E0.233
G1 X110.576 Y92.117 E0.001
G1 X110.389 Y92.409 E0.009
G1 X103.461 Y85.48 E0.244
G1 X102.895 E0.014
G1 X110.191 Y92.776 E0.258
G1 X110.106 Y92.946 E0.005
G1 X110.07 Y93.041 E0.002
G1 X110.021 Y93.172 E0.004
G1 X102.329 Y85.48 E0.271
G1 X101.764 E0.014
G1 X109.884 Y93.6 E0.286
G1 X109.817 Y93.852 E0.007
G1 X109.783 Y94.065 E0.005
G1 X101.198 Y85.48 E0.303
G1 X100.632 E0.014
G1 X109.73 Y94.578 E0.321
G1 X109.719 Y94.8 E0.006
G1 X109.737 Y95.15 E0.009
G1 X100.067 Y85.48 E0.341
G1 X99.501 E0.014
G1 X109.834 Y95.813 E0.364
G1 X109.939 Y96.208 E0.011
G1 X110.104 Y96.649 E0.011
G1 X98.935 Y85.48 E0.394
G1 F2700 E-7
;rapid-dry
G0 X111.946 F7200
G1 F2700 E7
;bead-solid_infill
G1 X130.586 Y104.12 F1800 E0.658
G1 X131.152 E0.014
G1 X112.512 Y85.48 E0.658
G1 X113.077 E0.014
G1 X131.717 Y104.12 E0.657
G1 X132.283 E0.014
G1 X113.643 Y85.48 E0.658
G1 X114.209 E0.014
G1 X132.849 Y104.12 E0.658
G1 X133.414 E0.014
G1 X114.774 Y85.48 E0.657
G1 X115.34 E0.014
G1 X133.98 Y104.12 E0.658
G1 X134.546 E0.014
G1 X115.906 Y85.48 E0.658
G1 X116.472 E0.014
G1 X135.112 Y104.12 E0.657
G1 X135.677 E0.015
G1 X117.037 Y85.48 E0.657
G1 X117.603 E0.014
G1 X136.243 Y104.12 E0.658
G1 X136.809 E0.014
G1 X118.169 Y85.48 E0.657
G1 X118.734 E0.015
G1 X137.374 Y104.12 E0.657
G1 X137.94 E0.014
G1 X119.3 Y85.48 E0.658
G1 X119.866 E0.014
G1 X138.506 Y104.12 E0.658
G1 X139.071 E0.014
G1 X120.431 Y85.48 E0.657
G1 X120.997 E0.014
G1 X139.637 Y104.12 E0.658
G1 X140.203 E0.014
G1 X121.563 Y85.48 E0.658
G1 X122.128 E0.014
G1 X140.768 Y104.12 E0.657
G1 X141.334 E0.014
G1 X122.694 Y85.48 E0.658
G1 X123.26 E0.014
G1 X141.9 Y104.12 E0.658
G1 X142.465 E0.014
G1 X123.825 Y85.48 E0.657
G1 X124.391 E0.014
G1 X142.97 Y104.059 E0.656
G1 Y103.493 E0.014
G1 X124.957 Y85.48 E0.635
G1 X125.522 E0.015
G1 X142.97 Y102.928 E0.615
G1 Y102.362 E0.014
G1 X126.088 Y85.48 E0.596
G1 X126.654 E0.014
G1 X142.97 Y101.796 E0.575
G1 Y101.23 E0.015
G1 X127.22 Y85.48 E0.555
G1 X127.785 E0.014
G1 X142.97 Y100.665 E0.536
G1 Y100.099 E0.014
G1 X128.351 Y85.48 E0.516
G1 X128.917 E0.014
G1 X142.97 Y99.533 E0.496
G1 Y98.968 E0.014
G1 X129.482 Y85.48 E0.476
G1 X130.048 E0.014
G1 X142.97 Y98.402 E0.456
G1 Y97.836 E0.014
G1 X130.614 Y85.48 E0.436
G1 X131.179 E0.014
G1 X142.97 Y97.271 E0.416
G1 Y96.705 E0.014
G1 X131.745 Y85.48 E0.396
G1 X132.311 E0.014
G1 X142.97 Y96.139 E0.376
G1 Y95.574 E0.014
G1 X132.876 Y85.48 E0.356
G1 X133.442 E0.014
G1 X142.97 Y95.008 E0.336
G1 Y94.442 E0.014
G1 X134.008 Y85.48 E0.317
G1 X134.573 E0.014
G1 X142.97 Y93.877 E0.296
G1 Y93.311 E0.014
G1 X135.139 Y85.48 E0.276
G1 X135.705 E0.014
G1 X142.97 Y92.745 E0.257
G1 Y92.18 E0.014
G1 X136.271 Y85.48 E0.236
G1 X136.836 E0.014
G1 X142.97 Y91.614 E0.217
G1 Y91.048 E0.014
G1 X137.402 Y85.48 E0.196
G1 X137.968 E0.014
G1 X142.97 Y90.482 E0.177
G1 Y89.917 E0.014
G1 X138.533 Y85.48 E0.156
G1 X139.099 E0.015
G1 X142.97 Y89.351 E0.136
G1 Y88.785 E0.014
G1 X139.665 Y85.48 E0.117
G1 X140.23 E0.014
G1 X142.97 Y88.22 E0.097
G1 Y87.654 E0.014
G1 X140.796 Y85.48 E0.076
G1 X141.362 E0.015
G1 X142.97 Y87.088 E0.056
G1 Y86.523 E0.014
G1 X141.927 Y85.48 E0.037
G1 X142.493 E0.014
G1 X142.97 Y85.957 E0.017
G1 F2700 E-7
;rapid-dry
G0 X142.912 Y115.88 F7200
G1 F2700 E7
;bead-solid_infill
G1 X142.97 Y115.938 F1800 E0.002
G1 Y116.504 E0.014
G1 X142.346 Y115.88 E0.022
G1 X141.78 E0.014
G1 X142.97 Y117.07 E0.042
G1 Y117.635 E0.014
G1 X141.215 Y115.88 E0.062
G1 X140.649 E0.015
G1 X142.97 Y118.201 E0.081
G1 Y118.767 E0.014
G1 X140.083 Y115.88 E0.102
G1 X139.518 E0.014
G1 X142.97 Y119.332 E0.122
G1 Y119.898 E0.014
G1 X138.952 Y115.88 E0.142
G1 X138.386 E0.014
G1 X142.97 Y120.464 E0.162
G1 Y121.029 E0.014
G1 X137.821 Y115.88 E0.182
G1 X137.255 E0.014
G1 X142.97 Y121.595 E0.201
G1 Y122.161 E0.015
G1 X136.689 Y115.88 E0.221
G1 X136.124 E0.014
G1 X142.97 Y122.727 E0.242
G1 Y123.292 E0.014
G1 X135.558 Y115.88 E0.261
G1 X134.992 E0.014
G1 X142.97 Y123.858 E0.282
G1 Y124.424 E0.014
G1 X134.426 Y115.88 E0.301
G1 X133.861 E0.015
G1 X142.97 Y124.989 E0.321
G1 Y125.555 E0.014
G1 X133.295 Y115.88 E0.341
G1 X132.729 E0.014
G1 X142.97 Y126.121 E0.362
G1 Y126.686 E0.014
G1 X132.164 Y115.88 E0.381
G1 X131.598 E0.014
G1 X142.97 Y127.252 E0.401
G1 Y127.818 E0.014
G1 X131.032 Y115.88 E0.422
G1 X130.467 E0.014
G1 X142.97 Y128.383 E0.441
G1 Y128.949 E0.014
G1 X129.901 Y115.88 E0.461
G1 X129.335 E0.014
G1 X142.97 Y129.515 E0.481
G1 Y130.08 E0.014
G1 X128.77 Y115.88 E0.501
G1 X128.204 E0.014
G1 X142.97 Y130.646 E0.521
G1 Y131.212 E0.014
G1 X127.638 Y115.88 E0.541
G1 X127.073 E0.014
G1 X142.97 Y131.777 E0.561
G1 Y132.343 E0.014
G1 X126.507 Y115.88 E0.581
G1 X125.941 E0.014
G1 X142.97 Y132.909 E0.601
G1 Y133.475 E0.014
G1 X125.375 Y115.88 E0.621
G1 X124.81 E0.014
G1 X142.97 Y134.04 E0.64
G1 Y134.52 E0.012
G1 X142.884 E0.002
G1 X124.244 Y115.88 E0.658
G1 X123.678 E0.014
G1 X142.318 Y134.52 E0.658
G1 X141.753 E0.014
G1 X123.113 Y115.88 E0.657
G1 X122.547 E0.014
G1 X141.187 Y134.52 E0.658
G1 X140.621 E0.014
G1 X121.981 Y115.88 E0.658
G1 X121.416 E0.014
G1 X140.056 Y134.52 E0.657
G1 X139.49 E0.015
G1 X120.85 Y115.88 E0.657
G1 X120.284 E0.014
G1 X138.924 Y134.52 E0.658
G1 X138.359 E0.014
G1 X119.719 Y115.88 E0.658
G1 X119.153 E0.014
G1 X137.793 Y134.52 E0.657
G1 X137.227 E0.014
G1 X118.587 Y115.88 E0.658
G1 X118.022 E0.014
G1 X136.662 Y134.52 E0.658
G1 X136.096 E0.014
G1 X117.456 Y115.88 E0.657
G1 X116.89 E0.014
G1 X135.53 Y134.52 E0.658
G1 X134.965 E0.014
G1 X116.325 Y115.88 E0.658
G1 X115.759 E0.014
G1 X134.399 Y134.52 E0.657
G1 X133.833 E0.014
G1 X115.193 Y115.88 E0.658
G1 X114.627 E0.014
G1 X133.267 Y134.52 E0.658
G1 X132.702 E0.014
G1 X114.062 Y115.88 E0.657
G1 X113.496 E0.014
G1 X132.136 Y134.52 E0.658
G1 X131.57 E0.014
G1 X112.93 Y115.88 E0.658
G1 X112.365 E0.014
G1 X131.005 Y134.52 E0.657
G1 X130.439 E0.015
G1 X111.799 Y115.88 E0.657
G1 X111.233 E0.014
G1 X129.873 Y134.52 E0.658
G1 X129.308 E0.014
G1 X110.668 Y115.88 E0.658
G1 X110.102 E0.014
G1 X128.742 Y134.52 E0.657
G1 X128.176 E0.014
G1 X109.536 Y115.88 E0.658
G1 X108.971 E0.014
G1 X127.611 Y134.52 E0.658
G1 X127.045 E0.014
G1 X108.405 Y115.88 E0.657
G1 X107.839 E0.014
G1 X126.479 Y134.52 E0.658
G1 X125.914 E0.014
G1 X107.274 Y115.88 E0.658
G1 X106.708 E0.014
G1 X125.348 Y134.52 E0.657
G1 X124.782 E0.014
G1 X106.142 Y115.88 E0.658
G1 X105.576 E0.014
G1 X124.216 Y134.52 E0.658
G1 X123.651 E0.014
G1 X105.011 Y115.88 E0.657
G1 X104.445 E0.014
G1 X123.085 Y134.52 E0.658
G1 X122.519 E0.014
G1 X103.879 Y115.88 E0.658
G1 X103.314 E0.014
G1 X121.954 Y134.52 E0.657
G1 X121.388 E0.015
G1 X102.748 Y115.88 E0.657
G1 X102.182 E0.014
G1 X120.822 Y134.52 E0.658
G1 X120.257 E0.014
G1 X101.617 Y115.88 E0.657
G1 X101.051 E0.015
G1 X119.691 Y134.52 E0.657
G1 X119.125 E0.014
G1 X100.485 Y115.88 E0.658
G1 X99.92 E0.014
G1 X118.56 Y134.52 E0.658
G1 X117.994 E0.014
G1 X99.354 Y115.88 E0.657
G1 X98.788 E0.014
G1 X117.428 Y134.52 E0.658
G1 X116.863 E0.014
G1 X98.223 Y115.88 E0.658
G1 X97.657 E0.014
G1 X116.297 Y134.52 E0.657
G1 X115.731 E0.014
G1 X97.091 Y115.88 E0.658
G1 X96.526 E0.014
G1 X115.166 Y134.52 E0.658
G1 X114.6 E0.014
G1 X95.96 Y115.88 E0.657
G1 X95.394 E0.014
G1 X114.034 Y134.52 E0.658
G1 X113.468 E0.014
G1 X94.828 Y115.88 E0.658
G1 X94.263 E0.014
G1 X112.903 Y134.52 E0.657
G1 X112.337 E0.015
G1 X93.697 Y115.88 E0.657
G1 X93.131 E0.014
G1 X111.771 Y134.52 E0.658
G1 X111.206 E0.014
G1 X92.566 Y115.88 E0.657
G1 X92 E0.015
G1 X110.64 Y134.52 E0.657
G1 X110.074 E0.014
G1 X91.434 Y115.88 E0.658
G1 X90.869 E0.014
G1 X109.509 Y134.52 E0.658
G1 X108.943 E0.014
G1 X90.303 Y115.88 E0.657
G1 X89.737 E0.014
G1 X108.377 Y134.52 E0.658
G1 X107.812 E0.014
G1 X89.172 Y115.88 E0.658
G1 X88.606 E0.014
G1 X107.246 Y134.52 E0.657
G1 X106.68 E0.014
G1 X88.04 Y115.88 E0.658
G1 X87.475 E0.014
G1 X106.115 Y134.52 E0.658
G1 X105.549 E0.014
G1 X86.909 Y115.88 E0.657
G1 X86.343 E0.014
G1 X104.983 Y134.52 E0.658
G1 X104.417 E0.014
G1 X85.777 Y115.88 E0.658
G1 X85.212 E0.014
G1 X103.852 Y134.52 E0.657
G1 X103.286 E0.015
G1 X84.646 Y115.88 E0.657
G1 X84.08 E0.014
G1 X102.72 Y134.52 E0.658
G1 X102.155 E0.014
G1 X83.515 Y115.88 E0.658
G1 X82.949 E0.014
G1 X101.589 Y134.52 E0.657
G1 X101.023 E0.014
G1 X82.383 Y115.88 E0.658
G1 X81.818 E0.014
G1 X100.458 Y134.52 E0.658
G1 X99.892 E0.014
G1 X81.252 Y115.88 E0.657
G1 X80.686 E0.014
G1 X99.326 Y134.52 E0.658
G1 X98.761 E0.014
G1 X80.121 Y115.88 E0.658
G1 X79.555 E0.014
G1 X98.195 Y134.52 E0.657
G1 X97.629 E0.014
G1 X78.989 Y115.88 E0.658
G1 X78.424 E0.014
G1 X97.064 Y134.52 E0.658
G1 X96.498 E0.014
G1 X77.858 Y115.88 E0.657
G1 X77.292 E0.014
G1 X95.932 Y134.52 E0.658
G1 X95.367 E0.014
G1 X77.03 Y116.183 E0.647
G1 Y116.749 E0.014
G1 X94.801 Y134.52 E0.627
G1 X94.235 E0.014
G1 X77.03 Y117.315 E0.607
G1 Y117.881 E0.014
G1 X93.669 Y134.52 E0.587
G1 X93.104 E0.014
G1 X77.03 Y118.446 E0.567
G1 Y119.012 E0.015
G1 X92.538 Y134.52 E0.547
G1 X91.972 E0.014
G1 X77.03 Y119.578 E0.527
G1 Y120.143 E0.014
G1 X91.407 Y134.52 E0.507
G1 X90.841 E0.014
G1 X77.03 Y120.709 E0.487
G1 Y121.275 E0.015
G1 X90.275 Y134.52 E0.467
G1 X89.71 E0.014
G1 X77.03 Y121.84 E0.447
G1 Y122.406 E0.014
G1 X89.144 Y134.52 E0.428
G1 X88.578 E0.014
G1 X77.03 Y122.972 E0.407
G1 Y123.537 E0.014
G1 X88.013 Y134.52 E0.388
G1 X87.447 E0.014
G1 X77.03 Y124.103 E0.367
G1 Y124.669 E0.015
G1 X86.881 Y134.52 E0.347
G1 X86.316 E0.014
G1 X77.03 Y125.234 E0.328
G1 Y125.8 E0.014
G1 X85.75 Y134.52 E0.307
G1 X85.184 E0.015
G1 X77.03 Y126.366 E0.287
G1 Y126.932 E0.014
G1 X84.619 Y134.52 E0.268
G1 X84.053 E0.014
G1 X77.03 Y127.497 E0.248
G1 Y128.063 E0.014
G1 X83.487 Y134.52 E0.228
G1 X82.921 E0.014
G1 X77.03 Y128.629 E0.208
G1 Y129.194 E0.014
G1 X82.356 Y134.52 E0.188
G1 X81.79 E0.014
G1 X77.03 Y129.76 E0.168
G1 Y130.326 E0.014
G1 X81.224 Y134.52 E0.148
G1 X80.659 E0.014
G1 X77.03 Y130.891 E0.128
G1 Y131.457 E0.014
G1 X80.093 Y134.52 E0.108
G1 X79.527 E0.014
G1 X77.03 Y132.023 E0.088
G1 Y132.588 E0.014
G1 X78.962 Y134.52 E0.069
G1 X78.396 E0.014
G1 X77.03 Y133.154 E0.048
G1 Y133.72 E0.014
G1 X77.83 Y134.52 E0.028
G1 X77.265 E0.014
G1 X77.03 Y134.285 E0.009
G1 F2700 E-7
;rapid-dry
G0 Y103.738 F7200
G1 F2700 E7
;bead-solid_infill
G1 X77.412 Y104.12 F1800 E0.013
G1 X77.977 E0.014
G1 X77.03 Y103.173 E0.034
G1 Y102.607 E0.014
G1 X78.543 Y104.12 E0.053
G1 X79.109 E0.014
G1 X77.03 Y102.041 E0.074
G1 Y101.476 E0.014
G1 X79.674 Y104.12 E0.093
G1 X80.24 E0.014
G1 X77.03 Y100.91 E0.113
G1 Y100.344 E0.014
G1 X80.806 Y104.12 E0.134
G1 X81.371 E0.014
G1 X77.03 Y99.779 E0.153
G1 Y99.213 E0.014
G1 X81.937 Y104.12 E0.173
G1 X82.503 E0.014
G1 X77.03 Y98.647 E0.193
G1 Y98.082 E0.014
G1 X83.068 Y104.12 E0.213
G1 X83.634 E0.015
G1 X77.03 Y97.516 E0.233
G1 Y96.95 E0.014
G1 X84.2 Y104.12 E0.253
G1 X84.766 E0.014
G1 X77.03 Y96.384 E0.273
G1 Y95.819 E0.014
G1 X85.331 Y104.12 E0.293
G1 X85.897 E0.014
G1 X77.03 Y95.253 E0.312
G1 Y94.687 E0.015
G1 X86.463 Y104.12 E0.332
G1 X87.028 E0.014
G1 X77.03 Y94.122 E0.353
G1 Y93.556 E0.014
G1 X87.594 Y104.12 E0.373
G1 X88.16 E0.014
G1 X77.03 Y92.99 E0.393
G1 Y92.425 E0.014
G1 X88.725 Y104.12 E0.412
G1 X89.291 E0.014
G1 X77.03 Y91.859 E0.433
G1 Y91.293 E0.014
G1 X89.857 Y104.12 E0.453
G1 X90.422 E0.014
G1 X77.03 Y90.728 E0.472
G1 Y90.162 E0.014
G1 X90.988 Y104.12 E0.493
G1 X91.554 E0.014
G1 X77.03 Y89.596 E0.512
G1 Y89.031 E0.014
G1 X92.119 Y104.12 E0.533
G1 X92.685 E0.014
G1 X77.03 Y88.465 E0.552
G1 Y87.899 E0.014
G1 X93.251 Y104.12 E0.572
G1 X93.816 E0.014
G1 X77.03 Y87.334 E0.593
G1 Y86.768 E0.014
G1 X94.382 Y104.12 E0.612
G1 X94.948 E0.014
G1 X77.03 Y86.202 E0.632
G1 Y85.636 E0.014
G1 X95.514 Y104.12 E0.652
G1 X96.079 E0.014
G1 X77.439 Y85.48 E0.658
G1 X78.005 E0.014
G1 X96.645 Y104.12 E0.658
G1 X97.211 E0.014
G1 X78.571 Y85.48 E0.657
G1 X79.136 E0.014
G1 X97.776 Y104.12 E0.658
G1 X98.342 E0.014
G1 X79.702 Y85.48 E0.658
G1 X80.268 E0.014
G1 X98.908 Y104.12 E0.657
G1 X99.473 E0.015
G1 X80.833 Y85.48 E0.657
G1 X81.399 E0.014
G1 X92.275 Y96.356 E0.384
G1 X92.217 Y96.247 E0.003
G1 X92.079 Y95.87 E0.01
G1 X92.005 Y95.52 E0.009
G1 X81.965 Y85.48 E0.354
G1 X82.53 E0.014
G1 X91.978 Y94.928 E0.334
G1 X91.996 Y94.674 E0.006
G1 X92.047 Y94.431 E0.006
G1 X83.096 Y85.48 E0.316
G1 X83.662 E0.014
G1 X92.182 Y94 E0.3
G1 X92.217 Y93.903 E0.003
G1 X92.367 Y93.62 E0.008
G1 X84.227 Y85.48 E0.287
G1 X84.793 E0.014
G1 X92.597 Y93.284 E0.276
G1 X92.644 Y93.22 E0.002
G1 X92.868 Y92.989 E0.008
G1 X85.359 Y85.48 E0.265
G1 X85.925 E0.014
G1 X93.178 Y92.733 E0.256
G1 X93.238 Y92.686 E0.001
G1 X93.528 Y92.518 E0.009
G1 X86.49 Y85.48 E0.248
G1 X87.056 E0.014
G1 X93.924 Y92.348 E0.242
G1 X93.96 Y92.334 E0.001
G1 X94.349 Y92.236 E0.01
G1 X94.375 Y92.234 E0.001
G1 X87.622 Y85.48 E0.238
G1 X88.187 E0.014
G1 X94.907 Y92.2 E0.238
G1 X95.151 Y92.209 E0.006
G1 X95.548 Y92.278 E0.01
G1 X95.552 Y92.28
G1 X88.753 Y85.48 E0.24
G1 X89.319 E0.014
G1 X96.806 Y92.967 E0.264
G1 X96.837 Y92.995 E0.001
G1 X96.924 Y93.073 E0.003
G1 X96.985 Y93.146 E0.002
G1 X107.959 Y104.12 E0.387
G1 X107.393 E0.014
G1 X97.637 Y94.364 E0.345
G1 X97.653 Y94.42 E0.001
G1 X97.669 Y94.477 E0.002
G1 X97.711 Y94.772 E0.007
G1 X97.725 Y94.873 E0.003
G1 Y95.018 E0.003
G1 X106.827 Y104.12 E0.321
G1 X106.262 E0.014
G1 X97.687 Y95.545 E0.303
G1 X97.669 Y95.675 E0.003
G1 X97.58 Y95.983 E0.008
G1 X97.575 Y96 E0.001
G1 X105.696 Y104.12 E0.286
G1 X105.13 E0.014
G1 X97.408 Y96.398 E0.273
G1 X97.395 Y96.427
G1 X97.194 Y96.75 E0.01
G1 X104.565 Y104.12 E0.26
G1 X103.999 E0.014
G1 X96.938 Y97.059 E0.249
G1 X96.923 Y97.077 E0.001
G1 X96.643 Y97.329 E0.009
G1 X103.433 Y104.12 E0.24
G1 X102.867 E0.014
G1 X96.307 Y97.56 E0.231
G1 X96.291 Y97.571 E0.001
G1 X95.93 Y97.747 E0.01
G1 X95.929
G1 X102.302 Y104.12 E0.224
G1 X101.736 E0.015
G1 X95.497 Y97.881 E0.22
G1 X95.195 Y97.934 E0.007
G1 X95.151 Y97.941 E0.001
G1 X94.997 Y97.947 E0.004
G1 X101.17 Y104.12 E0.218
G1 X100.605 E0.014
G1 X94.404 Y97.919 E0.219
G1 X94.35 Y97.914 E0.001
G1 X93.958 Y97.815 E0.01
G1 X93.586 Y97.666 E0.01
G1 X93.583 Y97.664
G1 X100.039 Y104.12 E0.228
G1 F2700 E-7
;LAYER:3
M107
;rapid-dry
G0 X93.165 Y96.49 Z0.5 F7200
G1 F2700 E7
;bead-perimeter_outer
G1 X93.378 Y96.71 F1800 E0.008
G1 X93.62 Y96.899 E0.007
G1 X93.885 Y97.053 E0.008
G1 X94.17 Y97.168 E0.008
G1 X94.468 Y97.242 E0.007
G1 X94.773 Y97.274 E0.008
G1 X95.08 Y97.263 E0.008
G1 X95.383 Y97.211 E0.007
G1 X95.674 Y97.115 E0.008
G1 X95.95 Y96.981 E0.008
G1 X96.204 Y96.809 E0.007
G1 X96.433 Y96.603 E0.008
G1 X96.63 Y96.369 E0.008
G1 X96.793 Y96.108 E0.007
G1 X96.917 Y95.827 E0.008
G1 X97.002 Y95.533 E0.008
G1 X97.045 Y95.229 E0.007
G1 Y94.921 E0.008
G1 X97.002 Y94.617 E0.008
G1 X96.917 Y94.323 E0.007
G1 X96.793 Y94.042 E0.008
G1 X96.63 Y93.781 E0.008
G1 X96.433 Y93.547 E0.007
G1 X96.361 Y93.481 E0.003
G1 X96.204 Y93.341 E0.005
G1 X95.95 Y93.169 E0.008
G1 X95.674 Y93.035 E0.007
G1 X95.383 Y92.939 E0.008
G1 X95.08 Y92.887 E0.008
G1 X94.773 Y92.876 E0.007
G1 X94.468 Y92.908 E0.008
G1 X94.17 Y92.982 E0.008
G1 X93.885 Y93.097 E0.007
G1 X93.62 Y93.251 E0.008
G1 X93.378 Y93.44 E0.008
G1 X93.165 Y93.66 E0.007
G1 X92.984 Y93.909 E0.008
G1 X92.84 Y94.18 E0.008
G1 X92.734 Y94.469 E0.007
G1 X92.671 Y94.769 E0.008
G1 X92.65 Y95.075 E0.007
G1 X92.67 Y95.381 E0.008
G1 X92.734 Y95.681 E0.008
G1 X92.84 Y95.97 E0.007
G1 X92.984 Y96.241 E0.008
G1 X93.165 Y96.49 E0.008
;rapid-leaky
G0 X92.888 Y96.722 F7200
;bead-perimeter_inner
G1 X93.137 Y96.979 F2400 E0.009
G1 X93.417 Y97.198 E0.009
G1 X93.727 Y97.378 E0.008
G1 X94.059 Y97.511 E0.009
G1 X94.405 Y97.598 E0.009
G1 X94.761 Y97.635 E0.009
G1 X95.117 Y97.622 E0.009
G1 X95.47 Y97.561 E0.009
G1 X95.81 Y97.449 E0.009
G1 X96.131 Y97.293 E0.009
G1 X96.427 Y97.093 E0.009
G1 X96.693 Y96.854 E0.009
G1 X96.922 Y96.581 E0.009
G1 X97.111 Y96.278 E0.009
G1 X97.257 Y95.95 E0.008
G1 X97.355 Y95.608 E0.009
G1 X97.405 Y95.254 E0.009
G1 Y94.896 E0.009
G1 X97.355 Y94.542 E0.009
G1 X97.257 Y94.199 E0.009
G1 X97.112 Y93.873 E0.009
G1 X96.922 Y93.569 E0.009
G1 X96.693 Y93.296 E0.009
G1 X96.602 Y93.214 E0.003
G1 X96.426 Y93.056 E0.006
G1 X96.131 Y92.857 E0.009
G1 X95.81 Y92.701 E0.008
G1 X95.47 Y92.589 E0.009
G1 X95.117 Y92.528 E0.009
G1 X94.761 Y92.515 E0.009
G1 X94.405 Y92.552 E0.009
G1 X94.059 Y92.639 E0.009
G1 X93.727 Y92.772 E0.009
G1 X93.417 Y92.952 E0.009
G1 X93.137 Y93.172 E0.009
G1 X92.888 Y93.428 E0.009
G1 X92.678 Y93.718 E0.009
G1 X92.51 Y94.033 E0.009
G1 X92.388 Y94.369 E0.008
G1 X92.313 Y94.718 E0.009
G1 X92.289 Y95.075 E0.009
G1 X92.313 Y95.431 E0.009
G1 X92.388 Y95.781 E0.009
G1 X92.51 Y96.117 E0.009
G1 X92.678 Y96.432 E0.009
G1 X92.888 Y96.722 E0.009
G1 F2700 E-7
;rapid-dry
G0 X110.421 Y95.207 F7200
G1 F2700 E7
;bead-perimeter_outer
G1 X110.483 Y95.608 F1800 E0.01
G1 X110.587 Y96.001 E0.01
G1 X110.73 Y96.382 E0.01
G1 X110.912 Y96.746 E0.011
G1 X111.131 Y97.089 E0.01
G1 X111.383 Y97.408 E0.01
G1 X111.667 Y97.699 E0.01
G1 X111.979 Y97.959 E0.01
G1 X112.317 Y98.187 E0.01
G1 X112.675 Y98.377 E0.01
G1 X113.052 Y98.531 E0.01
G1 X113.443 Y98.645 E0.011
G1 X113.842 Y98.718 E0.01
G1 X114.248 Y98.749 E0.01
G1 X114.655 Y98.739 E0.01
G1 X115.058 Y98.686 E0.01
G1 X115.454 Y98.593 E0.01
G1 X115.839 Y98.459 E0.011
G1 X116.206 Y98.287 E0.01
G1 X116.555 Y98.077 E0.01
G1 X116.88 Y97.834 E0.01
G1 X117.016 Y97.709 E0.005
G1 X117.18 Y97.557 E0.005
G1 X117.447 Y97.251 E0.01
G1 X117.683 Y96.921 E0.01
G1 X117.883 Y96.567 E0.011
G1 X118.046 Y96.194 E0.01
G1 X118.17 Y95.806 E0.01
G1 X118.253 Y95.408 E0.01
G1 X118.295 Y95.003 E0.01
G1 Y94.597 E0.01
G1 X118.253 Y94.192 E0.01
G1 X118.17 Y93.794 E0.011
G1 X118.046 Y93.406 E0.01
G1 X117.883 Y93.033 E0.01
G1 X117.683 Y92.679 E0.01
G1 X117.447 Y92.349 E0.01
G1 X117.18 Y92.043 E0.01
G1 X116.88 Y91.766 E0.01
G1 X116.555 Y91.523 E0.011
G1 X116.206 Y91.313 E0.01
G1 X115.839 Y91.141 E0.01
G1 X115.454 Y91.007 E0.01
G1 X115.275 Y90.964 E0.005
G1 X115.058 Y90.914 E0.005
G1 X114.655 Y90.861 E0.01
G1 X114.248 Y90.851 E0.01
G1 X113.842 Y90.882 E0.011
G1 X113.443 Y90.955 E0.01
G1 X113.052 Y91.069 E0.01
G1 X112.675 Y91.223 E0.01
G1 X112.317 Y91.413 E0.01
G1 X111.979 Y91.641 E0.01
G1 X111.667 Y91.901 E0.01
G1 X111.383 Y92.192 E0.011
G1 X111.131 Y92.511 E0.01
G1 X110.912 Y92.854 E0.01
G1 X110.73 Y93.218 E0.01
G1 X110.587 Y93.599 E0.01
G1 X110.483 Y93.992 E0.01
G1 X110.421 Y94.393 E0.01
G1 X110.4 Y94.8 E0.011
G1 X110.421 Y95.207 E0.01
;rapid-leaky
G0 X110.062 Y95.243 F7200
;bead-perimeter_inner
G1 X110.13 Y95.682 F2400 E0.011
G1 X110.244 Y96.111 E0.011
G1 X110.4 Y96.526 E0.011
G1 X110.598 Y96.923 E0.011
G1 X110.837 Y97.298 E0.011
G1 X111.112 Y97.646 E0.011
G1 X111.422 Y97.964 E0.011
G1 X111.762 Y98.247 E0.011
G1 X112.131 Y98.496 E0.011
G1 X112.522 Y98.704 E0.011
G1 X112.934 Y98.872 E0.012
G1 X113.36 Y98.996 E0.011
G1 X113.796 Y99.075 E0.011
G1 X114.238 Y99.11 E0.011
G1 X114.683 Y99.098 E0.011
G1 X115.122 Y99.041 E0.011
G1 X115.554 Y98.94 E0.011
G1 X115.975 Y98.793 E0.011
G1 X116.376 Y98.605 E0.011
G1 X116.756 Y98.376 E0.011
G1 X117.11 Y98.111 E0.011
G1 X117.26 Y97.973 E0.005
G1 X117.438 Y97.808 E0.006
G1 X117.73 Y97.475 E0.011
G1 X117.987 Y97.114 E0.011
G1 X118.206 Y96.728 E0.012
G1 X118.384 Y96.321 E0.011
G1 X118.518 Y95.897 E0.011
G1 X118.609 Y95.464 E0.011
G1 X118.655 Y95.022 E0.011
G1 Y94.578 E0.011
G1 X118.609 Y94.136 E0.011
G1 X118.518 Y93.703 E0.011
G1 X118.384 Y93.279 E0.011
G1 X118.206 Y92.872 E0.011
G1 X117.987 Y92.486 E0.011
G1 X117.73 Y92.125 E0.011
G1 X117.438 Y91.792 E0.011
G1 X117.111 Y91.489 E0.011
G1 X116.756 Y91.224 E0.012
G1 X116.376 Y90.995 E0.011
G1 X115.975 Y90.807 E0.011
G1 X115.555 Y90.661 E0.011
G1 X115.357 Y90.614 E0.005
G1 X115.122 Y90.559 E0.006
G1 X114.683 Y90.502 E0.011
G1 X114.238 Y90.49 E0.011
G1 X113.796 Y90.525 E0.011
G1 X113.36 Y90.604 E0.011
G1 X112.934 Y90.728 E0.011
G1 X112.522 Y90.896 E0.011
G1 X112.131 Y91.104 E0.011
G1 X111.762 Y91.353 E0.011
G1 X111.422 Y91.636 E0.011
G1 X111.112 Y91.954 E0.012
G1 X110.837 Y92.302 E0.011
G1 X110.598 Y92.677 E0.011
G1 X110.4 Y93.074 E0.011
G1 X110.244 Y93.489 E0.011
G1 X110.13 Y93.918 E0.011
G1 X110.062 Y94.356 E0.011
G1 X110.039 Y94.8 E0.011
G1 X110.062 Y95.243 E0.011
G1 F2700 E-7
;rapid-dry
G0 X76.35 Y104.8 F7200
G1 F2700 E7
;bead-perimeter_outer
G1 Y84.8 F1800 E0.499
G1 X143.65 E1.679
G1 Y104.8 E0.499
G1 X76.35 E1.679
;rapid-leaky
G0 X76.71 Y104.44 F7200
;bead-perimeter_inner
G1 Y85.16 F2400 E0.48
G1 X143.29 E1.661
G1 Y104.44 E0.481
G1 X76.71 E1.661
G1 F2700 E-7
;rapid-dry
G0 X76.35 Y115.2 F7200
G1 F2700 E7
;bead-perimeter_outer
G1 X143.65 F1800 E1.679
G1 Y135.2 E0.499
G1 X76.35 E1.679
G1 Y115.2 E0.499
;rapid-leaky
G0 X76.71 Y115.56 F7200
;bead-perimeter_inner
G1 X143.29 F2400 E1.66
G1 Y134.84 E0.481
G1 X76.71 E1.661
G1 Y115.56 E0.481
;rapid-leaky
G0 X77.412 Y115.88 F7200
;bead-solid_infill
G1 X77.03 Y116.262 F1800 E0.014
G1 Y116.827 E0.014
G1 X77.977 Y115.88 E0.033
G1 X78.543 E0.014
G1 X77.03 Y117.393 E0.054
G1 Y117.959 E0.014
G1 X79.109 Y115.88 E0.073
G1 X79.674 E0.014
G1 X77.03 Y118.524 E0.093
G1 Y119.09 E0.015
G1 X80.24 Y115.88 E0.113
G1 X80.806 E0.014
G1 X77.03 Y119.656 E0.133
G1 Y120.221 E0.014
G1 X81.371 Y115.88 E0.153
G1 X81.937 E0.014
G1 X77.03 Y120.787 E0.174
G1 Y121.353 E0.014
G1 X82.503 Y115.88 E0.193
G1 X83.068 E0.014
G1 X77.03 Y121.918 E0.213
G1 Y122.484 E0.014
G1 X83.634 Y115.88 E0.233
G1 X84.2 E0.014
G1 X77.03 Y123.05 E0.253
G1 Y123.616 E0.014
G1 X84.766 Y115.88 E0.273
G1 X85.331 E0.014
G1 X77.03 Y124.181 E0.293
G1 Y124.747 E0.014
G1 X85.897 Y115.88 E0.313
G1 X86.463 E0.014
G1 X77.03 Y125.313 E0.333
G1 Y125.878 E0.014
G1 X87.028 Y115.88 E0.353
G1 X87.594 E0.014
G1 X77.03 Y126.444 E0.372
G1 Y127.01 E0.014
G1 X88.16 Y115.88 E0.393
G1 X88.725 E0.014
G1 X77.03 Y127.575 E0.413
G1 Y128.141 E0.014
G1 X89.291 Y115.88 E0.432
G1 X89.857 E0.015
G1 X77.03 Y128.707 E0.452
G1 Y129.272 E0.014
G1 X90.422 Y115.88 E0.473
G1 X90.988 E0.014
G1 X77.03 Y129.838 E0.492
G1 Y130.404 E0.014
G1 X91.554 Y115.88 E0.513
G1 X92.119 E0.014
G1 X77.03 Y130.969 E0.532
G1 Y131.535 E0.014
G1 X92.685 Y115.88 E0.552
G1 X93.251 E0.015
G1 X77.03 Y132.101 E0.572
G1 Y132.666 E0.014
G1 X93.816 Y115.88 E0.592
G1 X94.382 E0.014
G1 X77.03 Y133.232 E0.612
G1 Y133.798 E0.014
G1 X94.948 Y115.88 E0.633
G1 X95.514 E0.014
G1 X77.03 Y134.364 E0.652
G1 Y134.52 E0.004
G1 X77.439 E0.01
G1 X96.079 Y115.88 E0.657
G1 X96.645 E0.015
G1 X78.005 Y134.52 E0.657
G1 X78.571 E0.014
G1 X97.211 Y115.88 E0.658
G1 X97.776 E0.014
G1 X79.136 Y134.52 E0.657
G1 X79.702 E0.015
G1 X98.342 Y115.88 E0.657
G1 X98.908 E0.014
G1 X80.268 Y134.52 E0.658
G1 X80.833 E0.014
G1 X99.473 Y115.88 E0.658
G1 X100.039 E0.014
G1 X81.399 Y134.52 E0.657
G1 X81.965 E0.014
G1 X100.605 Y115.88 E0.658
G1 X101.17 E0.014
G1 X82.53 Y134.52 E0.658
G1 X83.096 E0.014
G1 X101.736 Y115.88 E0.657
G1 X102.302 E0.014
G1 X83.662 Y134.52 E0.658
G1 X84.227 E0.014
G1 X102.867 Y115.88 E0.658
G1 X103.433 E0.014
G1 X84.793 Y134.52 E0.657
G1 X85.359 E0.014
G1 X103.999 Y115.88 E0.658
G1 X104.565 E0.014
G1 X85.925 Y134.52 E0.658
G1 X86.49 E0.014
G1 X105.13 Y115.88 E0.657
G1 X105.696 E0.015
G1 X87.056 Y134.52 E0.657
G1 X87.622 E0.014
G1 X106.262 Y115.88 E0.658
G1 X106.827 E0.014
G1 X88.187 Y134.52 E0.657
G1 X88.753 E0.015
G1 X107.393 Y115.88 E0.657
G1 X107.959 E0.014
G1 X89.319 Y134.52 E0.658
G1 X89.884 E0.014
G1 X108.524 Y115.88 E0.658
G1 X109.09 E0.014
G1 X90.45 Y134.52 E0.657
G1 X91.016 E0.014
G1 X109.656 Y115.88 E0.658
G1 X110.221 E0.014
G1 X91.581 Y134.52 E0.658
G1 X92.147 E0.014
G1 X110.787 Y115.88 E0.657
G1 X111.353 E0.014
G1 X92.713 Y134.52 E0.658
G1 X93.278 E0.014
G1 X111.918 Y115.88 E0.658
G1 X112.484 E0.014
G1 X93.844 Y134.52 E0.657
G1 X94.41 E0.014
G1 X113.05 Y115.88 E0.658
G1 X113.615 E0.014
G1 X94.975 Y134.52 E0.658
G1 X95.541 E0.014
G1 X114.181 Y115.88 E0.657
G1 X114.747 E0.014
G1 X96.107 Y134.52 E0.658
G1 X96.673 E0.014
G1 X115.313 Y115.88 E0.658
G1 X115.878 E0.014
G1 X97.238 Y134.52 E0.657
G1 X97.804 E0.015
G1 X116.444 Y115.88 E0.657
G1 X117.01 E0.014
G1 X98.37 Y134.52 E0.658
G1 X98.935 E0.014
G1 X117.575 Y115.88 E0.658
G1 X118.141 E0.014
G1 X99.501 Y134.52 E0.657
G1 X100.067 E0.014
G1 X118.707 Y115.88 E0.658
G1 X119.272 E0.014
G1 X100.632 Y134.52 E0.658
G1 X101.198 E0.014
G1 X119.838 Y115.88 E0.657
G1 X120.404 E0.014
G1 X101.764 Y134.52 E0.658
G1 X102.329 E0.014
G1 X120.969 Y115.88 E0.658
G1 X121.535 E0.014
G1 X102.895 Y134.52 E0.657
G1 X103.461 E0.014
G1 X122.101 Y115.88 E0.658
G1 X122.666 E0.014
G1 X104.026 Y134.52 E0.658
G1 X104.592 E0.014
G1 X123.232 Y115.88 E0.657
G1 X123.798 E0.015
G1 X105.158 Y134.52 E0.657
G1 X105.723 E0.014
G1 X124.363 Y115.88 E0.658
G1 X124.929 E0.014
G1 X106.289 Y134.52 E0.657
G1 X106.855 E0.015
G1 X125.495 Y115.88 E0.657
G1 X126.061 E0.014
G1 X107.421 Y134.52 E0.658
G1 X107.986 E0.014
G1 X126.626 Y115.88 E0.658
G1 X127.192 E0.014
G1 X108.552 Y134.52 E0.657
G1 X109.118 E0.014
G1 X127.758 Y115.88 E0.658
G1 X128.323 E0.014
G1 X109.683 Y134.52 E0.658
G1 X110.249 E0.014
G1 X128.889 Y115.88 E0.657
G1 X129.455 E0.014
G1 X110.815 Y134.52 E0.658
G1 X111.38 E0.014
G1 X130.02 Y115.88 E0.658
G1 X130.586 E0.014
G1 X111.946 Y134.52 E0.657
G1 X112.512 E0.014
G1 X131.152 Y115.88 E0.658
G1 X131.717 E0.014
G1 X113.077 Y134.52 E0.658
G1 X113.643 E0.014
G1 X132.283 Y115.88 E0.657
G1 X132.849 E0.015
G1 X114.209 Y134.52 E0.657
G1 X114.774 E0.014
G1 X133.414 Y115.88 E0.658
G1 X133.98 E0.014
G1 X115.34 Y134.52 E0.657
G1 X115.906 E0.015
G1 X134.546 Y115.88 E0.657
G1 X135.112 E0.014
G1 X116.472 Y134.52 E0.658
G1 X117.037 E0.014
G1 X135.677 Y115.88 E0.658
G1 X136.243 E0.014
G1 X117.603 Y134.52 E0.657
G1 X118.169 E0.014
G1 X136.809 Y115.88 E0.658
G1 X137.374 E0.014
G1 X118.734 Y134.52 E0.658
G1 X119.3 E0.014
G1 X137.94 Y115.88 E0.657
G1 X138.506 E0.014
G1 X119.866 Y134.52 E0.658
G1 X120.431 E0.014
G1 X139.071 Y115.88 E0.658
G1 X139.637 E0.014
G1 X120.997 Y134.52 E0.657
G1 X121.563 E0.014
G1 X140.203 Y115.88 E0.658
G1 X140.768 E0.014
G1 X122.128 Y134.52 E0.658
G1 X122.694 E0.014
G1 X141.334 Y115.88 E0.657
G1 X141.9 E0.015
G1 X123.26 Y134.52 E0.657
G1 X123.825 E0.014
G1 X142.465 Y115.88 E0.658
G1 X142.97 E0.012
G1 Y115.941 E0.002
G1 X124.391 Y134.52 E0.655
G1 X124.957 E0.014
G1 X142.97 Y116.507 E0.636
G1 Y117.072 E0.014
G1 X125.522 Y134.52 E0.615
G1 X126.088 E0.015
G1 X142.97 Y117.638 E0.595
G1 Y118.204 E0.014
G1 X126.654 Y134.52 E0.576
G1 X127.22 E0.014
G1 X142.97 Y118.77 E0.556
G1 Y119.335 E0.014
G1 X127.785 Y134.52 E0.535
G1 X128.351 E0.015
G1 X142.97 Y119.901 E0.515
G1 Y120.467 E0.014
G1 X128.917 Y134.52 E0.496
G1 X129.482 E0.014
G1 X142.97 Y121.032 E0.476
G1 Y121.598 E0.014
G1 X130.048 Y134.52 E0.456
G1 X130.614 E0.014
G1 X142.97 Y122.164 E0.436
G1 Y122.729 E0.014
G1 X131.179 Y134.52 E0.416
G1 X131.745 E0.014
G1 X142.97 Y123.295 E0.396
G1 Y123.861 E0.014
G1 X132.311 Y134.52 E0.376
G1 X132.876 E0.014
G1 X142.97 Y124.426 E0.357
G1 Y124.992 E0.014
G1 X133.442 Y134.52 E0.336
G1 X134.008 E0.014
G1 X142.97 Y125.558 E0.316
G1 Y126.123 E0.014
G1 X134.573 Y134.52 E0.296
G1 X135.139 E0.014
G1 X142.97 Y126.689 E0.277
G1 Y127.255 E0.014
G1 X135.705 Y134.52 E0.256
G1 X136.271 E0.014
G1 X142.97 Y127.821 E0.237
G1 Y128.386 E0.014
G1 X136.836 Y134.52 E0.216
G1 X137.402 E0.014
G1 X142.97 Y128.952 E0.197
G1 Y129.518 E0.014
G1 X137.968 Y134.52 E0.176
G1 X138.533 E0.014
G1 X142.97 Y130.083 E0.157
G1 Y130.649 E0.014
G1 X139.099 Y134.52 E0.137
G1 X139.665 E0.014
G1 X142.97 Y131.215 E0.116
G1 Y131.78 E0.014
G1 X140.23 Y134.52 E0.097
G1 X140.796 E0.014
G1 X142.97 Y132.346 E0.077
G1 Y132.912 E0.014
G1 X141.362 Y134.52 E0.057
G1 X141.927 E0.014
G1 X142.97 Y133.477 E0.037
G1 Y134.043 E0.014
G1 X142.493 Y134.52 E0.016
G1 F2700 E-7
;rapid-dry
G0 X142.97 Y104.062 F7200
G1 F2700 E7
;bead-solid_infill
G1 X142.912 Y104.12 F1800 E0.003
G1 X142.346 E0.014
G1 X142.97 Y103.496 E0.022
G1 Y102.93 E0.014
G1 X141.78 Y104.12 E0.042
G1 X141.215 E0.014
G1 X142.97 Y102.365 E0.062
G1 Y101.799 E0.014
G1 X140.649 Y104.12 E0.082
G1 X140.083 E0.014
G1 X142.97 Y101.233 E0.102
G1 Y100.668 E0.014
G1 X139.518 Y104.12 E0.122
G1 X138.952 E0.014
G1 X142.97 Y100.102 E0.141
G1 Y99.536 E0.015
G1 X138.386 Y104.12 E0.161
G1 X137.821 E0.014
G1 X142.97 Y98.971 E0.182
G1 Y98.405 E0.014
G1 X137.255 Y104.12 E0.202
G1 X136.689 E0.014
G1 X142.97 Y97.839 E0.221
G1 Y97.273 E0.015
G1 X136.123 Y104.12 E0.241
G1 X135.558 E0.014
G1 X142.97 Y96.708 E0.262
G1 Y96.142 E0.014
G1 X134.992 Y104.12 E0.281
G1 X134.426 E0.014
G1 X142.97 Y95.576 E0.302
G1 Y95.011 E0.014
G1 X133.861 Y104.12 E0.321
G1 X133.295 E0.014
G1 X142.97 Y94.445 E0.342
G1 Y93.879 E0.014
G1 X132.729 Y104.12 E0.361
G1 X132.164 E0.014
G1 X142.97 Y93.314 E0.381
G1 Y92.748 E0.015
G1 X131.598 Y104.12 E0.401
G1 X131.032 E0.014
G1 X142.97 Y92.182 E0.421
G1 Y91.617 E0.014
G1 X130.467 Y104.12 E0.441
G1 X129.901 E0.014
G1 X142.97 Y91.051 E0.461
G1 Y90.485 E0.014
G1 X129.335 Y104.12 E0.481
G1 X128.77 E0.015
G1 X142.97 Y89.92 E0.5
G1 Y89.354 E0.015
G1 X128.204 Y104.12 E0.52
G1 X127.638 E0.015
G1 X142.97 Y88.788 E0.54
G1 Y88.223 E0.015
G1 X127.073 Y104.12 E0.56
G1 X126.507 E0.015
G1 X142.97 Y87.657 E0.58
G1 Y87.091 E0.014
G1 X125.941 Y104.12 E0.601
G1 X125.375 E0.014
G1 X142.97 Y86.525 E0.621
G1 Y85.96 E0.014
G1 X124.81 Y104.12 E0.641
G1 X124.244 E0.014
G1 X142.884 Y85.48 E0.657
G1 X142.318 E0.015
G1 X123.678 Y104.12 E0.657
G1 X123.113 E0.014
G1 X141.753 Y85.48 E0.658
G1 X141.187 E0.014
G1 X122.547 Y104.12 E0.657
G1 X121.981 E0.015
G1 X140.621 Y85.48 E0.657
G1 X140.056 E0.014
G1 X121.416 Y104.12 E0.658
G1 X120.85 E0.014
G1 X139.49 Y85.48 E0.658
G1 X138.924 E0.014
G1 X120.284 Y104.12 E0.657
G1 X119.719 E0.014
G1 X138.359 Y85.48 E0.658
G1 X137.793 E0.014
G1 X119.153 Y104.12 E0.658
G1 X118.587 E0.014
G1 X137.227 Y85.48 E0.657
G1 X136.662 E0.014
G1 X118.022 Y104.12 E0.658
G1 X117.456 E0.014
G1 X136.096 Y85.48 E0.658
G1 X135.53 E0.014
G1 X116.89 Y104.12 E0.657
G1 X116.325 E0.014
G1 X134.965 Y85.48 E0.658
G1 X134.399 E0.014
G1 X115.759 Y104.12 E0.658
G1 X115.193 E0.014
G1 X133.833 Y85.48 E0.657
G1 X133.267 E0.015
G1 X114.627 Y104.12 E0.657
G1 X114.062 E0.014
G1 X132.702 Y85.48 E0.658
G1 X132.136 E0.014
G1 X113.496 Y104.12 E0.657
G1 X112.93 E0.015
G1 X131.57 Y85.48 E0.657
G1 X131.005 E0.014
G1 X112.365 Y104.12 E0.658
G1 X111.799 E0.014
G1 X130.439 Y85.48 E0.658
G1 F2700 E-7
;rapid-dry
G0 X117.428 F7200
G1 F2700 E7
;bead-solid_infill
G1 X112.207 Y90.702 F1800 E0.184
G1 X112.386 Y90.606 E0.005
G1 X112.828 Y90.426 E0.012
G1 X112.978 Y90.382 E0.004
G1 X113.138 Y90.336 E0.004
G1 X117.994 Y85.48 E0.171
G1 X118.56 E0.014
G1 X113.839 Y90.201 E0.167
G1 X114.23 Y90.17 E0.01
G1 X114.43 Y90.175 E0.004
G1 X119.125 Y85.48 E0.166
G1 X119.691 E0.014
G1 X114.956 Y90.215 E0.167
G1 X115.122 Y90.237 E0.004
G1 X115.179 Y90.244 E0.002
G1 X115.325 Y90.278 E0.004
G1 X115.43 Y90.302 E0.002
G1 X115.434 Y90.303
G1 X120.257 Y85.48 E0.171
G1 X120.822 E0.014
G1 X115.871 Y90.432 E0.174
G1 X116.096 Y90.51 E0.006
G1 X116.274 Y90.594 E0.005
G1 X121.388 Y85.48 E0.181
G1 X121.954 E0.014
G1 X116.648 Y90.786 E0.187
G1 X116.934 Y90.958 E0.008
G1 X116.996 Y91.004 E0.002
G1 X122.519 Y85.48 E0.195
G1 X123.085 E0.014
G1 X117.319 Y91.246 E0.204
G1 X117.613 Y91.518 E0.01
G1 X123.651 Y85.48 E0.213
G1 X124.216 E0.014
G1 X117.883 Y91.814 E0.223
G1 X117.981 Y91.926 E0.004
G1 X118.129 Y92.133 E0.006
G1 X124.782 Y85.48 E0.235
G1 X125.348 E0.014
G1 X118.35 Y92.478 E0.247
G1 X118.492 Y92.729 E0.007
G1 X118.545 Y92.849 E0.003
G1 X125.914 Y85.48 E0.26
G1 X126.479 E0.014
G1 X118.71 Y93.249 E0.274
G1 X118.828 Y93.621 E0.01
G1 X118.841 Y93.684 E0.002
G1 X127.045 Y85.48 E0.289
G1 X127.611 E0.014
G1 X118.933 Y94.158 E0.306
G1 X118.975 Y94.561 E0.011
G1 Y94.681 E0.003
G1 X128.176 Y85.48 E0.324
G1 X128.742 E0.014
G1 X118.951 Y95.271 E0.346
G1 X118.926 Y95.513 E0.006
G1 X118.892 Y95.674 E0.004
G1 X118.833 Y95.954 E0.007
G1 X129.308 Y85.48 E0.369
G1 X129.873 E0.015
G1 X118.5 Y96.854 E0.401
G1 X118.492 Y96.871
G1 X118.257 Y97.286 E0.012
G1 X117.981 Y97.674 E0.012
G1 X117.668 Y98.031 E0.012
G1 X117.588 Y98.106 E0.003
G1 X117.478 Y98.208 E0.003
G1 X117.315 Y98.358 E0.006
G1 X117.166 Y98.469 E0.005
G1 X116.934 Y98.642 E0.007
G1 X116.527 Y98.887 E0.012
G1 X116.412 Y98.941 E0.003
G1 X111.233 Y104.12 E0.183
G1 X110.668 E0.014
G1 X115.509 Y99.279 E0.17
G1 X115.18 Y99.356 E0.009
G1 X114.819 Y99.403 E0.009
G1 X110.102 Y104.12 E0.166
G1 X109.536 E0.014
G1 X114.227 Y99.43 E0.166
G1 X113.755 Y99.393 E0.012
G1 X113.707 Y99.384 E0.001
G1 X108.971 Y104.12 E0.167
G1 X108.405 E0.014
G1 X113.233 Y99.292 E0.17
G1 X112.828 Y99.174 E0.011
G1 X112.798 Y99.162 E0.001
G1 X107.839 Y104.12 E0.175
G1 X107.274 E0.014
G1 X112.396 Y98.998 E0.181
G1 X112.386 Y98.994
G1 X112.026 Y98.802 E0.01
G1 X106.708 Y104.12 E0.188
G1 X106.142 E0.014
G1 X111.683 Y98.58 E0.195
G1 X111.57 Y98.504 E0.003
G1 X111.364 Y98.332 E0.007
G1 X105.576 Y104.12 E0.204
G1 X105.011 E0.014
G1 X111.07 Y98.061 E0.214
G1 X110.871 Y97.858 E0.007
G1 X110.799 Y97.766 E0.003
G1 X104.445 Y104.12 E0.224
G1 X103.879 E0.014
G1 X110.553 Y97.447 E0.236
G1 X110.332 Y97.102 E0.01
G1 X103.314 Y104.12 E0.248
G1 X102.748 E0.014
G1 X110.142 Y96.726 E0.261
G1 X110.106 Y96.654 E0.002
G1 X109.981 Y96.321 E0.009
G1 X102.182 Y104.12 E0.275
G1 X101.617 E0.014
G1 X109.853 Y95.884 E0.29
G1 X109.817 Y95.748 E0.004
G1 X109.764 Y95.407 E0.008
G1 X101.051 Y104.12 E0.308
G1 X100.485 E0.014
G1 X109.723 Y94.882 E0.326
G1 X109.719 Y94.8 E0.002
G1 X109.744 Y94.324 E0.012
G1 X109.749 Y94.291 E0.001
G1 X99.92 Y104.12 E0.346
G1 X99.354 E0.014
G1 X109.887 Y93.587 E0.372
G1 X109.939 Y93.392 E0.005
G1 X110.062 Y93.062 E0.009
G1 X110.106 Y92.946 E0.003
G1 X110.249 Y92.659 E0.008
G1 X98.788 Y104.12 E0.404
G1 X98.223 E0.014
G1 X116.863 Y85.48 E0.658
G1 X116.297 E0.014
G1 X97.657 Y104.12 E0.658
G1 X97.091 E0.014
G1 X115.731 Y85.48 E0.657
G1 X115.166 E0.014
G1 X96.526 Y104.12 E0.658
G1 X95.96 E0.014
G1 X114.6 Y85.48 E0.658
G1 X114.034 E0.014
G1 X95.394 Y104.12 E0.657
G1 X94.828 E0.014
G1 X113.468 Y85.48 E0.658
G1 X112.903 E0.014
G1 X94.263 Y104.12 E0.658
G1 X93.697 E0.014
G1 X112.337 Y85.48 E0.657
G1 X111.771 E0.015
G1 X93.131 Y104.12 E0.657
G1 X92.566 E0.014
G1 X111.206 Y85.48 E0.658
G1 X110.64 E0.014
G1 X92 Y104.12 E0.657
G1 X91.434 E0.015
G1 X110.074 Y85.48 E0.657
G1 X109.509 E0.014
G1 X90.869 Y104.12 E0.658
G1 X90.303 E0.014
G1 X108.943 Y85.48 E0.658
G1 F2700 E-7
;rapid-dry
G0 X100.458 F7200
G1 F2700 E7
;bead-solid_infill
G1 X93.27 Y92.668 F1800 E0.253
G1 X93.586 Y92.484 E0.009
G1 X93.96 Y92.334 E0.01
G1 X94.24 Y92.264 E0.007
G1 X101.023 Y85.48 E0.24
G1 X101.589 E0.014
G1 X94.87 Y92.199 E0.237
G1 X95.151 Y92.209 E0.007
G1 X95.385 Y92.25 E0.006
G1 X102.155 Y85.48 E0.239
G1 X102.72 E0.014
G1 X95.83 Y92.371 E0.243
G1 X95.93 Y92.404 E0.002
G1 X96.221 Y92.545 E0.009
G1 X103.286 Y85.48 E0.249
G1 X103.852 E0.014
G1 X96.567 Y92.765 E0.257
G1 X96.624 Y92.804 E0.002
G1 X96.816 Y92.976 E0.006
G1 X96.839 Y92.997 E0.001
G1 X96.871 Y93.026 E0.001
G1 X104.417 Y85.48 E0.266
G1 X104.983 E0.014
G1 X97.137 Y93.327 E0.277
G1 X97.182 Y93.38 E0.002
G1 X97.287 Y93.548 E0.005
G1 X97.361 Y93.668 E0.003
G1 X105.549 Y85.48 E0.289
G1 X106.115 E0.014
G1 X97.542 Y94.053 E0.303
G1 X97.558 Y94.09 E0.001
G1 X97.669 Y94.475 E0.01
G1 X97.671 Y94.489
G1 X106.68 Y85.48 E0.318
G1 X107.246 E0.014
G1 X97.725 Y95.001 E0.336
G1 Y95.277 E0.007
G1 X97.677 Y95.614 E0.008
G1 X107.812 Y85.48 E0.358
G1 X108.377 E0.014
G1 X97.338 Y96.519 E0.389
G1 X97.288 Y96.599 E0.003
G1 X97.182 Y96.77 E0.005
G1 X96.923 Y97.077 E0.01
G1 X96.624 Y97.346 E0.01
G1 X96.291 Y97.571 E0.01
G1 X96.282 Y97.576
G1 X89.737 Y104.12 E0.231
G1 X89.172 E0.014
G1 X95.393 Y97.899 E0.219
G1 X95.151 Y97.941 E0.007
G1 X94.771 Y97.955 E0.009
G1 X88.606 Y104.12 E0.218
G1 X88.04 E0.014
G1 X94.267 Y97.893 E0.219
G1 X93.96 Y97.816 E0.008
G1 X93.83 Y97.764 E0.004
G1 X87.475 Y104.12 E0.224
G1 X86.909 E0.014
G1 X93.445 Y97.584 E0.231
G1 X93.37 Y97.54 E0.002
G1 X93.238 Y97.464 E0.004
G1 X93.104 Y97.359 E0.004
G1 X86.343 Y104.12 E0.238
G1 X85.777 E0.014
G1 X92.803 Y97.094 E0.248
G1 X92.643 Y96.929 E0.006
G1 X92.542 Y96.79 E0.004
G1 X85.212 Y104.12 E0.259
G1 X84.646 E0.014
G1 X92.322 Y96.444 E0.271
G1 X92.217 Y96.247 E0.005
G1 X92.147 Y96.054 E0.006
G1 X84.08 Y104.12 E0.284
G1 X83.515 E0.014
G1 X92.024 Y95.611 E0.3
G1 X91.995 Y95.475 E0.004
G1 X91.97 Y95.099 E0.009
G1 X82.949 Y104.12 E0.318
G1 X82.383 E0.015
G1 X92.04 Y94.463 E0.34
G1 X92.079 Y94.28 E0.005
G1 X92.217 Y93.903 E0.01
G1 X92.406 Y93.548 E0.01
G1 X92.448 Y93.49 E0.002
G1 X81.818 Y104.12 E0.375
G1 X81.252 E0.014
G1 X99.892 Y85.48 E0.657
G1 X99.326 E0.015
G1 X80.686 Y104.12 E0.657
G1 X80.121 E0.014
G1 X98.761 Y85.48 E0.658
G1 X98.195 E0.014
G1 X79.555 Y104.12 E0.657
G1 X78.989 E0.015
G1 X97.629 Y85.48 E0.657
G1 X97.064 E0.014
G1 X78.424 Y104.12 E0.658
G1 X77.858 E0.014
G1 X96.498 Y85.48 E0.658
G1 X95.932 E0.014
G1 X77.292 Y104.12 E0.657
G1 X77.03 E0.007
G1 Y103.817 E0.007
G1 X95.367 Y85.48 E0.647
G1 X94.801 E0.014
G1 X77.03 Y103.251 E0.627
G1 Y102.685 E0.014
G1 X94.235 Y85.48 E0.607
G1 X93.669 E0.014
G1 X77.03 Y102.119 E0.587
G1 Y101.554 E0.014
G1 X93.104 Y85.48 E0.568
G1 X92.538 E0.014
G1 X77.03 Y100.988 E0.547
G1 Y100.422 E0.014
G1 X91.972 Y85.48 E0.527
G1 X91.407 E0.014
G1 X77.03 Y99.857 E0.507
G1 Y99.291 E0.014
G1 X90.841 Y85.48 E0.488
G1 X90.275 E0.014
G1 X77.03 Y98.725 E0.467
G1 Y98.16 E0.014
G1 X89.71 Y85.48 E0.447
G1 X89.144 E0.015
G1 X77.03 Y97.594 E0.427
G1 Y97.028 E0.014
G1 X88.578 Y85.48 E0.407
G1 X88.013 E0.015
G1 X77.03 Y96.463 E0.387
G1 Y95.897 E0.014
G1 X87.447 Y85.48 E0.368
G1 X86.881 E0.014
G1 X77.03 Y95.331 E0.347
G1 Y94.766 E0.014
G1 X86.316 Y85.48 E0.328
G1 X85.75 E0.014
G1 X77.03 Y94.2 E0.308
G1 Y93.634 E0.014
G1 X85.184 Y85.48 E0.287
G1 X84.618 E0.014
G1 X77.03 Y93.069 E0.268
G1 Y92.503 E0.014
G1 X84.053 Y85.48 E0.248
G1 X83.487 E0.014
G1 X77.03 Y91.937 E0.228
G1 Y91.371 E0.014
G1 X82.921 Y85.48 E0.208
G1 X82.356 E0.014
G1 X77.03 Y90.806 E0.188
G1 Y90.24 E0.014
G1 X81.79 Y85.48 E0.168
G1 X81.224 E0.014
G1 X77.03 Y89.674 E0.148
G1 Y89.109 E0.014
G1 X80.659 Y85.48 E0.128
G1 X80.093 E0.014
G1 X77.03 Y88.543 E0.108
G1 Y87.977 E0.014
G1 X79.527 Y85.48 E0.088
G1 X78.962 E0.015
G1 X77.03 Y87.412 E0.068
G1 Y86.846 E0.014
G1 X78.396 Y85.48 E0.048
G1 X77.83 E0.014
G1 X77.03 Y86.28 E0.028
G1 Y85.715 E0.014
G1 X77.265 Y85.48 E0.009
G1 F2700 E-7
;LAYER:4
M106 S255
;rapid-leaky
G0 X76.35 Y84.8 Z0.65 F7200
G1 F2700 E7
;bead-perimeter_outer
G1 X143.65 F1800 E1.679
G1 Y104.8 E0.499
G1 X76.35 E1.678
G1 Y84.8 E0.499
;rapid-leaky
G0 X76.71 Y85.16 F7200
;bead-perimeter_inner
G1 X143.29 F2400 E1.661
G1 Y104.44 E0.481
G1 X76.71 E1.661
G1 Y85.16 E0.481
;rapid-leaky
G0 X93.378 Y93.44 F7200
;bead-perimeter_outer
G1 X93.165 Y93.66 F1800 E0.007
G1 X92.984 Y93.909 E0.008
G1 X92.84 Y94.18 E0.008
G1 X92.734 Y94.469 E0.007
G1 X92.671 Y94.769 E0.008
G1 X92.65 Y95.075 E0.008
G1 X92.67 Y95.381 E0.007
G1 X92.734 Y95.681 E0.008
G1 X92.84 Y95.969 E0.008
G1 X92.984 Y96.241 E0.007
G1 X93.165 Y96.49 E0.008
G1 X93.378 Y96.71 E0.008
G1 X93.477 Y96.788 E0.003
G1 X93.62 Y96.899 E0.004
G1 X93.885 Y97.053 E0.008
G1 X94.17 Y97.168 E0.008
G1 X94.468 Y97.242 E0.007
G1 X94.773 Y97.274 E0.008
G1 X95.08 Y97.263 E0.008
G1 X95.383 Y97.211 E0.007
G1 X95.674 Y97.115 E0.008
G1 X95.95 Y96.981 E0.008
G1 X96.204 Y96.809 E0.007
G1 X96.433 Y96.603 E0.008
G1 X96.63 Y96.369 E0.008
G1 X96.793 Y96.108 E0.007
G1 X96.917 Y95.828 E0.008
G1 X97.002 Y95.533 E0.008
G1 X97.045 Y95.229 E0.007
G1 Y94.921 E0.008
G1 X97.002 Y94.617 E0.008
G1 X96.917 Y94.323 E0.007
G1 X96.793 Y94.042 E0.008
G1 X96.63 Y93.781 E0.008
G1 X96.433 Y93.546 E0.007
G1 X96.204 Y93.341 E0.008
G1 X95.95 Y93.169 E0.007
G1 X95.674 Y93.035 E0.008
G1 X95.383 Y92.939 E0.008
G1 X95.08 Y92.887 E0.007
G1 X94.773 Y92.876 E0.008
G1 X94.468 Y92.908 E0.008
G1 X94.17 Y92.982 E0.007
G1 X93.885 Y93.097 E0.008
G1 X93.62 Y93.251 E0.008
G1 X93.378 Y93.44 E0.007
;rapid-leaky
G0 X93.137 Y93.172 F7200
;bead-perimeter_inner
G1 X92.888 Y93.428 F2400 E0.009
G1 X92.678 Y93.718 E0.009
G1 X92.51 Y94.033 E0.009
G1 X92.388 Y94.369 E0.009
G1 X92.313 Y94.718 E0.009
G1 X92.289 Y95.076 E0.009
G1 X92.313 Y95.431 E0.009
G1 X92.388 Y95.781 E0.009
G1 X92.51 Y96.116 E0.009
G1 X92.678 Y96.433 E0.009
G1 X92.888 Y96.722 E0.009
G1 X93.137 Y96.978 E0.008
G1 X93.255 Y97.071 E0.004
G1 X93.418 Y97.198 E0.005
G1 X93.727 Y97.378 E0.009
G1 X94.059 Y97.511 E0.009
G1 X94.405 Y97.598 E0.009
G1 X94.761 Y97.635 E0.009
G1 X95.117 Y97.622 E0.009
G1 X95.47 Y97.561 E0.009
G1 X95.81 Y97.449 E0.009
G1 X96.131 Y97.293 E0.009
G1 X96.427 Y97.093 E0.009
G1 X96.693 Y96.854 E0.008
G1 X96.922 Y96.581 E0.009
G1 X97.112 Y96.277 E0.009
G1 X97.256 Y95.951 E0.009
G1 X97.355 Y95.608 E0.009
G1 X97.405 Y95.254 E0.009
G1 Y94.896 E0.009
G1 X97.355 Y94.542 E0.009
G1 X97.257 Y94.199 E0.009
G1 X97.112 Y93.873 E0.009
G1 X96.923 Y93.57 E0.009
G1 X96.692 Y93.295 E0.008
G1 X96.427 Y93.057 E0.009
G1 X96.131 Y92.857 E0.009
G1 X95.81 Y92.701 E0.009
G1 X95.47 Y92.589 E0.009
G1 X95.117 Y92.528 E0.009
G1 X94.761 Y92.515 E0.009
G1 X94.405 Y92.552 E0.009
G1 X94.059 Y92.639 E0.009
G1 X93.727 Y92.772 E0.009
G1 X93.417 Y92.952 E0.009
G1 X93.137 Y93.172 E0.009
G1 F2700 E-7
;rapid-dry
G0 X110.421 Y94.393 F7200
G1 F2700 E7
;bead-perimeter_outer
G1 X110.4 Y94.8 F1800 E0.01
G1 X110.421 Y95.207 E0.01
G1 X110.483 Y95.608 E0.01
G1 X110.587 Y96.001 E0.01
G1 X110.73 Y96.382 E0.01
G1 X110.912 Y96.746 E0.01
G1 X111.131 Y97.089 E0.011
G1 X111.383 Y97.408 E0.01
G1 X111.667 Y97.699 E0.01
G1 X111.979 Y97.959 E0.01
G1 X112.317 Y98.187 E0.01
G1 X112.675 Y98.377 E0.01
G1 X113.052 Y98.531 E0.01
G1 X113.443 Y98.645 E0.011
G1 X113.842 Y98.718 E0.01
G1 X114.248 Y98.749 E0.01
G1 X114.655 Y98.739 E0.01
G1 X115.058 Y98.686 E0.01
G1 X115.454 Y98.593 E0.01
G1 X115.683 Y98.514 E0.006
G1 X115.839 Y98.459 E0.004
G1 X116.206 Y98.287 E0.011
G1 X116.555 Y98.077 E0.01
G1 X116.88 Y97.834 E0.01
G1 X117.18 Y97.557 E0.01
G1 X117.447 Y97.251 E0.01
G1 X117.683 Y96.921 E0.01
G1 X117.883 Y96.567 E0.01
G1 X118.046 Y96.194 E0.011
G1 X118.17 Y95.806 E0.01
G1 X118.253 Y95.408 E0.01
G1 X118.295 Y95.003 E0.01
G1 Y94.597 E0.01
G1 X118.253 Y94.192 E0.01
G1 X118.17 Y93.794 E0.01
G1 X118.046 Y93.406 E0.011
G1 X117.883 Y93.033 E0.01
G1 X117.683 Y92.679 E0.01
G1 X117.447 Y92.349 E0.01
G1 X117.288 Y92.167 E0.006
G1 X117.179 Y92.043 E0.004
G1 X116.88 Y91.766 E0.01
G1 X116.555 Y91.523 E0.011
G1 X116.206 Y91.313 E0.01
G1 X115.839 Y91.141 E0.01
G1 X115.454 Y91.007 E0.01
G1 X115.058 Y90.914 E0.01
G1 X114.655 Y90.861 E0.01
G1 X114.248 Y90.851 E0.01
G1 X113.842 Y90.882 E0.011
G1 X113.443 Y90.955 E0.01
G1 X113.052 Y91.069 E0.01
G1 X112.675 Y91.223 E0.01
G1 X112.317 Y91.413 E0.01
G1 X111.979 Y91.641 E0.01
G1 X111.667 Y91.901 E0.01
G1 X111.383 Y92.192 E0.011
G1 X111.131 Y92.511 E0.01
G1 X110.912 Y92.854 E0.01
G1 X110.73 Y93.218 E0.01
G1 X110.587 Y93.599 E0.01
G1 X110.483 Y93.992 E0.01
G1 X110.421 Y94.393 E0.01
;rapid-leaky
G0 X110.062 Y94.356 F7200
;bead-perimeter_inner
G1 X110.039 Y94.8 F2400 E0.011
G1 X110.062 Y95.243 E0.012
G1 X110.13 Y95.682 E0.011
G1 X110.244 Y96.111 E0.011
G1 X110.4 Y96.526 E0.011
G1 X110.598 Y96.923 E0.011
G1 X110.837 Y97.298 E0.011
G1 X111.112 Y97.646 E0.011
G1 X111.422 Y97.964 E0.011
G1 X111.762 Y98.247 E0.011
G1 X112.131 Y98.496 E0.011
G1 X112.522 Y98.704 E0.011
G1 X112.934 Y98.872 E0.011
G1 X113.36 Y98.996 E0.011
G1 X113.796 Y99.075 E0.011
G1 X114.238 Y99.11 E0.012
G1 X114.683 Y99.098 E0.011
G1 X115.122 Y99.041 E0.011
G1 X115.554 Y98.94 E0.011
G1 X115.801 Y98.854 E0.006
G1 X115.975 Y98.793 E0.005
G1 X116.376 Y98.605 E0.011
G1 X116.756 Y98.376 E0.011
G1 X117.111 Y98.111 E0.011
G1 X117.438 Y97.808 E0.011
G1 X117.73 Y97.475 E0.011
G1 X117.987 Y97.114 E0.011
G1 X118.206 Y96.728 E0.011
G1 X118.384 Y96.321 E0.011
G1 X118.518 Y95.897 E0.011
G1 X118.609 Y95.464 E0.012
G1 X118.655 Y95.022 E0.011
G1 Y94.578 E0.011
G1 X118.609 Y94.136 E0.011
G1 X118.518 Y93.703 E0.011
G1 X118.384 Y93.279 E0.011
G1 X118.206 Y92.872 E0.011
G1 X117.987 Y92.486 E0.011
G1 X117.73 Y92.125 E0.011
G1 X117.559 Y91.93 E0.007
G1 X117.438 Y91.792 E0.004
G1 X117.111 Y91.489 E0.011
G1 X116.756 Y91.224 E0.011
G1 X116.376 Y90.995 E0.011
G1 X115.975 Y90.807 E0.011
G1 X115.554 Y90.66 E0.012
G1 X115.122 Y90.559 E0.011
G1 X114.683 Y90.502 E0.011
G1 X114.238 Y90.49 E0.011
G1 X113.796 Y90.525 E0.011
G1 X113.36 Y90.604 E0.011
G1 X112.934 Y90.728 E0.011
G1 X112.522 Y90.896 E0.011
G1 X112.131 Y91.104 E0.011
G1 X111.762 Y91.353 E0.011
G1 X111.422 Y91.636 E0.011
G1 X111.112 Y91.954 E0.011
G1 X110.837 Y92.302 E0.011
G1 X110.598 Y92.677 E0.011
G1 X110.4 Y93.074 E0.012
G1 X110.244 Y93.489 E0.011
G1 X110.13 Y93.918 E0.011
G1 X110.062 Y94.356 E0.011
G1 F2700 E-7
;rapid-dry
G0 X76.35 Y115.2 F7200
G1 F2700 E7
;bead-perimeter_outer
G1 X143.65 F1800 E1.679
G1 Y135.2 E0.498
G1 X76.35 E1.679
G1 Y115.2 E0.499
;rapid-leaky
G0 X76.71 Y115.56 F7200
;bead-perimeter_inner
G1 X143.29 F2400 E1.661
G1 Y134.84 E0.481
G1 X76.71 E1.661
G1 Y115.56 E0.481
;rapid-leaky
G0 X77.03 Y134.188 F7200
;bead-sparse_infill
G1 X77.327 Y133.735 F3600 E0.013
G1 X77.556 Y132.666 E0.027
G1 X77.051 Y131.598 E0.03
G1 X77.03 Y131.582 E0.001
G1 Y125.643 E0.148
G1 X77.327 Y125.189 E0.013
G1 X77.556 Y124.121 E0.028
G1 X77.051 Y123.053 E0.029
G1 X77.03 Y123.037 E0.001
G1 Y117.098 E0.148
G1 X77.327 Y116.644 E0.013
G1 X77.491 Y115.88 E0.02
G1 X81.1 E0.09
G1 X81.599 Y116.644 E0.023
G1 X81.829 Y117.712 E0.027
G1 X81.324 Y118.781 E0.029
G1 X79.944 Y119.849 E0.044
G1 X79.246 Y120.917 E0.032
G1 X79.016 Y121.985 E0.027
G1 X79.521 Y123.053 E0.029
G1 X80.901 Y124.121 E0.044
G1 X81.599 Y125.189 E0.032
G1 X81.829 Y126.258 E0.027
G1 X81.324 Y127.326 E0.03
G1 X79.944 Y128.394 E0.043
G1 X79.246 Y129.462 E0.032
G1 X79.016 Y130.53 E0.027
G1 X79.521 Y131.598 E0.03
G1 X80.901 Y132.666 E0.043
G1 X81.599 Y133.735 E0.032
G1 X81.768 Y134.52 E0.02
G1 X85.358 E0.09
G1 X85.872 Y133.735 E0.023
G1 X86.102 Y132.666 E0.027
G1 X85.596 Y131.598 E0.03
G1 X84.217 Y130.53 E0.043
G1 X83.518 Y129.462 E0.032
G1 X83.289 Y128.394 E0.027
G1 X83.794 Y127.326 E0.03
G1 X85.173 Y126.258 E0.043
G1 X85.872 Y125.189 E0.032
G1 X86.102 Y124.121 E0.027
G1 X85.596 Y123.053 E0.03
G1 X84.217 Y121.985 E0.043
G1 X83.518 Y120.917 E0.032
G1 X83.289 Y119.849 E0.028
G1 X83.794 Y118.781 E0.029
G1 X85.173 Y117.712 E0.043
G1 X85.872 Y116.644 E0.032
G1 X86.036 Y115.88 E0.02
G1 X89.645 E0.09
G1 X90.144 Y116.644 E0.023
G1 X90.374 Y117.712 E0.027
G1 X89.869 Y118.781 E0.029
G1 X88.489 Y119.849 E0.044
G1 X87.791 Y120.917 E0.032
G1 X87.561 Y121.985 E0.027
G1 X88.067 Y123.053 E0.029
G1 X89.446 Y124.121 E0.044
G1 X90.144 Y125.189 E0.032
G1 X90.374 Y126.258 E0.027
G1 X89.869 Y127.326 E0.03
G1 X88.489 Y128.394 E0.043
G1 X87.791 Y129.462 E0.032
G1 X87.561 Y130.53 E0.027
G1 X88.067 Y131.598 E0.03
G1 X89.446 Y132.666 E0.043
G1 X90.144 Y133.735 E0.032
G1 X90.313 Y134.52 E0.02
G1 X93.903 E0.09
G1 X94.417 Y133.735 E0.023
G1 X94.647 Y132.666 E0.027
G1 X94.141 Y131.598 E0.03
G1 X92.762 Y130.53 E0.043
G1 X92.063 Y129.462 E0.032
G1 X91.834 Y128.394 E0.027
G1 X92.339 Y127.326 E0.03
G1 X93.718 Y126.258 E0.043
G1 X94.417 Y125.189 E0.032
G1 X94.647 Y124.121 E0.027
G1 X94.141 Y123.053 E0.03
G1 X92.762 Y121.985 E0.043
G1 X92.063 Y120.917 E0.032
G1 X91.834 Y119.849 E0.028
G1 X92.339 Y118.781 E0.029
G1 X93.718 Y117.712 E0.044
G1 X94.417 Y116.644 E0.031
G1 X94.581 Y115.88 E0.02
G1 X98.19 E0.09
G1 X98.69 Y116.644 E0.023
G1 X98.919 Y117.712 E0.027
G1 X98.414 Y118.781 E0.029
G1 X97.035 Y119.849 E0.044
G1 X96.336 Y120.917 E0.032
G1 X96.106 Y121.985 E0.027
G1 X96.612 Y123.053 E0.029
G1 X97.991 Y124.121 E0.044
G1 X98.69 Y125.189 E0.032
G1 X98.919 Y126.258 E0.027
G1 X98.414 Y127.326 E0.029
G1 X97.035 Y128.394 E0.044
G1 X96.336 Y129.462 E0.032
G1 X96.106 Y130.53 E0.027
G1 X96.612 Y131.598 E0.03
G1 X97.991 Y132.666 E0.043
G1 X98.69 Y133.735 E0.032
G1 X98.858 Y134.52 E0.02
G1 X102.448 E0.09
G1 X102.962 Y133.735 E0.023
G1 X103.192 Y132.666 E0.027
G1 X102.686 Y131.598 E0.03
G1 X101.307 Y130.53 E0.043
G1 X100.609 Y129.462 E0.032
G1 X100.379 Y128.394 E0.027
G1 X100.884 Y127.326 E0.03
G1 X102.264 Y126.258 E0.043
G1 X102.962 Y125.189 E0.032
G1 X103.192 Y124.121 E0.027
G1 X102.686 Y123.053 E0.03
G1 X101.307 Y121.985 E0.043
G1 X100.609 Y120.917 E0.032
G1 X100.379 Y119.849 E0.027
G1 X100.884 Y118.781 E0.03
G1 X102.264 Y117.712 E0.043
G1 X102.962 Y116.644 E0.032
G1 X103.126 Y115.88 E0.02
G1 X106.735 E0.09
G1 X107.235 Y116.644 E0.023
G1 X107.464 Y117.712 E0.027
G1 X106.959 Y118.781 E0.029
G1 X105.58 Y119.849 E0.044
G1 X104.881 Y120.917 E0.032
G1 X104.652 Y121.985 E0.027
G1 X105.157 Y123.053 E0.029
G1 X106.536 Y124.121 E0.044
G1 X107.235 Y125.189 E0.032
G1 X107.464 Y126.258 E0.027
G1 X106.959 Y127.326 E0.03
G1 X105.58 Y128.394 E0.043
G1 X104.881 Y129.462 E0.032
G1 X104.652 Y130.53 E0.027
G1 X105.157 Y131.598 E0.03
G1 X106.536 Y132.666 E0.043
G1 X107.235 Y133.735 E0.032
G1 X107.404 Y134.52 E0.02
G1 X110.994 E0.09
G1 X111.507 Y133.735 E0.023
G1 X111.737 Y132.666 E0.027
G1 X111.232 Y131.598 E0.03
G1 X109.852 Y130.53 E0.043
G1 X109.154 Y129.462 E0.032
G1 X108.924 Y128.394 E0.027
G1 X109.429 Y127.326 E0.03
G1 X110.809 Y126.258 E0.043
G1 X111.507 Y125.189 E0.032
G1 X111.737 Y124.121 E0.027
G1 X111.232 Y123.053 E0.03
G1 X109.852 Y121.985 E0.043
G1 X109.154 Y120.917 E0.032
G1 X108.924 Y119.849 E0.027
G1 X109.429 Y118.781 E0.03
G1 X110.809 Y117.712 E0.043
G1 X111.507 Y116.644 E0.032
G1 X111.672 Y115.88 E0.02
G1 X115.28 E0.09
G1 X115.78 Y116.644 E0.023
G1 X116.01 Y117.712 E0.027
G1 X115.504 Y118.781 E0.029
G1 X114.125 Y119.849 E0.044
G1 X113.426 Y120.917 E0.032
G1 X113.197 Y121.985 E0.027
G1 X113.702 Y123.053 E0.029
G1 X115.081 Y124.121 E0.044
G1 X115.78 Y125.189 E0.032
G1 X116.01 Y126.258 E0.027
G1 X115.504 Y127.326 E0.029
G1 X114.125 Y128.394 E0.044
G1 X113.426 Y129.462 E0.032
G1 X113.197 Y130.53 E0.027
G1 X113.702 Y131.598 E0.03
G1 X115.081 Y132.666 E0.043
G1 X115.78 Y133.735 E0.032
G1 X115.949 Y134.52 E0.02
G1 X119.539 E0.089
G1 X120.052 Y133.735 E0.024
G1 X120.282 Y132.666 E0.027
G1 X119.777 Y131.598 E0.03
G1 X118.397 Y130.53 E0.043
G1 X117.699 Y129.462 E0.032
G1 X117.469 Y128.394 E0.027
G1 X117.975 Y127.326 E0.03
G1 X119.354 Y126.258 E0.043
G1 X120.052 Y125.189 E0.032
G1 X120.282 Y124.121 E0.027
G1 X119.777 Y123.053 E0.03
G1 X118.397 Y121.985 E0.043
G1 X117.699 Y120.917 E0.032
G1 X117.469 Y119.849 E0.027
G1 X117.975 Y118.781 E0.03
G1 X119.354 Y117.712 E0.043
G1 X120.052 Y116.644 E0.032
G1 X120.217 Y115.88 E0.02
G1 X123.825 E0.09
G1 X124.325 Y116.644 E0.023
G1 X124.555 Y117.712 E0.027
G1 X124.049 Y118.781 E0.029
G1 X122.67 Y119.849 E0.044
G1 X121.971 Y120.917 E0.032
G1 X121.742 Y121.985 E0.027
G1 X122.247 Y123.053 E0.029
G1 X123.626 Y124.121 E0.044
G1 X124.325 Y125.189 E0.032
G1 X124.555 Y126.258 E0.027
G1 X124.049 Y127.326 E0.029
G1 X122.67 Y128.394 E0.044
G1 X121.971 Y129.462 E0.032
G1 X121.742 Y130.53 E0.027
G1 X122.247 Y131.598 E0.03
G1 X123.626 Y132.666 E0.043
G1 X124.325 Y133.735 E0.032
G1 X124.494 Y134.52 E0.02
G1 X128.084 E0.089
G1 X128.598 Y133.735 E0.024
G1 X128.827 Y132.666 E0.027
G1 X128.322 Y131.598 E0.03
G1 X126.943 Y130.53 E0.043
G1 X126.244 Y129.462 E0.032
G1 X126.014 Y128.394 E0.027
G1 X126.52 Y127.326 E0.03
G1 X127.899 Y126.258 E0.043
G1 X128.598 Y125.189 E0.032
G1 X128.827 Y124.121 E0.027
G1 X128.322 Y123.053 E0.03
G1 X126.943 Y121.985 E0.043
G1 X126.244 Y120.917 E0.032
G1 X126.014 Y119.849 E0.027
G1 X126.52 Y118.781 E0.03
G1 X127.899 Y117.712 E0.043
G1 X128.598 Y116.644 E0.032
G1 X128.762 Y115.88 E0.02
G1 X132.37 E0.09
G1 X132.87 Y116.644 E0.023
G1 X133.1 Y117.712 E0.027
G1 X132.594 Y118.781 E0.029
G1 X131.215 Y119.849 E0.044
G1 X130.517 Y120.917 E0.032
G1 X130.287 Y121.985 E0.027
G1 X130.792 Y123.053 E0.029
G1 X132.172 Y124.121 E0.044
G1 X132.87 Y125.189 E0.032
G1 X133.1 Y126.258 E0.027
G1 X132.594 Y127.326 E0.029
G1 X131.215 Y128.394 E0.044
G1 X130.517 Y129.462 E0.032
G1 X130.287 Y130.53 E0.027
G1 X130.792 Y131.598 E0.029
G1 X132.172 Y132.666 E0.044
G1 X132.87 Y133.735 E0.032
G1 X133.039 Y134.52 E0.02
G1 X136.629 E0.089
G1 X137.143 Y133.735 E0.024
G1 X137.372 Y132.666 E0.027
G1 X136.867 Y131.598 E0.03
G1 X135.488 Y130.53 E0.043
G1 X134.789 Y129.462 E0.032
G1 X134.56 Y128.394 E0.027
G1 X135.065 Y127.326 E0.03
G1 X136.444 Y126.258 E0.043
G1 X137.143 Y125.189 E0.032
G1 X137.372 Y124.121 E0.027
G1 X136.867 Y123.053 E0.03
G1 X135.488 Y121.985 E0.043
G1 X134.789 Y120.917 E0.032
G1 X134.56 Y119.849 E0.027
G1 X135.065 Y118.781 E0.03
G1 X136.444 Y117.712 E0.043
G1 X137.143 Y116.644 E0.032
G1 X137.307 Y115.88 E0.02
G1 X140.915 E0.09
G1 X141.415 Y116.644 E0.022
G1 X141.645 Y117.712 E0.028
G1 X141.14 Y118.781 E0.029
G1 X139.76 Y119.849 E0.044
G1 X139.062 Y120.917 E0.032
G1 X138.832 Y121.985 E0.027
G1 X139.337 Y123.053 E0.029
G1 X140.717 Y124.121 E0.044
G1 X141.415 Y125.189 E0.032
G1 X141.645 Y126.258 E0.027
G1 X141.14 Y127.326 E0.029
G1 X139.76 Y128.394 E0.044
G1 X139.062 Y129.462 E0.032
G1 X138.832 Y130.53 E0.027
G1 X139.337 Y131.598 E0.029
G1 X140.717 Y132.666 E0.044
G1 X141.415 Y133.735 E0.032
G1 X141.584 Y134.52 E0.02
G1 F2700 E-7
;rapid-dry
G0 X115.94 Y100.3 F7200
G1 F2700 E7
;bead-sparse_infill
G1 X116.01 Y100.622 F3600 E0.008
G1 X115.504 Y101.69 E0.03
G1 X114.125 Y102.758 E0.043
G1 X113.426 Y103.827 E0.032
G1 X113.363 Y104.12 E0.007
G1 X109.346 E0.101
G1 X109.154 Y103.827 E0.008
G1 X108.924 Y102.758 E0.028
G1 X109.429 Y101.69 E0.029
G1 X110.809 Y100.622 E0.044
G1 X111.019 Y100.3 E0.009
G1 F2700 E-7
;rapid-dry
G0 X109.25 Y99.755 F7200
G1 F2700 E7
;bead-solid_infill
G1 X109.395 Y99.9 F1800 E0.005
G1 X109.961 E0.014
G1 X109.25 Y99.189 E0.026
G1 Y98.623 E0.014
G1 X110.527 Y99.9 E0.045
G1 X111.093 E0.014
G1 X109.25 Y98.057 E0.065
G1 Y97.492 E0.014
G1 X111.658 Y99.9 E0.085
G1 X112.224 E0.014
G1 X109.25 Y96.926 E0.105
G1 Y96.36 E0.014
G1 X112.79 Y99.9 E0.125
G1 X113.355 E0.014
G1 X112.493 Y99.037 E0.03
G1 X112.828 Y99.174 E0.009
G1 X113.287 Y99.308 E0.012
G1 X113.338 Y99.317 E0.002
G1 X113.921 Y99.9 E0.02
G1 X114.487 E0.014
G1 X113.998 Y99.412 E0.018
G1 X114.23 Y99.43 E0.005
G1 X114.573 Y99.421 E0.009
G1 X115.052 Y99.9 E0.017
G1 X115.618 E0.014
G1 X115.086 Y99.368 E0.019
G1 X115.18 Y99.356 E0.002
G1 X115.552 Y99.269 E0.01
G1 X116.184 Y99.9 E0.022
G1 X116.749 E0.014
G1 X115.98 Y99.13 E0.027
G1 X116.096 Y99.09 E0.003
G1 X116.374 Y98.959 E0.008
G1 X117.315 Y99.9 E0.033
G1 X117.881 E0.014
G1 X116.74 Y98.759 E0.04
G1 X116.755 Y98.75 E0.001
G1 X116.934 Y98.642 E0.005
G1 X117.08 Y98.534 E0.005
G1 X118.446 Y99.9 E0.048
G1 X119.012 E0.014
G1 X117.396 Y98.283 E0.057
G1 X117.668 Y98.031 E0.009
G1 X117.687 Y98.009 E0.001
G1 X119.45 Y99.772 E0.062
G1 Y99.207 E0.014
G1 X117.951 Y97.708 E0.053
G1 X117.981 Y97.674 E0.001
G1 X118.19 Y97.381 E0.009
G1 X119.45 Y98.641 E0.045
G1 Y98.075 E0.014
G1 X118.403 Y97.028 E0.037
G1 X118.492 Y96.871 E0.004
G1 X118.589 Y96.649 E0.006
G1 X119.45 Y97.509 E0.031
G1 Y96.944 E0.014
G1 X118.745 Y96.239 E0.025
G1 X118.828 Y95.979 E0.006
G1 X118.867 Y95.795 E0.005
G1 X119.45 Y96.378 E0.021
G1 Y95.812 E0.014
G1 X118.947 Y95.309 E0.018
G1 X118.975 Y95.039 E0.006
G1 Y94.772 E0.007
G1 X119.45 Y95.247 E0.017
G1 Y94.681 E0.014
G1 X118.934 Y94.165 E0.018
G1 X118.926 Y94.087 E0.002
G1 X118.877 Y93.852 E0.006
G1 X118.828 Y93.621 E0.006
G1 X118.769 Y93.434 E0.005
G1 X119.45 Y94.115 E0.024
G1 Y93.55 E0.014
G1 X118.314 Y92.413 E0.04
G1 X118.257 Y92.314 E0.003
G1 X117.981 Y91.927 E0.012
G1 X117.85 Y91.776 E0.005
G1 X117.8 Y91.719 E0.002
G1 X117.667 Y91.568 E0.005
G1 X117.609 Y91.514 E0.002
G1 X117.316 Y91.243 E0.01
G1 X117.034 Y91.032 E0.008
G1 X116.934 Y90.958 E0.003
G1 X116.743 Y90.842 E0.006
G1 X115.6 Y89.7 E0.04
G1 X115.035 E0.014
G1 X115.711 Y90.376 E0.024
G1 X115.644 Y90.353 E0.002
G1 X115.18 Y90.244 E0.012
G1 X114.988 Y90.219 E0.005
G1 X114.469 Y89.7 E0.018
G1 X113.903 E0.014
G1 X114.377 Y90.174 E0.017
G1 X114.23 Y90.17 E0.004
G1 X113.838 Y90.201 E0.009
G1 X113.338 Y89.7 E0.018
G1 X112.772 E0.014
G1 X113.352 Y90.28 E0.021
G1 X113.287 Y90.292 E0.001
G1 X112.978 Y90.382 E0.008
G1 X112.909 Y90.402 E0.002
G1 X112.206 Y89.7 E0.025
G1 X111.641 E0.014
G1 X112.5 Y90.56 E0.03
G1 X112.386 Y90.606 E0.003
G1 X112.134 Y90.74 E0.008
G1 X112.122 Y90.747
G1 X111.075 Y89.7 E0.037
G1 X110.509 E0.014
G1 X111.771 Y90.961 E0.044
G1 X111.731 Y90.988 E0.002
G1 X111.57 Y91.096 E0.004
G1 X111.445 Y91.201 E0.005
G1 X109.943 Y89.7 E0.052
G1 X109.378 E0.015
G1 X111.143 Y91.465 E0.062
G1 X110.871 Y91.742 E0.01
G1 X110.864 Y91.752
G1 X109.25 Y90.138 E0.057
G1 Y90.704 E0.014
G1 X110.614 Y92.068 E0.048
G1 X110.365 Y92.384 E0.01
G1 X109.25 Y91.269 E0.039
G1 Y91.835 E0.014
G1 X110.191 Y92.776 E0.034
G1 X110.106 Y92.946 E0.004
G1 X110.062 Y93.062 E0.004
G1 X110.021 Y93.172 E0.002
G1 X109.25 Y92.401 E0.028
G1 Y92.966 E0.014
G1 X109.884 Y93.6 E0.022
G1 X109.817 Y93.852 E0.007
G1 X109.783 Y94.065 E0.005
G1 X109.25 Y93.532 E0.019
G1 Y94.098 E0.014
G1 X109.73 Y94.578 E0.017
G1 X109.719 Y94.8 E0.005
G1 X109.737 Y95.15 E0.009
G1 X109.25 Y94.663 E0.017
G1 Y95.229 E0.015
G1 X109.834 Y95.813 E0.02
G1 X109.939 Y96.208 E0.01
G1 X110.104 Y96.649 E0.012
G1 X109.25 Y95.795 E0.03
G1 F2700 E-7
;rapid-dry
G0 X116.166 Y89.7 F7200
G1 F2700 E7
;bead-solid_infill
G1 X119.45 Y92.984 F1800 E0.116
G1 Y92.418 E0.014
G1 X116.732 Y89.7 E0.096
G1 X117.297 E0.014
G1 X119.45 Y91.853 E0.076
G1 Y91.287 E0.014
G1 X117.863 Y89.7 E0.056
G1 X118.429 E0.014
G1 X119.45 Y90.721 E0.036
G1 Y90.156 E0.014
G1 X118.994 Y89.7 E0.017
;rapid-leaky
G0 X140.003 Y85.48 F7200
;bead-sparse_infill
G1 X139.76 Y85.668 F3600 E0.007
G1 X139.062 Y86.736 E0.032
G1 X138.832 Y87.804 E0.027
G1 X139.337 Y88.873 E0.03
G1 X140.717 Y89.941 E0.043
G1 X141.415 Y91.009 E0.032
G1 X141.645 Y92.077 E0.027
G1 X141.14 Y93.145 E0.03
G1 X139.76 Y94.213 E0.043
G1 X139.062 Y95.281 E0.032
G1 X138.832 Y96.35 E0.027
G1 X139.337 Y97.418 E0.03
G1 X140.717 Y98.486 E0.043
G1 X141.415 Y99.554 E0.032
G1 X141.645 Y100.622 E0.028
G1 X141.14 Y101.69 E0.029
G1 X139.76 Y102.758 E0.044
G1 X139.062 Y103.827 E0.031
G1 X138.999 Y104.12 E0.008
G1 X134.981 E0.1
G1 X134.789 Y103.827 E0.009
G1 X134.56 Y102.758 E0.027
G1 X135.065 Y101.69 E0.03
G1 X136.444 Y100.622 E0.043
G1 X137.143 Y99.554 E0.032
G1 X137.372 Y98.486 E0.027
G1 X136.867 Y97.418 E0.03
G1 X135.488 Y96.35 E0.043
G1 X134.789 Y95.281 E0.032
G1 X134.56 Y94.213 E0.027
G1 X135.065 Y93.145 E0.03
G1 X136.444 Y92.077 E0.043
G1 X137.143 Y91.009 E0.032
G1 X137.372 Y89.941 E0.027
G1 X136.867 Y88.873 E0.03
G1 X135.488 Y87.804 E0.043
G1 X134.789 Y86.736 E0.032
G1 X134.56 Y85.668 E0.027
G1 X134.649 Y85.48 E0.006
G1 X131.458 E0.079
G1 X131.215 Y85.668 E0.008
G1 X130.517 Y86.736 E0.032
G1 X130.287 Y87.804 E0.027
G1 X130.792 Y88.873 E0.029
G1 X132.172 Y89.941 E0.044
G1 X132.87 Y91.009 E0.032
G1 X133.1 Y92.077 E0.027
G1 X132.594 Y93.145 E0.029
G1 X131.215 Y94.213 E0.044
G1 X130.517 Y95.281 E0.032
G1 X130.287 Y96.35 E0.027
G1 X130.792 Y97.418 E0.03
G1 X132.172 Y98.486 E0.043
G1 X132.87 Y99.554 E0.032
G1 X133.1 Y100.622 E0.027
G1 X132.594 Y101.69 E0.03
G1 X131.215 Y102.758 E0.043
G1 X130.517 Y103.827 E0.032
G1 X130.453 Y104.12 E0.007
G1 X126.436 E0.101
G1 X126.244 Y103.827 E0.008
G1 X126.014 Y102.758 E0.028
G1 X126.52 Y101.69 E0.029
G1 X127.899 Y100.622 E0.044
G1 X128.598 Y99.554 E0.031
G1 X128.827 Y98.486 E0.028
G1 X128.322 Y97.418 E0.029
G1 X126.943 Y96.35 E0.044
G1 X126.244 Y95.281 E0.032
G1 X126.014 Y94.213 E0.027
G1 X126.52 Y93.145 E0.029
G1 X127.899 Y92.077 E0.044
G1 X128.598 Y91.009 E0.032
G1 X128.827 Y89.941 E0.027
G1 X128.322 Y88.873 E0.029
G1 X126.943 Y87.804 E0.044
G1 X126.244 Y86.736 E0.032
G1 X126.014 Y85.668 E0.027
G1 X126.103 Y85.48 E0.005
G1 X122.913 E0.08
G1 X122.67 Y85.668 E0.007
G1 X121.971 Y86.736 E0.032
G1 X121.742 Y87.804 E0.028
G1 X122.247 Y88.873 E0.029
G1 X123.626 Y89.941 E0.044
G1 X124.325 Y91.009 E0.031
G1 X124.555 Y92.077 E0.028
G1 X124.049 Y93.145 E0.029
G1 X122.67 Y94.213 E0.044
G1 X121.971 Y95.281 E0.032
G1 X121.742 Y96.35 E0.027
G1 X122.247 Y97.418 E0.029
G1 X123.626 Y98.486 E0.044
G1 X124.325 Y99.554 E0.032
G1 X124.555 Y100.622 E0.027
G1 X124.049 Y101.69 E0.029
G1 X122.67 Y102.758 E0.044
G1 X121.971 Y103.827 E0.032
G1 X121.908 Y104.12 E0.007
G1 X117.891 E0.1
G1 X117.699 Y103.827 E0.009
G1 X117.469 Y102.758 E0.027
G1 X117.975 Y101.69 E0.03
G1 X119.354 Y100.622 E0.043
G1 X119.565 Y100.3 E0.01
G1 X119.85 E0.007
G1 Y99.864 E0.011
G1 X120.052 Y99.554 E0.009
G1 X120.282 Y98.486 E0.027
G1 X119.85 Y97.573 E0.026
G1 Y91.318 E0.156
G1 X120.052 Y91.009 E0.009
G1 X120.282 Y89.941 E0.027
G1 X119.777 Y88.873 E0.03
G1 X118.397 Y87.804 E0.043
G1 X117.699 Y86.736 E0.032
G1 X117.469 Y85.668 E0.027
G1 X117.558 Y85.48 E0.005
G1 X114.368 E0.08
G1 X114.125 Y85.668 E0.008
G1 X113.426 Y86.736 E0.031
G1 X113.197 Y87.804 E0.028
G1 X113.702 Y88.873 E0.029
G1 X114.254 Y89.3 E0.018
G1 X111.434 E0.07
G1 X111.232 Y88.873 E0.012
G1 X109.852 Y87.804 E0.043
G1 X109.154 Y86.736 E0.032
G1 X108.924 Y85.668 E0.027
G1 X109.013 Y85.48 E0.006
G1 X105.823 E0.079
G1 X105.58 Y85.668 E0.008
G1 X104.881 Y86.736 E0.032
G1 X104.652 Y87.804 E0.027
G1 X105.157 Y88.873 E0.029
G1 X106.536 Y89.941 E0.044
G1 X107.235 Y91.009 E0.032
G1 X107.464 Y92.077 E0.027
G1 X106.959 Y93.145 E0.03
G1 X105.58 Y94.213 E0.043
G1 X104.881 Y95.281 E0.032
G1 X104.652 Y96.35 E0.027
G1 X105.157 Y97.418 E0.03
G1 X106.536 Y98.486 E0.043
G1 X107.235 Y99.554 E0.032
G1 X107.464 Y100.622 E0.027
G1 X106.959 Y101.69 E0.03
G1 X105.58 Y102.758 E0.043
G1 X104.881 Y103.827 E0.032
G1 X104.818 Y104.12 E0.007
G1 X100.801 E0.101
G1 X100.609 Y103.827 E0.008
G1 X100.379 Y102.758 E0.028
G1 X100.884 Y101.69 E0.029
G1 X102.264 Y100.622 E0.044
G1 X102.962 Y99.554 E0.032
G1 X103.192 Y98.486 E0.027
G1 X102.686 Y97.418 E0.029
G1 X101.307 Y96.35 E0.044
G1 X100.609 Y95.281 E0.032
G1 X100.379 Y94.213 E0.027
G1 X100.884 Y93.145 E0.029
G1 X102.264 Y92.077 E0.044
G1 X102.962 Y91.009 E0.032
G1 X103.192 Y89.941 E0.027
G1 X102.686 Y88.873 E0.029
G1 X101.307 Y87.804 E0.044
G1 X100.609 Y86.736 E0.032
G1 X100.379 Y85.668 E0.027
G1 X100.468 Y85.48 E0.005
G1 X97.278 E0.08
G1 X97.035 Y85.668 E0.008
G1 X96.336 Y86.736 E0.031
G1 X96.106 Y87.804 E0.028
G1 X96.612 Y88.873 E0.029
G1 X97.991 Y89.941 E0.044
G1 X98.69 Y91.009 E0.031
G1 X98.919 Y92.077 E0.028
G1 X98.414 Y93.145 E0.029
G1 X97.465 Y93.88 E0.03
G1 X97.558 Y94.09 E0.006
G1 X97.669 Y94.475 E0.01
G1 X97.725 Y94.873 E0.01
G1 Y95.277 E0.01
G1 X97.669 Y95.675 E0.01
G1 X97.558 Y96.061 E0.01
G1 X97.395 Y96.427 E0.01
G1 X97.182 Y96.77 E0.01
G1 X96.923 Y97.077 E0.01
G1 X96.624 Y97.346 E0.01
G1 X96.589 Y97.37 E0.001
G1 X96.612 Y97.418 E0.001
G1 X97.991 Y98.486 E0.044
G1 X98.69 Y99.554 E0.032
G1 X98.919 Y100.622 E0.027
G1 X98.414 Y101.69 E0.03
G1 X97.035 Y102.758 E0.043
G1 X96.336 Y103.827 E0.032
G1 X96.273 Y104.12 E0.007
G1 X92.255 E0.101
G1 X92.063 Y103.827 E0.008
G1 X91.834 Y102.758 E0.028
G1 X92.339 Y101.69 E0.029
G1 X93.718 Y100.622 E0.044
G1 X94.417 Y99.554 E0.031
G1 X94.647 Y98.486 E0.028
G1 X94.377 Y97.917 E0.015
G1 X94.349 Y97.914 E0.001
G1 X93.96 Y97.816 E0.01
G1 X93.586 Y97.666 E0.01
G1 X93.238 Y97.464 E0.01
G1 X93.058 Y97.323 E0.006
G1 X92.922 Y97.217 E0.004
G1 X92.643 Y96.929 E0.01
G1 X92.406 Y96.602 E0.01
G1 X92.217 Y96.246 E0.01
G1 X92.079 Y95.87 E0.01
G1 X91.995 Y95.475 E0.01
G1 X91.968 Y95.076 E0.01
G1 X91.98 Y94.895 E0.005
G1 X91.834 Y94.213 E0.017
G1 X92.339 Y93.145 E0.03
G1 X93.718 Y92.077 E0.043
G1 X94.417 Y91.009 E0.032
G1 X94.647 Y89.941 E0.027
G1 X94.141 Y88.873 E0.03
G1 X92.762 Y87.804 E0.043
G1 X92.063 Y86.736 E0.032
G1 X91.834 Y85.668 E0.027
G1 X91.923 Y85.48 E0.006
G1 X88.732 E0.079
G1 X88.489 Y85.668 E0.008
G1 X87.791 Y86.736 E0.032
G1 X87.561 Y87.804 E0.027
G1 X88.067 Y88.873 E0.029
G1 X89.446 Y89.941 E0.044
G1 X90.144 Y91.009 E0.032
G1 X90.374 Y92.077 E0.027
G1 X89.869 Y93.145 E0.03
G1 X88.489 Y94.213 E0.043
G1 X87.791 Y95.281 E0.032
G1 X87.561 Y96.35 E0.027
G1 X88.067 Y97.418 E0.03
G1 X89.446 Y98.486 E0.043
G1 X90.144 Y99.554 E0.032
G1 X90.374 Y100.622 E0.027
